!!!!SEGMENT: pl-wtm--r-1722_stefani-jozef-marche-pas-double.krn
!!!id: 18xx:2326
!!!COM: Stefani, Józef
!!!OTL: Marche pas double
!!!PDT:
!!!SMS-siglum: PL-Wtm
!!!SMS-shelfmark: R 1722
!!!NIFC-rismID: 1001128948
!!!URL-scan: http://repozytorium.nifc.pl/skany/pl-wtm-nut--r1722
!!!ONB-nifc:
!!!SMS-variant:
!!!SMS-altvar:
**kern	**dynam	**kern	**dynam	**kern	**dynam	**kern	**dynam	**kern	**dynam	**kern	**dynam	**kern	**dynam	**kern	**dynam	**kern	**dynam	**kern	**dynam	**kern	**dynam	**kern	**dynam	**kern	**dynam	**kern	**dynam	**kern	**dynam	**kern	**dynam	**kern	**dynam	**kern	**dynam
*	*	*	*	*group2	*	*group2	*	*group2	*	*	*	*	*	*	*	*	*	*	*	*	*	*	*	*	*	*	*	*group1	*	*group1	*	*	*	*	*
*	*	*	*	*I""Tromboni	*	*I""Tromboni	*	*I""Tromboni	*	*	*	*	*	*	*	*	*	*	*	*	*	*	*	*	*	*	*	*I""Clarinetti in C	*	*I""Clarinetti in C	*	*	*	*	*
*part18	*part18	*part17	*part17	*part16	*part16	*part15	*part15	*part14	*part14	*part13	*part13	*part12	*part12	*part11	*part11	*part10	*part10	*part9	*part9	*part8	*part8	*part7	*part7	*part6	*part6	*part5	*part5	*part4	*part4	*part3	*part3	*part2	*part2	*part1	*part1
*staff18	*	*staff17	*	*staff16	*	*staff15	*	*staff14	*	*staff13	*	*staff12	*	*staff11	*	*staff10	*	*staff9	*	*staff8	*	*staff7	*	*staff6	*	*staff5	*	*staff4	*	*staff3	*	*staff2	*	*staff1	*
*I"Banda	*	*I"P: Tambour	*	*I"Basſo	*	*I"Tenore	*	*I"Alto	*	*I"Contrfagot Ophicleid	*	*I"Fagotti	*	*I"Trombe in G	*	*I"Trombe inventio in C	*	*I"Corni in C	*	*I"Corni in G.	*	*I"Flautti due	*	*I"Baſseti due	*	*I"Oboe	*	*	*	*	*	*I"Picolo	*	*I"Petit in F.	*
*clefF4	*	*clefF4	*	*clefF4	*	*clefC4	*	*clefC3	*	*clefF4	*	*clefF4	*	*clefG2	*	*clefG2	*	*clefG2	*	*clefG2	*	*clefG2	*	*clefG2	*	*clefG2	*	*clefG2	*	*clefG2	*	*clefG2	*	*clefG2	*
*	*	*	*	*	*	*	*	*	*	*ITrd0c0	*	*	*	*ITrd-4c-7	*	*	*	*ITrd0c0	*	*ITrd3c5	*	*	*	*ITrd4c7	*	*	*	*	*	*	*	*ITrd0c0	*	*ITrd-3c-5	*
*k[]	*	*k[]	*	*k[f#]	*	*k[f#]	*	*k[f#]	*	*k[f#]	*	*k[f#]	*	*k[f#]	*	*k[f#]	*	*k[f#]	*	*k[f#]	*	*k[f#]	*	*k[f#]	*	*k[f#]	*	*k[f#]	*	*k[f#]	*	*k[f#]	*	*k[f#]	*
*M2/4	*	*M2/4	*	*M2/4	*	*M2/4	*	*M2/4	*	*M2/4	*	*M2/4	*	*M2/4	*	*M2/4	*	*M2/4	*	*M2/4	*	*M2/4	*	*M2/4	*	*M2/4	*	*M2/4	*	*M2/4	*	*M2/4	*	*M2/4	*
*all\right	*	*all\right	*	*all\right	*	*all\right	*	*all\right	*	*all\right	*	*all\right	*	*all\right	*	*all\right	*	*all\right	*	*all\right	*	*all\right	*	*all\right	*	*all\right	*	*all\right	*	*all\right	*	*all\right	*	*all\right	*
*>[A,B,C,B,D,E,E1,E,E2,A,B]	*	*>[A,B,C,B,D,E,E1,E,E2,A,B]	*	*>[A,B,C,B,D,E,E1,E,E2,A,B]	*	*>[A,B,C,B,D,E,E1,E,E2,A,B]	*	*>[A,B,C,B,D,E,E1,E,E2,A,B]	*	*>[A,B,C,B,D,E,E1,E,E2,A,B]	*	*>[A,B,C,B,D,E,E1,E,E2,A,B]	*	*>[A,B,C,B,D,E,E1,E,E2,A,B]	*	*>[A,B,C,B,D,E,E1,E,E2,A,B]	*	*>[A,B,C,B,D,E,E1,E,E2,A,B]	*	*>[A,B,C,B,D,E,E1,E,E2,A,B]	*	*>[A,B,C,B,D,E,E1,E,E2,A,B]	*	*>[A,B,C,B,D,E,E1,E,E2,A,B]	*	*>[A,B,C,B,D,E,E1,E,E2,A,B]	*	*>[A,B,C,B,D,E,E1,E,E2,A,B]	*	*>[A,B,C,B,D,E,E1,E,E2,A,B]	*	*>[A,B,C,B,D,E,E1,E,E2,A,B]	*	*>[A,B,C,B,D,E,E1,E,E2,A,B]	*
*>A	*	*>A	*	*>A	*	*>A	*	*>A	*	*>A	*	*>A	*	*>A	*	*>A	*	*>A	*	*>A	*	*>A	*	*>A	*	*>A	*	*>A	*	*>A	*	*>A	*	*>A	*
*	*	*	*	*	*	*	*	*	*	*	*	*	*	*	*	*	*	*	*	*	*	*8va	*	*	*	*	*	*	*	*	*	*	*	*	*
*	*	*	*	*	*	*	*	*	*	*	*	*	*	*	*	*	*	*	*	*	*	*	*	*^	*	*	*	*	*	*	*	*	*	*	*
!	!	!LO:TUP:b:problem:przecinek zamiast numeru	!	!	!	!	!	!	!	!	!	!	!	!	!	!	!	!	!	!	!	!	!	!	!	!	!	!	!	!	!	!LO:DY:rj	!	!	!	!
8r	.	24Ra/LL	.	8r	.	8r	.	8r	.	8r	.	(16D\LL	.	8r	.	8r	.	8r	.	8r	.	16ddd\LL	.	16d/LL	16d\LL	.	16d\LL 16dd	.	(16d/LL	.	16dd\LL	f	(16dd\LL	.	(16dd/LL	f
.	.	24Ra/	.	.	.	.	.	.	.	.	.	.	.	.	.	.	.	.	.	.	.	.	.	.	.	.	.	.	.	.	.	.	.	.	.	.
.	.	.	.	.	.	.	.	.	.	.	.	32D\L	.	.	.	.	.	.	.	.	.	32eee\L	.	32e/L	32e\L	.	32e\L 32ee	.	32e/L	.	32ee\L	.	32ee\L	.	32ee/L	.
.	.	24Ra/JJ	.	.	.	.	.	.	.	.	.	.	.	.	.	.	.	.	.	.	.	.	.	.	.	.	.	.	.	.	.	.	.	.	.	.
.	.	.	.	.	.	.	.	.	.	.	.	32E\JJJ)	.	.	.	.	.	.	.	.	.	32fff#\JJJ	.	32f#/JJJ	32f#\JJJ	.	32f#\JJJ 32ff#	.	32f#/JJJ	.	32ff#\JJJ	.	32ff#\JJJ	.	32ff#/JJJ)	.
=1	=1	=1	=1	=1	=1	=1	=1	=1	=1	=1	=1	=1	=1	=1	=1	=1	=1	=1	=1	=1	=1	=1	=1	=1	=1	=1	=1	=1	=1	=1	=1	=1	=1	=1	=1	=1
*	*	*	*	*	*	*	*	*	*	*^	*	*	*	*^	*	*	*	*^	*	*^	*	*	*	*	*	*	*	*	*	*	*	*	*	*	*	*
!	!	!	!	!	!	!	!	!	!	!	!	!	!	!	!	!	!	!	!	!	!	!	!	!	!	!	!	!	!	!	!LO:TX:a:t=Col Clarinetti	!	!	!	!	!	!	!	!	!
4Ra/	.	4RaT</	.	4G^<\	.	4G/	.	4g^<\	.	4G/	4G\	.	4G^<\	.	4g/	4g\	.	4g^>/	.	4g^</	4g\	.	4g^</	4g\	.	4ggg\	.	4g/	4g\	.	4g\yy 4ggyy	.	4g/)	.	4gg\	.	4gg^<\)	.	4gg\	.
4Ra/	.	[4RaT</	.	4D^<\	.	4D/	.	4d^<\	.	4D/	4D\	.	4D^<\	.	4dd/	4dd\	.	4g^>/ 4dd	.	4dd^</	4dd\	.	4e^</	4e\	.	4dddT\	.	4dT/	4d\	.	4dT/yy 4ddyy	.	4dT/	.	4ddT\	.	4dd^<T\	.	4ddT\	.
*	*	*	*	*	*	*	*	*	*	*v	*v	*	*	*	*v	*v	*	*	*	*v	*v	*	*	*	*	*	*	*	*	*	*	*	*	*	*	*	*	*	*	*
.	.	.	.	.	.	.	.	.	.	.	.	.	.	.	.	.	.	.	.	.	.	.	16qqccc#X/LL	.	(>16qqc#X/LL	.	.	16qqc#X/LLyy 16qqcc#Xyy	.	16qqc#X/LL	.	16qqcc#X/LL	.	16qqcc#X/LL	.	(16qqcc#X/LL	.
.	.	.	.	.	.	.	.	.	.	.	.	.	.	.	.	.	.	.	.	.	.	.	16qqddd/JJ	.	16qqd/JJ	.	.	16qqd/JJyy 16qqddyy	.	16qqd/JJ	.	16qqdd/JJ	.	16qqdd/JJ	.	16qqdd/JJ)	.
=2	=2	=2	=2	=2	=2	=2	=2	=2	=2	=2	=2	=2	=2	=2	=2	=2	=2	=2	=2	=2	=2	=2	=2	=2	=2	=2	=2	=2	=2	=2	=2	=2	=2	=2	=2	=2	=2
*tremolo	*	*	*	*	*	*	*	*	*	*	*	*	*	*	*	*	*	*	*	*	*	*	*	*	*	*	*	*	*	*	*	*	*	*	*	*	*
!	!	!	!	!	!	!	!	!	!	!	!	!	!	!	!	!	!	!	!	!	!	!	!	!	!	!	!	!	!	!	!	!LO:TX:a:t=col Picolo	!	!	!	!	!
8Ra/L	.	8Ra/L]	.	8E'\L	.	8E/L	.	8e'\L	.	8E\L	.	8E'\L	.	8ee/L	.	8e/L 8ee	.	8ee\L	.	8e'/L	8e\L	.	8eee\L	.	8e'/L)	8e\L	.	8e'/Lyy 8eeyy	.	8e'/L	.	8ee\Lyy	.	8ee\L	.	8ee'\L	.
8Ra/	.	8Ra'/	.	8D#X'\	.	8D#X/	.	8d#X'\	.	8D#X\	.	8D#X'\	.	8dd#X/	.	8d#X/ 8dd#X	.	8dd#X\	.	8d#X'/	8d#\	.	8ddd#X\	.	8d#X'/	8d#\	.	8d#X'/yy 8dd#Xyy	.	8d#X'/	.	8dd#X\yy	.	8dd#X\	.	8dd#X'\	.
8Ra/J	.	8Ra'/J	.	8E'\J	.	8E/J	.	8e'\J	.	8E\J	.	8E'\J	.	8ee/J	.	8e/J 8ee	.	8ee\J	.	8e'/J	8e\J	.	8eee\J	.	8e'/J	8e\J	.	8e'/Jyy 8eeyy	.	8e'/J	.	8ee\Jyy	.	8ee\J	.	8ee'\J	.
*Xtremolo	*	*	*	*	*	*	*	*	*	*	*	*	*	*	*	*	*	*	*	*	*	*	*	*	*	*	*	*	*	*	*	*	*	*	*	*	*
8r	.	8r	.	8r	.	8r	.	8r	.	8r	.	8r	.	8r	.	8r	.	8r	.	8r	8ryy	.	8r	.	8r	8ryy	.	8ryy	.	8r	.	8ryy	.	8r	.	8r	.
*	*	*	*	*	*	*	*	*	*	*	*	*	*	*	*	*	*	*	*	*v	*v	*	*	*	*v	*v	*	*	*	*	*	*	*	*	*	*	*
*	*	*	*	*	*	*	*	*	*	*	*	*	*	*	*	*	*	*	*	*	*	*X8va	*	*	*	*	*	*	*	*	*	*	*	*	*
=3	=3	=3	=3	=3	=3	=3	=3	=3	=3	=3	=3	=3	=3	=3	=3	=3	=3	=3	=3	=3	=3	=3	=3	=3	=3	=3	=3	=3	=3	=3	=3	=3	=3	=3	=3
*	*	*	*	*	*	*	*	*	*	*	*	*	*	*	*	*	*	*^	*	*	*	*	*	*^	*	*	*	*	*	*	*	*	*	*	*
!	!	!	!	!	!	!	!	!	!	!	!	!	!	!	!	!	!	!	!	!	!	!	!LO:TX:a:t=loco	!	!	!	!	!	!	!	!	!	!	!	!	!	!
4Ra/	.	4RaT</	.	4AA^</	.	4E/	.	4e^<\	.	4AA/	.	4C^<\ 4E	.	4dd\ 4aa	.	4a^>/ 4cc	.	4dd^</ 4ee	4cc\	.	4d^<\ 4a	.	4ff#\ 4ccc	.	4e\ 4cc	4ryy	.	4ff#^<\yy 4cccyy	.	4ff#^<\	.	4ccc^<\yy	.	4ccc^<\	.	4ccc\	.
4Ra/	.	4RaT</	.	4D^</	.	4c\	.	4f#^<\	.	4D\	.	4D^<\ 4F#	.	4dd\ 4aa	.	4a^>/ 4cc	.	4dd^</	4cc\	.	4d^<\ 4a	.	4ddT\ 4ff#	.	4f#t/	4d\	.	4cc^<T\yy 4ff#yy	.	4cc^<\	.	4ff#^<t\yy	.	4ff#^<t\	.	4ff#t\	.
*	*	*	*	*	*	*	*	*	*	*	*	*	*	*	*	*	*	*v	*v	*	*	*	*	*	*	*	*	*	*	*	*	*	*	*	*	*	*
.	.	.	.	.	.	.	.	.	.	.	.	.	.	.	.	.	.	.	.	.	.	.	.	.	.	.	16qqee/LLyy	.	.	.	16qqee/LLyy	.	16qqee/LL	.	16qqee/LL	.
.	.	.	.	.	.	.	.	.	.	.	.	.	.	.	.	.	.	.	.	.	.	.	.	.	.	.	16qqff#/JJyy	.	.	.	16qqff#/JJyy	.	16qqff#/JJ	.	16qqff#/JJ	.
=4	=4	=4	=4	=4	=4	=4	=4	=4	=4	=4	=4	=4	=4	=4	=4	=4	=4	=4	=4	=4	=4	=4	=4	=4	=4	=4	=4	=4	=4	=4	=4	=4	=4	=4	=4	=4
*tremolo	*	*tremolo	*	*	*	*	*	*	*	*	*	*	*	*	*	*	*	*	*	*	*	*	*	*	*tremolo	*	*	*	*	*	*	*	*	*	*	*
8Ra/L	.	8Ra/L	.	8G'\L	.	8B\L	.	8g\L	.	8G\L	.	8D'\L 8G	.	8b/L 8gg	.	8g/L 8b	.	8g\L 8dd	.	8B'/L 8g	.	8b'\L 8gg	.	8g/L	8d\L	.	8b'\Lyy 8ggyy	.	8b'\L	.	8gg\Lyy	.	8gg\L	.	8gg'\L	.
8Ra/	.	8Ra/	.	8D'\	.	8A\	.	8f#\	.	8D\	.	8F#'\ 8A	.	8dd/ 8aa	.	8a/ 8cc	.	8cc\ 8dd	.	8d'/ 8a	.	8cc'\ 8ff#	.	8f#/	8d\	.	8cc'\yy 8ff#yy	.	8cc'\	.	8ff#\yy	.	8ff#\	.	8ff#'\	.
8Ra/J	.	8Ra/J	.	8G'\J	.	8B\J	.	8g\J	.	8G\J	.	8G'\J 8B	.	8b/J 8gg	.	8g/J 8b	.	8g\J 8dd	.	8B'/J 8g	.	8b'\J 8gg	.	8g/J	8d\J	.	8b'\Jyy 8ggyy	.	8b'\J	.	8gg\Jyy	.	8gg\J	.	8gg'\J	.
*Xtremolo	*	*Xtremolo	*	*	*	*	*	*	*	*	*	*	*	*	*	*	*	*	*	*	*	*	*	*	*Xtremolo	*	*	*	*	*	*	*	*	*	*	*
8r	.	8r	.	8r	.	8r	.	8r	.	8r	.	8r	.	8r	.	8r	.	8r	.	8r	.	8r	.	8r	8r	.	8ryy	.	8r	.	8ryy	.	8r	.	8r	.
=5	=5	=5	=5	=5	=5	=5	=5	=5	=5	=5	=5	=5	=5	=5	=5	=5	=5	=5	=5	=5	=5	=5	=5	=5	=5	=5	=5	=5	=5	=5	=5	=5	=5	=5	=5	=5
*	*	*	*	*	*	*	*	*	*	*	*	*^	*	*	*	*	*	*^	*	*^	*	*	*	*	*	*	*	*	*	*	*	*	*	*	*	*
4Ra/	.	4RaT</	.	4E^<\	.	4B\	.	4e^<\	.	4E\	.	4G^</	4E\	.	4b/ 4gg	.	4e^>/ 4ee	.	4ee^<\	4ryy	.	4g^<\ 4b	4ryy	.	4ee\	.	4e^/	4G\	.	4b^<\yy 4eeyy	.	4b^<\	.	4ee^<\yy	.	4ee^<\	.	4ee\	.
4Ra/	.	4RaT</	.	4D^<\	.	4B\	.	4g#X^<\	.	4D\	.	4E^</	4D\	.	4r	.	4d^>/ 4g#X	.	4ee^</	4dd\	.	4b/	4g#X\	.	4dd\ 4gg#X	.	4g#X^/	4G\	.	4ee^<\yy 4gg#Xyy	.	4ee^<\	.	4gg#X^<\yy	.	4gg#X^<\	.	4gg#Xt\	.
*	*	*	*	*	*	*	*	*	*	*	*	*v	*v	*	*	*	*	*	*v	*v	*	*	*	*	*	*	*	*	*	*	*	*	*	*	*	*	*	*	*
.	.	.	.	.	.	.	.	.	.	.	.	.	.	.	.	.	.	.	.	.	.	.	.	.	.	.	.	(16qqff#/LLyy	.	.	.	(16qqff#/LLyy	.	(16qqff#/LL	.	(16qqff#/LL	.
.	.	.	.	.	.	.	.	.	.	.	.	.	.	.	.	.	.	.	.	.	.	.	.	.	.	.	.	16qqgg#/JJ)yy	.	.	.	16qqgg#/JJ)yy	.	16qqgg#/JJ)	.	16qqgg#/JJ)	.
=6	=6	=6	=6	=6	=6	=6	=6	=6	=6	=6	=6	=6	=6	=6	=6	=6	=6	=6	=6	=6	=6	=6	=6	=6	=6	=6	=6	=6	=6	=6	=6	=6	=6	=6	=6	=6	=6
*tremolo	*	*tremolo	*	*	*	*	*	*	*	*	*	*	*	*	*	*	*	*	*	*	*	*	*	*	*	*	*	*	*	*	*	*	*	*	*	*	*
!	!	!	!	!	!	!	!	!	!	!	!	!	!	!	!	!	!	!	!	!LO:TX:t=P:problem:niewyraźny zapis	!	!	!	!	!	!	!	!	!	!	!	!	!	!	!	!	!
8Ra/L	.	8Ra/L	.	8C/L	.	8c'\L	.	8a\L	.	8C/L	.	8C'\L 8E	.	8b/ 8gg	.	8c/L 8a	.	8cc\L 8ee	.	8cc/L	8a\L	.	8ee\L 8aa	.	8a'/L	8B\L	.	8ee'\Lyy 8aayy	.	8ee'\L	.	8aa'\Lyy	.	8aa'\L	.	8aa'\L	.
8Ra/	.	8Ra/	.	8BB/	.	8B'\	.	8b\	.	8BB/	.	8BB'\ 8D	.	8r	.	8d/ 8b	.	8dd\ 8ee	.	8b/	8g#X\	.	8ee\ 8bb	.	8b'/	8g#X\	.	8gg#X'\yy 8bbyy	.	8gg#X'\	.	8bb'\yy	.	8bb'\	.	8bb'\	.
8Ra/J	.	8Ra/J	.	8AA/J	.	8A'\J	.	8cc\J	.	8AA/J	.	8AA'\J 8C	.	8b/ 8gg	.	8e/J 8cc	.	8dd\J 8ee	.	8b/J	8a\J	.	8ee\J 8ccc	.	8cc'/J	8a\J	.	8aa'\Jyy 8cccyy	.	8aa'\J	.	8ccc'\Jyy	.	8ccc'\J	.	8ccc'\J	.
*Xtremolo	*	*Xtremolo	*	*	*	*	*	*	*	*	*	*	*	*	*	*	*	*	*	*	*	*	*	*	*	*	*	*	*	*	*	*	*	*	*	*	*
8r	.	8r	.	8r	.	8r	.	8r	.	8r	.	8r	.	8r	.	8r	.	8r	.	8r	8ryy	.	8r	.	8r	8r	.	8ryy	.	8r	.	8ryy	.	8r	.	8r	.
*	*	*	*	*	*	*	*	*	*	*	*	*	*	*	*	*	*	*	*	*v	*v	*	*	*	*v	*v	*	*	*	*	*	*	*	*	*	*	*
!!LO:PB:g=original
=7	=7	=7	=7	=7	=7	=7	=7	=7	=7	=7	=7	=7	=7	=7	=7	=7	=7	=7	=7	=7	=7	=7	=7	=7	=7	=7	=7	=7	=7	=7	=7	=7	=7	=7	=7
4Ra/	.	8Ra/L	.	8D\L	.	8F#/L	.	8d\L	.	8D\L	.	8D\L 8F#	.	8dd/L 8aa	.	8f#/L 8dd	.	8cc\L 8dd	.	8d/L 8a	.	8ff#\L 8ddd	.	8f#\L 8dd	.	8ff#\Lyy 8dddyy	.	8ff#\L	.	8ddd\Lyy	.	8ddd\L	.	8ddd\L	.
.	.	16Ra/L	.	16D\L	.	16F#/L	.	16d\L	.	16D\L	.	16D\L 16F#	.	16dd/L 16aa	.	16f#/L 16dd	.	16cc\L 16dd	.	16d/L 16a	.	16ff#\L 16ddd	.	16f#\L 16dd	.	16ff#\Lyy 16dddyy	.	16ff#\L	.	16ddd\Lyy	.	16ddd\L	.	16ddd\L	.
.	.	16Ra/JJ	.	16D\JJ	.	16F#/JJ	.	16d\JJ	.	16D\JJ	.	16D\JJ 16F#	.	16dd/JJ 16aa	.	16f#/JJ 16dd	.	16cc\JJ 16dd	.	16d/JJ 16a	.	16ff#\JJ 16ddd	.	16f#\JJ 16dd	.	16ff#\JJyy 16dddyy	.	16ff#\JJ	.	16ddd\JJyy	.	16ddd\JJ	.	16ddd\JJ	.
4Ra/	.	8Ra/L	.	8D\L	.	8F#/L	.	8d\L	.	8D\L	.	8D\L 8F#	.	8dd/L 8aa	.	8f#/L 8dd	.	8cc\L 8dd	.	8d/L 8a	.	8ff#\L 8ddd	.	8f#\L 8dd	.	8ff#\Lyy 8dddyy	.	8ff#\L	.	8ddd\Lyy	.	8ddd\L	.	8ddd\L	.
.	.	8Ra/J	.	8D\J	.	8F#/J	.	8d\J	.	8D\J	.	8D\J 8F#	.	8dd/J 8aa	.	8f#/J 8dd	.	8cc\J 8dd	.	8d/J 8a	.	8ff#\J 8ddd	.	8f#\J 8dd	.	8ff#\Jyy 8dddyy	.	8ff#\J	.	8ddd\Jyy	.	8ddd\J	.	8ddd\J	.
=8	=8	=8	=8	=8	=8	=8	=8	=8	=8	=8	=8	=8	=8	=8	=8	=8	=8	=8	=8	=8	=8	=8	=8	=8	=8	=8	=8	=8	=8	=8	=8	=8	=8	=8	=8
*	*	*	*	*	*	*	*	*	*	*	*	*	*	*	*	*	*	*	*	*	*	*^	*	*	*	*	*	*	*	*	*	*	*	*	*
*tremolo	*	*tremolo	*	*	*	*	*	*	*	*	*	*	*	*	*	*	*	*	*	*	*	*	*	*	*	*	*	*	*	*	*	*	*	*	*	*
8Ra/L	.	8Ra/L	.	8G\L	.	8d\L	.	8g\L	.	8GG/L	.	8BB\L 8G	.	8b/L 8gg	.	8g/L 8b	.	8g\L 8dd	.	8B/L 8g	.	8gg\L 8bb	4.ryy	.	8g\L 8b	.	8b'\L 8gg	.	8dd\L	.	8gg\Lyy	.	8gg\L	.	8gg\L	.
8Ra/	.	8Ra/	.	8D\	.	8c\	.	8f#\	.	8D/	.	8D\ 8F#	.	8dd/	.	8f#/ 8cc	.	8cc\ 8dd	.	8d/ 8a	.	8cc\ 8ff#	.	.	8f#\ 8a	.	8a'\ 8ff#	.	8cc\	.	8ff#\yy	.	8ff#\	.	8ff#\	.
8Ra/J	.	8Ra/J	.	8GG\J	.	8B\J	.	8g\J	.	8GG/J	.	8BB\J 8G	.	8b/J 8gg	.	8g/J 8b	.	8g\J 8dd	.	8B/J 8g	.	8b\J 8gg	.	.	8g\J 8b	.	8b'\J 8gg	.	8b\J	.	8gg\Jyy	.	8gg\J	.	8gg\J	.
*Xtremolo	*	*Xtremolo	*	*	*	*	*	*	*	*	*	*	*	*	*	*	*	*	*	*	*	*	*	*	*	*	*	*	*	*	*	*	*	*	*	*
!	!	!	!	!	!	!	!	!	!	!	!	!	!	!	!	!	!	!	!	!	!	!	!	!	!	!	!	!	!	!	!	!	!	!	!LO:TX:t=[segno]	!
8r	.	8r	.	8r	.	8r	.	8r	.	8r	.	8r	.	8r	.	8d/	.	8r	.	8r	.	8dd/	8r	.	8r	.	8r	.	8r	.	8d/	.	8dd\	.	8dd/	.
*	*	*	*	*	*	*	*	*	*	*	*	*	*	*	*	*	*	*	*	*	*	*v	*v	*	*	*	*	*	*	*	*	*	*	*	*	*
=9||	=9||	=9||	=9||	=9||	=9||	=9||	=9||	=9||	=9||	=9||	=9||	=9||	=9||	=9||	=9||	=9||	=9||	=9||	=9||	=9||	=9||	=9||	=9||	=9||	=9||	=9||	=9||	=9||	=9||	=9||	=9||	=9||	=9||	=9||	=9||
*>B	*	*>B	*	*>B	*	*>B	*	*>B	*	*>B	*	*>B	*	*>B	*	*>B	*	*>B	*	*>B	*	*>B	*	*>B	*	*>B	*	*>B	*	*>B	*	*>B	*	*>B	*
!	!	!	!	!	!	!	!	!	!	!	!	!	!	!	!	!LO:TX:a:t=Solo	!	!	!	!	!	!	!	!	!	!	!	!	!	!	!	!	!	!	!
2r	.	2r	.	8GG/	.	2r	.	2r	.	8GG\ 8G	.	8r	.	2r	.	8b/L	.	8r	.	8r	.	8bb\L	.	8r	.	8r	.	8r	.	8b/L	.	8bb\L	.	8bb\L	.
*	*	*	*	*	*	*	*	*	*	*	*	*tremolo	*	*	*	*	*	*tremolo	*	*tremolo	*	*	*	*tremolo	*	*tremolo	*	*tremolo	*	*	*	*	*	*	*
.	.	.	.	8r	.	.	.	.	.	8r	.	8G\L 8B	.	.	.	16b/L	.	8g/L 8dd	.	8B/L 8g	.	16bb\L	.	8B/L 8d	.	8g/L 8b	.	8d/L	.	16b/L	.	16bb\L	.	16bb\L	.
.	.	.	.	.	.	.	.	.	.	.	.	.	.	.	.	16a/JJ	.	.	.	.	.	16aa\JJ	.	.	.	.	.	.	.	16a/JJ	.	16aa\JJ	.	16aa\JJ	.
.	.	.	.	4r	.	.	.	.	.	4r	.	8G\ 8B	.	.	.	16g/LL	.	8g/ 8dd	.	8B/ 8g	.	16gg\LL	.	8B/ 8d	.	8g/ 8b	.	8d/	.	16g/LL	.	16gg\LL	.	16gg\LL	.
.	.	.	.	.	.	.	.	.	.	.	.	.	.	.	.	16a/	.	.	.	.	.	16aa\	.	.	.	.	.	.	.	16a/	.	16aa\	.	16aa\	.
.	.	.	.	.	.	.	.	.	.	.	.	8G\J 8B	.	.	.	16b/	.	8g/J 8dd	.	8B/J 8g	.	16bb\	.	8B/J 8d	.	8g/J 8b	.	8d/J	.	16b/	.	16bb\	.	16bb\	.
.	.	.	.	.	.	.	.	.	.	.	.	.	.	.	.	16cc/JJ	.	.	.	.	.	16ccc\JJ	.	.	.	.	.	.	.	16cc/JJ	.	16ccc\JJ	.	16ccc\JJ	.
=10	=10	=10	=10	=10	=10	=10	=10	=10	=10	=10	=10	=10	=10	=10	=10	=10	=10	=10	=10	=10	=10	=10	=10	=10	=10	=10	=10	=10	=10	=10	=10	=10	=10	=10	=10
*	*	*	*	*rep	*	*	*	*	*	*	*	*rep	*	*	*	*	*	*rep	*	*rep	*	*	*	*rep	*	*rep	*	*rep	*	*	*	*	*	*	*
2r	.	2r	.	8GG/	.	2r	.	2r	.	8GG\ 8G	.	8r	.	2r	.	8dd\L	.	8r	.	8r	.	8ddd\L	.	8r	.	8r	.	8r	.	8dd\L	.	8ddd\L	.	8ddd'\L	.
.	.	.	.	8r	.	.	.	.	.	8r	.	8G\L 8B	.	.	.	8dd\	.	8g/L 8dd	.	8B/L 8g	.	8ddd\	.	8B/L 8d	.	8g/L 8b	.	8d/L	.	8dd\	.	8ddd\	.	8ddd'\	.
.	.	.	.	4r	.	.	.	.	.	4r	.	8G\ 8B	.	.	.	8gg\	.	8g/ 8dd	.	8B/ 8g	.	8ggg\	.	8B/ 8d	.	8g/ 8b	.	8d/	.	8gg\	.	8gg\	.	8ggg'\	.
.	.	.	.	.	.	.	.	.	.	.	.	8G\J 8B	.	.	.	8gg\J	.	8g/J 8dd	.	8B/J 8g	.	8ggg\J	.	8B/J 8d	.	8g/J 8b	.	8d/J	.	8gg\J	.	8gg\J	.	8ggg'\J	.
*	*	*	*	*Xrep	*	*	*	*	*	*	*	*Xrep	*	*	*	*	*	*Xrep	*	*Xrep	*	*	*	*Xrep	*	*Xrep	*	*Xrep	*	*	*	*	*	*	*
=11	=11	=11	=11	=11	=11	=11	=11	=11	=11	=11	=11	=11	=11	=11	=11	=11	=11	=11	=11	=11	=11	=11	=11	=11	=11	=11	=11	=11	=11	=11	=11	=11	=11	=11	=11
*	*	*	*	*re	*	*	*	*	*	*	*	*rep	*	*	*	*rep	*	*rep	*	*rep	*	*rep	*	*rep	*	*rep	*	*rep	*	*rep	*	*rep	*	*	*
2r	.	2r	.	8GG/	.	2r	.	2r	.	8GG\ 8G	.	8r	.	2r	.	8dd\L	.	8r	.	8r	.	8ddd\L	.	8r	.	8r	.	8r	.	8dd\L	.	8ddd\L	.	8ddd\L	.
.	.	.	.	8r	.	.	.	.	.	8r	.	8G\L 8B	.	.	.	8dd\	.	8g/L 8dd	.	8B/L 8g	.	8ddd\	.	8B/L 8d	.	8g/L 8b	.	8d/L	.	8dd\	.	8ddd\	.	8ddd\	.
.	.	.	.	4r	.	.	.	.	.	4r	.	8G\ 8B	.	.	.	8gg\	.	8g/ 8dd	.	8B/ 8g	.	8ggg\	.	8B/ 8d	.	8g/ 8b	.	8d/	.	8gg\	.	8gg\	.	8ggg\	.
.	.	.	.	.	.	.	.	.	.	.	.	8G\J 8B	.	.	.	8gg\J	.	8g/J 8dd	.	8B/J 8g	.	8ggg\J	.	8B/J 8d	.	8g/J 8b	.	8d/J	.	8gg\J	.	8gg\J	.	8ggg\J	.
*	*	*	*	*Xrep	*	*	*	*	*	*	*	*Xrep	*	*	*	*Xrep	*	*Xrep	*	*Xrep	*	*Xrep	*	*Xrep	*	*Xrep	*	*Xrep	*	*Xrep	*	*Xrep	*	*	*
=12	=12	=12	=12	=12	=12	=12	=12	=12	=12	=12	=12	=12	=12	=12	=12	=12	=12	=12	=12	=12	=12	=12	=12	=12	=12	=12	=12	=12	=12	=12	=12	=12	=12	=12	=12
2r	.	2r	.	8D\	.	2r	.	2r	.	8DD/ 8D	.	8r	.	2r	.	8gg\L	.	8r	.	8r	.	8ggg\L	.	8r	.	8r	.	8r	.	8gg\L	.	8gg\L	.	8ggg\L	.
.	.	.	.	8r	.	.	.	.	.	8r	.	8F#\L 8c	.	.	.	8ff#\	.	8cc\L 8dd	.	8d/L 8a	.	8fff#\	.	8G/L 8d	.	8a/L 8cc	.	8f#/L	.	8ff#\	.	8ff#\	.	8eee\	.
.	.	.	.	4r	.	.	.	.	.	4r	.	8F#\ 8c	.	.	.	8cc\J	.	8cc\ 8dd	.	8d/ 8a	.	8ccc\J	.	8G/ 8d	.	8a/ 8cc	.	8f#/	.	8cc\J	.	8ddd\J	.	8ccc\J	.
.	.	.	.	.	.	.	.	.	.	.	.	8F#\J 8c	.	.	.	8r	.	8cc\J 8dd	.	8d/J 8a	.	8r	.	8G/J 8d	.	8a/J 8cc	.	8f#/J	.	8r	.	8r	.	8r	.
=13	=13	=13	=13	=13	=13	=13	=13	=13	=13	=13	=13	=13	=13	=13	=13	=13	=13	=13	=13	=13	=13	=13	=13	=13	=13	=13	=13	=13	=13	=13	=13	=13	=13	=13	=13
2r	.	2r	.	8GG/	.	2r	.	2r	.	8GG\ 8G	.	8r	.	2r	.	8b\L	.	8r	.	8r	.	8bb\L	.	8r	.	8r	.	8r	.	8b\L	.	8bb\L	.	8bb\L	.
.	.	.	.	8r	.	.	.	.	.	8r	.	8G\L 8B	.	.	.	16b\L	.	8g\L 8dd	.	8B/L 8g	.	16bb\L	.	8B/L 8d	.	8g/L 8b	.	8d/L	.	16b\L	.	16bb\L	.	16bb\L	.
.	.	.	.	.	.	.	.	.	.	.	.	.	.	.	.	16a\JJ	.	.	.	.	.	16aa\JJ	.	.	.	.	.	.	.	16a\JJ	.	16aa\JJ	.	16aa\JJ	.
.	.	.	.	4r	.	.	.	.	.	4r	.	8G\ 8B	.	.	.	16g/LL	.	8g\ 8dd	.	8B/ 8g	.	16gg\LL	.	8B/ 8d	.	8g/ 8b	.	8d/	.	16g/LL	.	16gg\LL	.	16gg\LL	.
.	.	.	.	.	.	.	.	.	.	.	.	.	.	.	.	16a/	.	.	.	.	.	16aa\	.	.	.	.	.	.	.	16a/	.	16aa\	.	16aa\	.
.	.	.	.	.	.	.	.	.	.	.	.	8G\J 8B	.	.	.	16b/	.	8g\J 8dd	.	8B/J 8g	.	16bb\	.	8B/J 8d	.	8g/J 8b	.	8d/J	.	16b/	.	16bb\	.	16bb\	.
.	.	.	.	.	.	.	.	.	.	.	.	.	.	.	.	16cc/JJ	.	.	.	.	.	16ccc\JJ	.	.	.	.	.	.	.	16cc/JJ	.	16ccc\JJ	.	16ccc\JJ	.
!!LO:PB:g=original
=14	=14	=14	=14	=14	=14	=14	=14	=14	=14	=14	=14	=14	=14	=14	=14	=14	=14	=14	=14	=14	=14	=14	=14	=14	=14	=14	=14	=14	=14	=14	=14	=14	=14	=14	=14
*	*	*	*	*	*	*	*	*	*	*	*	*	*	*	*	*^	*	*	*	*	*	*	*	*	*	*	*	*	*	*	*	*	*	*	*
2r	.	2r	.	8GG/	.	2r	.	2r	.	8GG\ 8G	.	8r	.	2r	.	8dd\L	2rc	.	8r	.	8r	.	8ddd\L	.	8r	.	8r	.	8r	.	8dd\L	.	8ddd\L	.	8ddd\L	.
.	.	.	.	8r	.	.	.	.	.	8r	.	8G\L 8B	.	.	.	8dd\	.	.	8g/L 8dd	.	8B/L 8g	.	8ddd\	.	8B/L 8d	.	8g/L 8b	.	8d/L	.	8dd\	.	8ddd\	.	8ddd\	.
.	.	.	.	4r	.	.	.	.	.	4r	.	8G\ 8B	.	.	.	8gg\	.	.	8g/ 8dd	.	8B/ 8g	.	8ggg\	.	8B/ 8d	.	8g/ 8b	.	8d/	.	8gg\	.	8gg\	.	8ggg\	.
.	.	.	.	.	.	.	.	.	.	.	.	8G\J 8B	.	.	.	8gg\J	.	.	8g/J 8dd	.	8B/J 8g	.	8ggg\J	.	8B/J 8d	.	8g/J 8b	.	8d/J	.	8gg\J	.	8gg\J	.	8ggg\J	.
*	*	*	*	*	*	*	*	*	*	*	*	*Xtremolo	*	*	*	*	*	*	*Xtremolo	*	*Xtremolo	*	*	*	*Xtremolo	*	*Xtremolo	*	*Xtremolo	*	*	*	*	*	*	*
=15	=15	=15	=15	=15	=15	=15	=15	=15	=15	=15	=15	=15	=15	=15	=15	=15	=15	=15	=15	=15	=15	=15	=15	=15	=15	=15	=15	=15	=15	=15	=15	=15	=15	=15	=15	=15
*	*	*	*	*	*	*	*	*	*	*	*	*	*	*	*	*	*	*	*^	*	*	*	*	*	*	*	*	*	*	*	*	*	*	*	*	*
2r	.	2r	.	8C/	.	2r	.	2r	.	8C\	.	8r	.	2r	.	8a/L	2r	.	8r	4.ryy	.	8r	.	8aa\L	.	8r	.	8r	.	8r	.	8aa\L	.	8aa\L	.	8aa\L	.
.	.	.	.	8r	.	.	.	.	.	8r	.	8A\ 8c	.	.	.	8a/	.	.	8cc/ 8ee	.	.	8G/ 8g	.	8aa\	.	8c/ 8e	.	8e/ 8a	.	8e/	.	8aa\	.	8aa\	.	8aa\	.
.	.	.	.	8D/	.	.	.	.	.	8D\	.	8r	.	.	.	8dd/	.	.	8r	.	.	8r	.	8ddd\	.	8r	.	8r	.	8r	.	8dd\	.	8ddd\	.	8ddd\	.
.	.	.	.	8r	.	.	.	.	.	8r	.	8F#\ 8A	.	.	.	8dd/J	.	.	8dd/	8cc\	.	8d/ 8a	.	8ddd\J	.	8A/ 8f#	.	8f#/ 8cc	.	8f#/	.	8dd\J	.	8ddd\J	.	8ddd\J	.
*	*	*	*	*	*	*	*	*	*	*	*	*	*	*	*	*	*	*	*v	*v	*	*	*	*	*	*	*	*	*	*	*	*	*	*	*	*	*
=16	=16	=16	=16	=16	=16	=16	=16	=16	=16	=16	=16	=16	=16	=16	=16	=16	=16	=16	=16	=16	=16	=16	=16	=16	=16	=16	=16	=16	=16	=16	=16	=16	=16	=16	=16	=16
2r	.	8.r	.	8G\	.	4r	.	4r	.	4GG\ 4G	.	4G\ 4B	.	8.r	.	8.g/L	2r	.	4g/ 4dd	.	4B/ 4g	.	8.gg\L	.	4B/ 4g	.	4g/ 4b	.	4g/	.	8.gg\L	.	8.gg\L	.	8.gg'\L	.
.	.	.	.	8r	.	.	.	.	.	.	.	.	.	.	.	.	.	.	.	.	.	.	.	.	.	.	.	.	.	.	.	.	.	.	.	.
.	.	16Ra/	.	.	.	.	.	.	.	.	.	.	.	16dd/	.	16dd/Jk	.	.	.	.	.	.	16ddd\Jk	.	.	.	.	.	.	.	16dd\Jk	.	16dd\Jk	.	16dd'\Jk	.
!	!	!	!	!	!	!	!	!	!	!	!	!	!	!	!	!	!	!	!	!	!	!	!	!	!	!	!	!	!	!	!	!	!	!	!	!LO:HP:a
.	.	16Ra/LL	.	4D\	<[	4F#/	<[	4c\	<[	4r	.	4r	.	16dd/LL	.	16dd/LL	.	.	4r	.	4r	.	16ddd\LL	.	4r	.	4r	.	4r	.	16dd\LL	.	16dd\LL	.	16dd'\LL	<
.	.	16Ra/	.	.	.	.	.	.	.	.	.	.	.	16dd/	.	16dd/	.	.	.	.	.	.	16ddd\	.	.	.	.	.	.	.	16dd\	.	16dd\	.	16dd'\	.
.	.	16Ra/	.	.	.	.	.	.	.	.	.	.	.	16dd/	.	16dd/	.	.	.	.	.	.	16ddd\	.	.	.	.	.	.	.	16dd\	.	16dd\	.	16dd'\	.
.	.	16Ra/JJ	.	.	.	.	.	.	.	.	.	.	.	16dd/JJ	.	16dd/JJ	.	.	.	.	.	.	16ddd\JJ	.	.	.	.	.	.	.	16dd\JJ	.	16dd\JJ	.	16dd'\JJ	[[
=17	=17	=17	=17	=17	=17	=17	=17	=17	=17	=17	=17	=17	=17	=17	=17	=17	=17	=17	=17	=17	=17	=17	=17	=17	=17	=17	=17	=17	=17	=17	=17	=17	=17	=17	=17	=17
*	*	*	*	*	*	*	*	*	*	*	*	*	*	*	*	*	*	*	*	*	*	*	*^	*	*	*	*	*	*	*	*	*	*	*	*	*
*	*	*	*	*	*	*	*	*	*	*	*	*	*	*	*	*	*	*	*	*	*	*	*	*2\right	*	*	*	*	*	*	*	*	*	*	*	*	*
!	!	!	!	!	!	!	!	!	!	!	!	!	!	!	!	!	!	!	!	!	!	!	!LO:TX:b:i:t=2°.	!	!	!	!	!	!	!	!	!	!	!	!	!	!
!	!LO:DY:rj	!	!LO:DY:rj	!LO:TX:t=P:problem:mixedbeam	!LO:DY:rj	!	!LO:DY:rj	!	!LO:DY:rj	!LO:TX:t=P:problem:mixedbeam	!	!LO:TX:t=P:problem:mixedbeam	!LO:DY:rj	!	!LO:DY:rj	!	!	!LO:DY:a:rj	!	!LO:DY:rj	!	!LO:DY:rj	!LO:TX:a:t=1°. Col Picolo	!	!	!	!	!	!	!	!LO:DY:rj	!	!LO:DY:rj	!	!LO:DY:rj	!	!LO:DY:rj
4Ra/	f	8Ra/L	f	8GG/L	f	8r	f	8r	f	8GG/L	.	8GG/L	f	8r	f	8b/L	8r	f	8r	f	8r	f	8bb/Lyy	2ddTT<\	.	8r	.	8r	f	8r	f	8bb\L	f	8bb\L	f	8bb\L	f
*	*	*	*	*	*	*tremolo	*	*tremolo	*	*	*	*	*	*tremolo	*	*	*tremolo	*	*tremolo	*	*tremolo	*	*	*	*	*tremolo	*	*tremolo	*	*tremolo	*	*	*	*	*	*	*
.	.	16Ra/L	.	8G\	.	8B\L	.	8d\L	.	8G\	.	8G\ 8B	.	8b/L 8gg	.	16b/L	8B\L	.	8g/L 8dd	.	8B/L 8g	.	16bb/Lyy	.	.	8B/L 8d	.	8g/L 8b	.	8dd\L	.	16bb\L	.	16bb\L	.	16bb\L	.
.	.	16Ra/JJ	.	.	.	.	.	.	.	.	.	.	.	.	.	16a/JJ	.	.	.	.	.	.	16aa/JJyy	.	.	.	.	.	.	.	.	16aa\JJ	.	16aa\JJ	.	16aa\JJ	.
4r	.	8Ra/L	.	8G\	.	8B\	.	8d\	.	8G\	.	8G\ 8B	.	8b/ 8gg	.	16g/LL	8B\	.	8g/ 8dd	.	8B/ 8g	.	16gg/LLyy	.	.	8B/ 8d	.	8g/ 8b	.	8dd\	.	16gg\LL	.	16gg\LL	.	16gg\LL	.
.	.	.	.	.	.	.	.	.	.	.	.	.	.	.	.	16a/	.	.	.	.	.	.	16aa/yy	.	.	.	.	.	.	.	.	16aa\	.	16aa\	.	16aa\	.
.	.	8Ra/J	.	8G\J	.	8B\J	.	8d\J	.	8G\J	.	8G\J 8B	.	8b/J 8gg	.	16b/	8B\J	.	8g/J 8dd	.	8B/J 8g	.	16bb/yy	.	.	8B/J 8d	.	8g/J 8b	.	8dd\J	.	16bb\	.	16bb\	.	16bb\	.
.	.	.	.	.	.	.	.	.	.	.	.	.	.	.	.	16cc/JJ	.	.	.	.	.	.	16ccc/JJyy	.	.	.	.	.	.	.	.	16ccc\JJ	.	16ccc\JJ	.	16ccc\JJ	.
=18	=18	=18	=18	=18	=18	=18	=18	=18	=18	=18	=18	=18	=18	=18	=18	=18	=18	=18	=18	=18	=18	=18	=18	=18	=18	=18	=18	=18	=18	=18	=18	=18	=18	=18	=18	=18	=18
*	*	*	*	*	*	*	*	*	*	*	*	*	*	*	*	*Xtremolo	*tremolo	*	*rep	*	*rep	*	*	*	*	*rep	*	*rep	*	*rep	*	*	*	*	*	*	*
*	*	*rep	*	*rep	*	*rep	*	*rep	*	*rep	*	*rep	*	*rep	*	*	*rep	*	*	*	*	*	*	*	*	*	*	*	*	*	*	*	*	*	*	*	*
!	!	!	!	!LO:TX:t=P:problem:mixedbeam	!	!	!	!	!	!LO:TX:t=P:problem:mixedbeam	!	!LO:TX:t=P:problem:mixedbeam	!	!	!	!	!	!	!	!	!	!	!	!	!	!	!	!	!	!	!	!	!	!	!	!	!
4Ra/	.	8Ra/L	.	8GG/L	.	8r	.	8r	.	8GG/L	.	8GG/L	.	8r	.	8dd/L	8r	.	8r	.	8r	.	8ddd/Lyy	2ddTTT<\	.	8r	.	8r	.	8r	.	8ddd\L	.	8ddd\L	.	8ddd'\L	.
.	.	16Ra/L	.	8G\	.	8B\L	.	8d\L	.	8G\	.	8G\ 8B	.	8b/L 8gg	.	8dd/	8B\L	.	8g/L 8dd	.	8B/L 8g	.	8ddd/yy	.	.	8B/L 8d	.	8g/L 8b	.	8dd\L	.	8ddd\	.	8ddd\	.	8ddd'\	.
.	.	16Ra/JJ	.	.	.	.	.	.	.	.	.	.	.	.	.	.	.	.	.	.	.	.	.	.	.	.	.	.	.	.	.	.	.	.	.	.	.
4r	.	8Ra/L	.	8G\	.	8B\	.	8d\	.	8G\	.	8G\ 8B	.	8b/ 8gg	.	8gg/	8B\	.	8g/ 8dd	.	8B/ 8g	.	8ggg/yy	.	.	8B/ 8d	.	8g/ 8b	.	8dd\	.	8gg\	.	8ggg\	.	8ggg'\	.
.	.	8Ra/J	.	8G\J	.	8B\J	.	8d\J	.	8G\J	.	8G\J 8B	.	8b/J 8gg	.	8gg/J	8B\J	.	8g/J 8dd	.	8B/J 8g	.	8ggg/Jyy	.	.	8B/J 8d	.	8g/J 8b	.	8dd\J	.	8gg\J	.	8ggg\J	.	8ggg'\J	.
*	*	*Xrep	*	*Xrep	*	*Xrep	*	*Xrep	*	*Xrep	*	*Xrep	*	*Xrep	*	*	*Xrep	*	*Xrep	*	*Xrep	*	*	*	*	*Xrep	*	*Xrep	*	*Xrep	*	*	*	*	*	*	*
=19	=19	=19	=19	=19	=19	=19	=19	=19	=19	=19	=19	=19	=19	=19	=19	=19	=19	=19	=19	=19	=19	=19	=19	=19	=19	=19	=19	=19	=19	=19	=19	=19	=19	=19	=19	=19	=19
*	*	*	*	*	*	*	*	*	*	*	*	*	*	*	*	*Xtremolo	*tremolo	*	*rep	*	*rep	*	*rep	*	*	*rep	*	*rep	*	*rep	*	*rep	*	*rep	*	*	*
*	*	*rep	*	*rep	*	*rep	*	*rep	*	*rep	*	*rep	*	*rep	*	*rep	*rep	*	*	*	*	*	*	*	*	*	*	*	*	*	*	*	*	*	*	*	*
!	!	!	!	!LO:TX:t=P:problem:mixedbeam	!	!	!	!	!	!LO:TX:t=P:problem:mixedbeam	!	!LO:TX:t=P:problem:mixedbeam	!	!	!	!	!	!	!	!	!	!	!	!	!	!	!	!	!	!	!	!	!	!	!	!	!
4Ra/	.	8Ra/L	.	8GG/L	.	8r	.	8r	.	8GG/L	.	8GG/L	.	8r	.	8dd/L	8r	.	8r	.	8r	.	8ddd/Lyy	2ddTTT<\	.	8r	.	8r	.	8r	.	8ddd\L	.	8ddd\L	.	8ddd\L	.
.	.	16Ra/L	.	8G\	.	8B\L	.	8d\L	.	8G\	.	8G\ 8B	.	8b/L 8gg	.	8dd/	8B\L	.	8g/L 8dd	.	8B/L 8g	.	8ddd/yy	.	.	8B/L 8d	.	8g/L 8b	.	8dd\L	.	8ddd\	.	8ddd\	.	8ddd\	.
.	.	16Ra/JJ	.	.	.	.	.	.	.	.	.	.	.	.	.	.	.	.	.	.	.	.	.	.	.	.	.	.	.	.	.	.	.	.	.	.	.
4r	.	8Ra/L	.	8G\	.	8B\	.	8d\	.	8G\	.	8G\ 8B	.	8b/ 8gg	.	8gg/	8B\	.	8g/ 8dd	.	8B/ 8g	.	8ggg/yy	.	.	8B/ 8d	.	8g/ 8b	.	8dd\	.	8gg\	.	8ggg\	.	8ggg\	.
.	.	8Ra/J	.	8G\J	.	8B\J	.	8d\J	.	8G\J	.	8G\J 8B	.	8b/J 8gg	.	8gg/J	8B\J	.	8g/J 8dd	.	8B/J 8g	.	8ggg/Jyy	.	.	8B/J 8d	.	8g/J 8b	.	8dd\J	.	8gg\J	.	8ggg\J	.	8ggg\J	.
*	*	*Xrep	*	*Xrep	*	*Xrep	*	*Xrep	*	*Xrep	*	*Xrep	*	*Xrep	*	*Xrep	*Xrep	*	*	*	*	*	*	*	*	*	*	*	*	*	*	*	*	*	*	*	*
*	*	*	*	*	*	*Xtremolo	*	*Xtremolo	*	*	*	*	*	*Xtremolo	*	*	*Xtremolo	*	*Xrep	*	*Xrep	*	*Xrep	*	*	*Xrep	*	*Xrep	*	*Xrep	*	*Xrep	*	*Xrep	*	*	*
=20	=20	=20	=20	=20	=20	=20	=20	=20	=20	=20	=20	=20	=20	=20	=20	=20	=20	=20	=20	=20	=20	=20	=20	=20	=20	=20	=20	=20	=20	=20	=20	=20	=20	=20	=20	=20	=20
*	*	*	*	*	*	*	*	*	*	*	*	*	*	*	*	*	*	*	*^	*	*	*	*	*	*	*	*	*	*	*	*	*	*	*	*	*	*
*tremolo	*	*	*	*tremolo	*	*	*	*	*	*	*	*	*	*	*	*	*	*	*	*	*	*	*	*	*	*	*	*	*	*	*	*	*	*	*	*	*	*
8Ra/L	.	8Ra/L	.	8D\L	.	8c\L	.	8d\L	.	8D\L	.	8D\L 8c	.	8r	.	8gg/L	8d\L	.	8r	8ryy	.	8r	.	8ggg/Lyy	8dd\L	.	8r	.	8r	.	8r	.	8gg\L	.	8ggg\L	.	8ggg'\L	.
8Ra/	.	8Ra/J	.	8D\	.	8c\J	.	8d\J	.	8D\J	.	8D\J 8c	.	16dd\LL 16aa	.	8ff#/J	8d\J	.	8dd/L	8cc\L	.	8d/L 8a	.	8fff#/Jyy	8dd\J	.	8c/L 8f#	.	8f#/L 8cc	.	8a/L	.	8ff#\J	.	8fff#\J	.	8eee'\J	.
.	.	.	.	.	.	.	.	.	.	.	.	.	.	16dd\JJ 16aa	.	.	.	.	.	.	.	.	.	.	.	.	.	.	.	.	.	.	.	.	.	.	.	.
8Ra/J	.	4RaT/	.	8D\	.	4c\	.	4d\	.	4D\	.	4D\ 4c	.	4dd\ 4aa	.	4cc/	4d\	.	8dd/	8cc\	.	8d/ 8a	.	4ccc/yy	4dd\	.	8c/ 8f#	.	8f#/ 8cc	.	8a/	.	4cc\	.	4ccc\	.	4ccc'\	.
*Xtremolo	*	*	*	*	*	*	*	*	*	*	*	*	*	*	*	*	*	*	*	*	*	*	*	*	*	*	*	*	*	*	*	*	*	*	*	*	*	*
8r	.	.	.	8D\J	.	.	.	.	.	.	.	.	.	.	.	.	.	.	8dd/J	8cc\J	.	8d/J 8a	.	.	.	.	8c/J 8f#	.	8f#/J 8cc	.	8a/J	.	.	.	.	.	.	.
*	*	*	*	*Xtremolo	*	*	*	*	*	*	*	*	*	*	*	*	*	*	*	*	*	*	*	*	*	*	*	*	*	*	*	*	*	*	*	*	*	*
*	*	*	*	*	*	*	*	*	*	*	*	*	*	*	*	*	*	*	*v	*v	*	*	*	*	*	*	*	*	*	*	*	*	*	*	*	*	*	*
!!LO:PB:g=original
=21	=21	=21	=21	=21	=21	=21	=21	=21	=21	=21	=21	=21	=21	=21	=21	=21	=21	=21	=21	=21	=21	=21	=21	=21	=21	=21	=21	=21	=21	=21	=21	=21	=21	=21	=21	=21	=21
*	*	*	*	*	*	*	*	*	*	*	*	*	*	*	*	*	*tremolo	*	*	*	*	*	*	*	*	*	*	*	*	*	*	*	*	*	*	*	*
!	!	!	!	!LO:TX:t=P:problem:mixedbeam	!	!	!	!	!	!	!	!LO:TX:t=P:problem:mixedbeam	!	!	!	!	!	!	!	!	!	!	!	!	!	!	!	!	!	!	!	!	!	!	!	!	!
4Ra/	.	8Ra/L	.	8GG/L	.	8r	.	8r	.	8GG\L	.	8GG/L	.	8r	.	8b/L	8r	.	8r	.	8r	.	8bb/Lyy	2ddTT<\	.	8r	.	8r	.	8r	.	8bb\L	.	8bb\L	.	8bb\L	.
*	*	*	*	*	*	*tremolo	*	*tremolo	*	*	*	*	*	*tremolo	*	*	*	*	*	*	*	*	*	*	*	*	*	*	*	*	*	*	*	*	*	*	*
.	.	16Ra/L	.	8G\	.	8B\L	.	8d\L	.	8G\	.	8G\ 8B	.	8b\L 8gg	.	16b/L	8B\L	.	8g/L 8dd	.	8B/L 8g	.	16bb/Lyy	.	.	8B/L 8d	.	8g/L 8b	.	8b/L	.	16bb\L	.	16bb\L	.	16bb\L	.
.	.	16Ra/JJ	.	.	.	.	.	.	.	.	.	.	.	.	.	16a/JJ	.	.	.	.	.	.	16aa/JJyy	.	.	.	.	.	.	.	.	16aa\JJ	.	16aa\JJ	.	16aa\JJ	.
4r	.	8Ra/L	.	8G\	.	8B\	.	8d\	.	8G\	.	8G\ 8B	.	8b\ 8gg	.	16g/LL	8B\	.	8g/ 8dd	.	8B/ 8g	.	16gg/LLyy	.	.	8B/ 8d	.	8g/ 8b	.	8b/	.	16gg\LL	.	16gg\LL	.	16gg\LL	.
.	.	.	.	.	.	.	.	.	.	.	.	.	.	.	.	16a/	.	.	.	.	.	.	16aa/yy	.	.	.	.	.	.	.	.	16aa\	.	16aa\	.	16aa\	.
.	.	8Ra/J	.	8G\J	.	8B\J	.	8d\J	.	8G\J	.	8G\J 8B	.	8b\J 8gg	.	16b/	8B\J	.	8g/J 8dd	.	8B/J 8g	.	16bb/yy	.	.	8B/J 8d	.	8g/J 8b	.	8b/J	.	16bb\	.	16bb\	.	16bb\	.
.	.	.	.	.	.	.	.	.	.	.	.	.	.	.	.	16cc/JJ	.	.	.	.	.	.	16ccc/JJyy	.	.	.	.	.	.	.	.	16ccc\JJ	.	16ccc\JJ	.	16ccc\JJ	.
*	*	*	*	*	*	*	*	*	*	*	*	*	*	*	*	*	*	*	*	*	*	*	*	*	*	*	*	*	*	*	*	*	*	*	*	*	*
*	*	*	*	*	*	*	*	*	*	*	*	*	*	*	*	*v	*v	*	*	*	*	*	*	*	*	*	*	*	*	*	*	*	*	*	*	*	*
=22	=22	=22	=22	=22	=22	=22	=22	=22	=22	=22	=22	=22	=22	=22	=22	=22	=22	=22	=22	=22	=22	=22	=22	=22	=22	=22	=22	=22	=22	=22	=22	=22	=22	=22	=22	=22
!	!	!	!	!LO:TX:t=P:problem:mixedbeam	!	!	!	!	!	!	!	!	!	!	!	!	!	!	!	!	!	!	!	!	!	!	!	!	!	!	!	!	!	!	!	!
*	*	*	*	*	*	*	*	*	*	*	*	*	*	*	*	*^	*	*	*	*	*	*	*	*	*	*	*	*	*	*	*	*	*	*	*	*
*	*	*rep	*	*rep	*	*	*	*	*	*rep	*	*rep	*	*	*	*Xtremolo	*tremolo	*rep	*	*rep	*	*	*	*	*	*	*	*	*	*	*	*	*	*	*	*	*
!	!	!	!	!	!	!	!	!	!	!	!	!LO:TX:t=P:problem:mixedbeam	!	!	!	!	!	!	!	!	!	!	!	!	!	!	!	!	!	!	!	!	!	!	!	!	!
4Ra/	.	8Ra/L	.	8GG/L	.	8r	.	8r	.	8GG\L	.	8GG/L	.	8r	.	8dd/L	8r	.	8r	.	8r	.	8ddd/Lyy	2ddTTT<\	.	8r	.	8r	.	8r	.	8ddd\L	.	8ddd\L	.	8ddd\L	.
.	.	16Ra/L	.	8G\	.	8B\L	.	8d\L	.	8G\	.	8G\ 8B	.	8b\L 8gg	.	8dd/	8d\L	.	8g/L 8dd	.	8B/L 8g	.	8ddd/yy	.	.	8B/L 8d	.	8g/L 8b	.	8b/L	.	8ddd\	.	8ddd\	.	8ddd\	.
.	.	16Ra/JJ	.	.	.	.	.	.	.	.	.	.	.	.	.	.	.	.	.	.	.	.	.	.	.	.	.	.	.	.	.	.	.	.	.	.	.
4r	.	8Ra/L	.	8G\	.	8B\	.	8d\	.	8G\	.	8G\ 8B	.	8b\ 8gg	.	8gg/	8d\	.	8g/ 8dd	.	8B/ 8g	.	8gg/yy	.	.	8B/ 8d	.	8g/ 8b	.	8b/	.	8gg\	.	8gg\	.	8ggg\	.
.	.	8Ra/J	.	8G\J	.	8B\J	.	8d\J	.	8G\J	.	8G\J 8B	.	8b\J 8gg	.	8gg/J	8d\J	.	8g/J 8dd	.	8B/J 8g	.	8gg/Jyy	.	.	8B/J 8d	.	8g/J 8b	.	8b/J	.	8gg\J	.	8gg\J	.	8ggg\J	.
*	*	*Xrep	*	*Xrep	*	*	*	*	*	*Xrep	*	*Xrep	*	*Xtremolo	*	*	*Xtremolo	*	*Xrep	*	*Xrep	*	*	*	*	*	*	*	*	*	*	*	*	*	*	*	*
*	*	*	*	*	*	*Xtremolo	*	*Xtremolo	*	*	*	*	*	*	*	*	*	*	*Xtremolo	*	*Xtremolo	*	*	*	*	*Xtremolo	*	*Xtremolo	*	*Xtremolo	*	*	*	*	*	*	*
*	*	*	*	*	*	*	*	*	*	*	*	*	*	*	*	*	*	*	*	*	*	*	*v	*v	*	*	*	*	*	*	*	*	*	*	*	*	*
=23	=23	=23	=23	=23	=23	=23	=23	=23	=23	=23	=23	=23	=23	=23	=23	=23	=23	=23	=23	=23	=23	=23	=23	=23	=23	=23	=23	=23	=23	=23	=23	=23	=23	=23	=23	=23
4Ra/	.	8Ra/L	.	8C\	.	8r	.	8r	.	8C\	.	8C\L 8A	.	8r	.	8a/L	8e\L	.	8r	.	8r	.	8ee\L 8aa	.	8r	.	8r	.	8r	.	8aa\L	.	8aa\L	.	8aa\L	.
.	.	16Ra/L	.	8r	.	8E/	.	8c\	.	8r	.	8E\ 8A	.	8g/ 8ee	.	8a/	8e\	.	8cc\ 8ee	.	8G/ 8g	.	8ee\J 8aa	.	8c/ 8e	.	8e/ 8a	.	8ee\	.	8aa\	.	8aa\	.	8aa\	.
.	.	16Ra/JJ	.	.	.	.	.	.	.	.	.	.	.	.	.	.	.	.	.	.	.	.	.	.	.	.	.	.	.	.	.	.	.	.	.	.
*	*	*rep	*	*	*	*	*	*	*	*	*	*	*	*	*	*	*	*	*	*	*	*	*	*	*	*	*	*	*	*	*	*	*	*	*	*
4Ra/	.	8Ra/L	.	8C\	.	8r	.	8r	.	8D\	.	8D\ 8F#	.	8r	.	8dd/	8f#\	.	8r	.	8r	.	8ff#\L 8ddd	.	8r	.	8r	.	8r	.	8ddd\	.	8ddd\	.	8ddd\	.
.	.	16Ra/L	.	8r	.	8F#/	.	8d\	.	8r	.	8D\J 8F#	.	8dd/ 8aa	.	8dd/J	8f#\J	.	8cc\ 8dd	.	8d/ 8a	.	8ff#\J 8ddd	.	8c/ 8f#	.	8f#/ 8cc	.	8cc\	.	8ddd\J	.	8ddd\J	.	8ddd\J	.
.	.	16Ra/JJ	.	.	.	.	.	.	.	.	.	.	.	.	.	.	.	.	.	.	.	.	.	.	.	.	.	.	.	.	.	.	.	.	.	.
*	*	*Xrep	*	*	*	*	*	*	*	*	*	*	*	*	*	*	*	*	*	*	*	*	*	*	*	*	*	*	*	*	*	*	*	*	*	*
=24	=24	=24	=24	=24	=24	=24	=24	=24	=24	=24	=24	=24	=24	=24	=24	=24	=24	=24	=24	=24	=24	=24	=24	=24	=24	=24	=24	=24	=24	=24	=24	=24	=24	=24	=24	=24
8Ra/L	.	8Ra/L	.	8G\L	.	8G/L	.	8d\L	.	8G\L	.	8GG\L 8G	.	8b/L 8gg	.	8b/L	8g\L	.	8g\L 8dd	.	8B/L 8g	.	8gg\L	.	8B/L 8g	.	8g/L 8b	.	8b\L	.	8gg\L	.	8gg\L	.	8gg\L	.
8Ra/	.	16Ra/L	.	16D\L	.	16F#/L	.	16e\L	.	16D\L	.	16D\L	.	16dd/L 16aa	.	16a/L	16f#\L	.	16cc\L 16dd	.	16d/L 16a	.	16ff#\L	.	16c/L 16f#	.	16f#/L 16cc	.	16cc\L	.	16ff#\L	.	16ff#\L	.	16ff#\L	.
.	.	16Ra/JJ	.	16D\JJ	.	16F#/JJ	.	16e\JJ	.	16D\JJ	.	16D\JJ	.	16dd/JJ 16aa	.	16a/JJ	16f#\JJ	.	16cc\JJ 16dd	.	16d/JJ 16a	.	16ff#\JJ	.	16c/JJ 16f#	.	16f#/JJ 16cc	.	16cc\JJ	.	16ff#\JJ	.	16ff#\JJ	.	16ff#\JJ	.
!LO:TX:b:t=fine	!	!	!	!	!	!	!	!	!	!	!	!	!	!	!	!	!	!	!	!	!	!	!	!	!	!	!	!	!	!	!	!	!	!	!	!
8Ra/J	.	8Ra/	.	8G\	.	8G/	.	8d\	.	8GG/	.	8GG\ 8G	.	8b/ 8gg	.	8b/	8g\	.	8g\ 8dd	.	8B/ 8g	.	8gg\	.	8B/ 8g	.	8g/ 8b	.	8b\	.	8gg\	.	8gg\	.	8gg\	.
*	*	*	*	*	*	*	*	*	*	*	*	*	*	*	*	*v	*v	*	*	*	*	*	*	*	*	*	*	*	*	*	*	*	*	*	*	*
=||	=||	=||	=||	=||	=||	=||	=||	=||	=||	=||	=||	=||	=||	=||	=||	=||	=||	=||	=||	=||	=||	=||	=||	=||	=||	=||	=||	=||	=||	=||	=||	=||	=||	=;||	=||
*>C	*	*>C	*	*>C	*	*>C	*	*>C	*	*>C	*	*>C	*	*>C	*	*>C	*	*>C	*	*>C	*	*>C	*	*>C	*	*>C	*	*>C	*	*>C	*	*>C	*	*>C	*
*	*	*	*	*	*	*	*	*	*	*	*	*	*	*	*	*	*	*	*	*	*	*8va	*	*	*	*	*	*	*	*	*	*	*	*	*
*	*	*	*	*	*	*	*	*	*	*	*	*	*	*	*	*^	*	*	*	*	*	*	*	*	*	*	*	*	*	*	*	*	*	*	*
8r	.	8r	.	8r	.	8r	.	8r	.	8r	.	8r	.	8r	.	8f#/ 8a	8ryy	.	8r	.	8r	.	8aa\ 8fff#	.	8r	.	8a\ 8ff#	.	8r	.	8ff#\	.	8ff#\	.	8aa\	.
*	*	*	*	*	*	*	*	*	*	*	*	*	*	*	*	*v	*v	*	*	*	*	*	*	*	*	*	*	*	*	*	*	*	*	*	*	*
=25	=25	=25	=25	=25	=25	=25	=25	=25	=25	=25	=25	=25	=25	=25	=25	=25	=25	=25	=25	=25	=25	=25	=25	=25	=25	=25	=25	=25	=25	=25	=25	=25	=25	=25	=25
*	*	*	*	*	*	*	*	*	*	*	*	*	*	*	*	*	*	*^	*	*	*	*	*	*	*	*	*	*	*	*	*	*	*	*	*
2r	.	2r	.	8D\	.	2ryy	.	2r	.	8D\	.	8r	.	2r	.	4f#/ 4a	.	8r	8ryy	.	8r	.	4aa\ 4fff#	.	8r	.	4aT\ 4ff#	.	8r	.	4ff#t\	.	4ff#t\	.	4aaT\	.
*	*	*	*	*	*	*	*	*	*	*	*	*tremolo	*	*	*	*	*	*tremolo	*tremolo	*	*tremolo	*	*	*	*tremolo	*	*	*	*tremolo	*	*	*	*	*	*	*
.	.	.	.	8r	.	.	.	.	.	8r	.	8F#\L 8A	.	.	.	.	.	8dd/L	8dd\L	.	8d/L 8a	.	.	.	8d\L 8f#	.	.	.	8a/L	.	.	.	.	.	.	.
.	.	.	.	.	.	.	.	.	.	.	.	.	.	.	.	.	.	.	.	.	.	.	16qqgg#X/LL 16qqeee#X	.	.	.	(16qqg#X/LL 16qqee#X	.	.	.	16qqee#X/LL	.	16qqee#X/LL	.	16qqgg#X/LL	.
.	.	.	.	.	.	.	.	.	.	.	.	.	.	.	.	.	.	.	.	.	.	.	16qqaa/JJ 16qqfff#	.	.	.	16qqa/JJ) 16qqff#	.	.	.	16qqff#/JJ	.	16qqff#/JJ	.	16qqaa/JJ	.
.	.	.	.	4r	.	.	.	.	.	4r	.	8F#\ 8A	.	.	.	8d/L 8f#	.	8dd/	8dd\	.	8d/ 8a	.	8ff#\L 8ddd	.	8d\ 8f#	.	8f#\L 8dd	.	8a/	.	8dd\L	.	8dd\L	.	8ff#\L	.
.	.	.	.	.	.	.	.	.	.	.	.	8F#\J 8A	.	.	.	8f#/J 8a	.	8dd/J	8dd\J	.	8d/J 8a	.	8aa\J 8fff#	.	8d\J 8f#	.	8a\J 8ff#	.	8a/J	.	8ff#\J	.	8ff#\J	.	8aa\J	.
=26	=26	=26	=26	=26	=26	=26	=26	=26	=26	=26	=26	=26	=26	=26	=26	=26	=26	=26	=26	=26	=26	=26	=26	=26	=26	=26	=26	=26	=26	=26	=26	=26	=26	=26	=26	=26
*	*	*	*	*rep	*	*	*	*	*	*rep	*	*rep	*	*	*	*rep	*	*rep	*rep	*	*rep	*	*rep	*	*rep	*	*rep	*	*rep	*	*rep	*	*rep	*	*rep	*
2r	.	2r	.	8D\	.	2ryy	.	2r	.	8D\	.	8r	.	2r	.	4f#/ 4a	.	8r	8ryy	.	8r	.	4aa\ 4fff#	.	8r	.	4aT\ 4ff#	.	8r	.	4ff#t\	.	4ff#t\	.	4aaT\	.
.	.	.	.	8r	.	.	.	.	.	8r	.	8F#\L 8A	.	.	.	.	.	8dd/L	8dd\L	.	8d/L 8a	.	.	.	8d\L 8f#	.	.	.	8a/L	.	.	.	.	.	.	.
.	.	.	.	.	.	.	.	.	.	.	.	.	.	.	.	.	.	.	.	.	.	.	16qqgg#X/LL 16qqeee#X	.	.	.	(16qqg#X/LL 16qqee#X	.	.	.	16qqee#X/LL	.	16qqee#X/LL	.	16qqgg#X/LL	.
.	.	.	.	.	.	.	.	.	.	.	.	.	.	.	.	.	.	.	.	.	.	.	16qqaa/JJ 16qqfff#	.	.	.	16qqa/JJ 16qqff#)	.	.	.	16qqff#/JJ	.	16qqff#/JJ	.	16qqaa/JJ	.
.	.	.	.	4r	.	.	.	.	.	4r	.	8F#\ 8A	.	.	.	8d/L 8f#	.	8dd/	8dd\	.	8d/ 8a	.	8ff#\L 8ddd	.	8d\ 8f#	.	8f#\L 8dd	.	8a/	.	8dd\L	.	8dd\L	.	8ff#\L	.
.	.	.	.	.	.	.	.	.	.	.	.	8F#\J 8A	.	.	.	8f#/J 8a	.	8dd/J	8dd\J	.	8d/J 8a	.	8aa\J 8fff#	.	8d\J 8f#	.	8a\J 8ff#	.	8a/J	.	8ff#\J	.	8ff#\J	.	8aa\J	.
*	*	*	*	*Xrep	*	*	*	*	*	*Xrep	*	*Xrep	*	*	*	*Xrep	*	*Xrep	*Xrep	*	*Xrep	*	*Xrep	*	*Xrep	*	*Xrep	*	*Xrep	*	*Xrep	*	*Xrep	*	*Xrep	*
=27	=27	=27	=27	=27	=27	=27	=27	=27	=27	=27	=27	=27	=27	=27	=27	=27	=27	=27	=27	=27	=27	=27	=27	=27	=27	=27	=27	=27	=27	=27	=27	=27	=27	=27	=27	=27
*	*	*	*	*	*	*	*	*	*	*	*	*	*	*	*	*	*	*	*	*	*	*	*^	*	*	*	*^	*	*	*	*	*	*	*	*	*
*	*	*	*	*rep	*	*	*	*	*	*rep	*	*rep	*	*	*	*tremolo	*	*rep	*rep	*	*rep	*	*	*tremolo	*	*rep	*	*tremolo	*tremolo	*	*rep	*	*	*	*	*	*	*
!	!	!	!	!	!	!	!	!	!	!	!	!	!	!	!	!	!	!	!	!	!	!	!	!	!	!	!	!	!	!	!	!	!LO:TX:a:t=col Picolo	!	!	!	!	!
2r	.	2r	.	8D\	.	2ryy	.	2r	.	8D\	.	8r	.	2r	.	8r	.	8r	8ryy	.	8r	.	8aaa/L	8aa\L	.	8r	.	8r	8ryy	.	8r	.	8aa\Lyy	.	8aa\L	.	8aa\L	.
.	.	.	.	8r	.	.	.	.	.	8r	.	8F#\L 8A	.	.	.	8d/L 8f#	.	8dd/L	8dd\L	.	8d/L 8a	.	8fff#/	8aa\	.	8d\L 8f#	.	8dd/L	8f#/L	.	8a/L	.	8ff#\yy	.	8ff#\	.	8ff#\	.
.	.	.	.	4r	.	.	.	.	.	4r	.	8F#\ 8A	.	.	.	8d/ 8f#	.	8dd/	8dd\	.	8d/ 8a	.	8ddd/	8aa\	.	8d\ 8f#	.	8dd/	8f#/	.	8a/	.	8dd\yy	.	8dd\	.	8dd\	.
.	.	.	.	.	.	.	.	.	.	.	.	8F#\J 8A	.	.	.	8d/J 8f#	.	8dd/J	8dd\J	.	8d/J 8a	.	8eee/J	8aa\J	.	8d\J 8f#	.	8dd/J	8f#/J	.	8a/J	.	8ee\Jyy	.	8ee\J	.	8ee\J	.
*	*	*	*	*Xrep	*	*	*	*	*	*Xrep	*	*Xrep	*	*	*	*	*	*Xrep	*Xrep	*	*Xrep	*	*	*Xtremolo	*	*Xrep	*	*Xtremolo	*Xtremolo	*	*Xrep	*	*	*	*	*	*	*
*	*	*	*	*	*	*	*	*	*	*	*	*	*	*	*	*	*	*v	*v	*	*	*	*v	*v	*	*	*	*v	*v	*	*	*	*	*	*	*	*	*
!!LO:PB:g=original
=28	=28	=28	=28	=28	=28	=28	=28	=28	=28	=28	=28	=28	=28	=28	=28	=28	=28	=28	=28	=28	=28	=28	=28	=28	=28	=28	=28	=28	=28	=28	=28	=28	=28	=28	=28
2r	.	2r	.	8D\	.	2r	.	2r	.	8D\	.	8r	.	2r	.	8r	.	8r	.	8r	.	8aa\L 8fff#	.	8r	.	8r	.	8r	.	8ff#\Lyy	.	8ff#\L	.	8ff#/L	.
*	*	*	*	*	*	*	*	*	*	*	*	*	*	*	*	*	*	*	*	*	*	*	*	*	*	*tremolo	*	*	*	*	*	*	*	*	*
.	.	.	.	8r	.	.	.	.	.	8r	.	8F#\L 8A	.	.	.	8d/L 8f#	.	8dd\L	.	8d/L 8a	.	8aa\J 8ddd	.	8d/L 8f#	.	8f#/L 8dd	.	8a/L	.	8dd\Jyy	.	8dd\J	.	8dd/J	.
.	.	.	.	4r	.	.	.	.	.	4r	.	8F#\ 8A	.	.	.	8d/ 8f#	.	8dd\	.	8d/ 8a	.	8r	.	8d/ 8f#	.	8f#/ 8dd	.	8a/	.	8ryy	.	8r	.	8r	.
.	.	.	.	.	.	.	.	.	.	.	.	8F#\J 8A	.	.	.	8d/J 8f#	.	8dd\J	.	8d/J 8a	.	8aa\ 8fff#	.	8d/J 8f#	.	8f#/J 8dd	.	8a/J	.	8ff#\yy	.	8ff#\	.	8aa\	.
*	*	*	*	*	*	*	*	*	*	*	*	*	*	*	*	*Xtremolo	*	*	*	*	*	*	*	*	*	*Xtremolo	*	*	*	*	*	*	*	*	*
=29	=29	=29	=29	=29	=29	=29	=29	=29	=29	=29	=29	=29	=29	=29	=29	=29	=29	=29	=29	=29	=29	=29	=29	=29	=29	=29	=29	=29	=29	=29	=29	=29	=29	=29	=29
*	*	*	*	*	*	*	*	*	*	*rep	*	*rep	*	*	*	*	*	*rep	*	*rep	*	*	*	*rep	*	*	*	*rep	*	*	*	*	*	*	*
2r	.	2r	.	8D\	.	2r	.	2r	.	8D\	.	8r	.	2r	.	4f#/ 4a	.	8r	.	8r	.	4aaT\ 4fff#	.	8r	.	4aT\ 4ff#	.	8r	.	4ff#t\yy	.	4ff#t\	.	4aaT\	.
.	.	.	.	8r	.	.	.	.	.	8r	.	8F#\L 8A	.	.	.	.	.	8dd\L	.	8d/L 8a	.	.	.	8d/L 8f#	.	.	.	8a/L	.	.	.	.	.	.	.
.	.	.	.	.	.	.	.	.	.	.	.	.	.	.	.	.	.	.	.	.	.	(16qqgg#X/LL 16qqeee#X	.	.	.	(16qqg#X/LL 16qqee#X	.	.	.	16qqee#X/LLyy	.	16qqee#X/LL	.	(16qqgg#X/LL	.
.	.	.	.	.	.	.	.	.	.	.	.	.	.	.	.	.	.	.	.	.	.	16qqaa/JJ) 16qqfff#	.	.	.	16qqa/JJ) 16qqff#	.	.	.	16qqff#/JJyy	.	16qqff#/JJ	.	16qqaa/JJ	.
.	.	.	.	4r	.	.	.	.	.	4r	.	8F#\ 8A	.	.	.	8d/L 8f#	.	8dd\	.	8d/ 8a	.	8ff#'\L 8ddd	.	8d/ 8f#	.	8f#\L 8dd	.	8a/	.	8dd\Lyy	.	8dd\L	.	8ff#'\L)	.
.	.	.	.	.	.	.	.	.	.	.	.	8F#\J 8A	.	.	.	8f#/J 8a	.	8dd\J	.	8d/J 8a	.	8aa'\J 8fff#	.	8d/J 8f#	.	8a\J 8ff#	.	8a/J	.	8ff#\Jyy	.	8ff#\J	.	8aa'\J	.
*	*	*	*	*	*	*	*	*	*	*Xrep	*	*Xrep	*	*	*	*	*	*Xrep	*	*Xrep	*	*	*	*Xrep	*	*	*	*Xrep	*	*	*	*	*	*	*
=30	=30	=30	=30	=30	=30	=30	=30	=30	=30	=30	=30	=30	=30	=30	=30	=30	=30	=30	=30	=30	=30	=30	=30	=30	=30	=30	=30	=30	=30	=30	=30	=30	=30	=30	=30
*	*	*	*	*	*	*	*	*	*	*rep	*	*rep	*	*	*	*rep	*	*rep	*	*rep	*	*rep	*	*rep	*	*rep	*	*rep	*	*rep	*	*rep	*	*rep	*
2r	.	2r	.	8D\	.	2r	.	2r	.	8D\	.	8r	.	2r	.	4f#/ 4a	.	8r	.	8r	.	4aaT\ 4fff#	.	8r	.	4aT\ 4ff#	.	8r	.	4ff#t\yy	.	4ff#t\	.	4aaT\	.
.	.	.	.	8r	.	.	.	.	.	8r	.	8F#\L 8A	.	.	.	.	.	8dd\L	.	8d/L 8a	.	.	.	8d/L 8f#	.	.	.	8a/L	.	.	.	.	.	.	.
.	.	.	.	.	.	.	.	.	.	.	.	.	.	.	.	.	.	.	.	.	.	(16qqgg#X/LL 16qqeee#X	.	.	.	(16qqg#X/LL 16qqee#X	.	.	.	16qqee#X/LLyy	.	16qqee#X/LL	.	(16qqgg#X/LL	.
.	.	.	.	.	.	.	.	.	.	.	.	.	.	.	.	.	.	.	.	.	.	16qqaa/JJ) 16qqfff#	.	.	.	16qqa/JJ) 16qqff#	.	.	.	16qqff#/JJyy	.	16qqff#/JJ	.	16qqaa/JJ	.
.	.	.	.	4r	.	.	.	.	.	4r	.	8F#\ 8A	.	.	.	8d/L 8f#	.	8dd\	.	8d/ 8a	.	8ff#'\L 8ddd	.	8d/ 8f#	.	8f#\L 8dd	.	8a/	.	8dd\Lyy	.	8dd\L	.	8ff#'\L)	.
.	.	.	.	.	.	.	.	.	.	.	.	8F#\J 8A	.	.	.	8f#/J 8a	.	8dd\J	.	8d/J 8a	.	8aa'\J 8fff#	.	8d/J 8f#	.	8a\J 8ff#	.	8a/J	.	8ff#\Jyy	.	8ff#\J	.	8aa'\J	.
*	*	*	*	*	*	*	*	*	*	*Xrep	*	*Xrep	*	*	*	*Xrep	*	*Xrep	*	*Xrep	*	*Xrep	*	*Xrep	*	*Xrep	*	*Xrep	*	*	*	*	*	*	*
*	*	*	*	*	*	*	*	*	*	*	*	*	*	*	*	*	*	*Xtremolo	*	*Xtremolo	*	*	*	*Xtremolo	*	*	*	*Xtremolo	*	*Xrep	*	*Xrep	*	*Xrep	*
=31	=31	=31	=31	=31	=31	=31	=31	=31	=31	=31	=31	=31	=31	=31	=31	=31	=31	=31	=31	=31	=31	=31	=31	=31	=31	=31	=31	=31	=31	=31	=31	=31	=31	=31	=31
*	*	*	*	*	*	*	*	*	*	*	*	*	*	*	*	*	*	*	*	*	*	*	*	*	*	*^	*	*	*	*	*	*	*	*	*
2r	.	2r	.	8AA/	.	2r	.	2r	.	8AA/	.	8r	.	2r	.	8g\L 8ee	.	8r	.	8r	.	8gg\L 8eee	.	8r	.	8ee/L	8r	.	8r	.	8ee\Lyy	.	8ee\L	.	8gg\L	.
.	.	.	.	8r	.	.	.	.	.	8r	.	8C#X\L 8G	.	.	.	16a\L 16ff#	.	8cc#X\ 8ee	.	8g\ 8a	.	16aa\L 16fff#	.	8c#X/ 8g	.	16ff#/L	8a\	.	8g/	.	16ff#\Lyy	.	16ff#\L	.	16aa\L	.
.	.	.	.	.	.	.	.	.	.	.	.	.	.	.	.	16a\JJ 16ff#	.	.	.	.	.	16aa\JJ 16fff#	.	.	.	16ff#/JJ	.	.	.	.	16ff#\JJyy	.	16ff#\JJ	.	16aa\JJ	.
.	.	.	.	8AA/	.	.	.	.	.	8AA/	.	8C#\ 8G	.	.	.	8g\L 8ee	.	8r	.	8r	.	8gg\L 8eee	.	8r	.	8ee/L	8r	.	8r	.	8ee\Lyy	.	8ee\L	.	8gg\L	.
.	.	.	.	8r	.	.	.	.	.	8r	.	8C#\J 8G	.	.	.	8a\J 8ff#	.	8cc#\ 8ee	.	8g\ 8a	.	8aa\J 8fff#	.	8c#/ 8g	.	8ff#/J	8a\	.	8g/	.	8ff#\Jyy	.	8ff#\J	.	8aa\J	.
*	*	*	*	*	*	*	*	*	*	*	*	*Xtremolo	*	*	*	*	*	*	*	*	*	*	*	*	*	*	*	*	*	*	*	*	*	*	*	*
*	*	*	*	*	*	*	*	*	*	*	*	*	*	*	*	*	*	*	*	*	*	*	*	*	*	*v	*v	*	*	*	*	*	*	*	*	*
=32	=32	=32	=32	=32	=32	=32	=32	=32	=32	=32	=32	=32	=32	=32	=32	=32	=32	=32	=32	=32	=32	=32	=32	=32	=32	=32	=32	=32	=32	=32	=32	=32	=32	=32	=32
*	*	*	*	*	*	*	*	*	*	*	*	*	*	*	*	*	*	*^	*	*	*	*	*	*	*	*	*	*	*	*	*	*	*	*	*
8Ra/	.	2r	.	8r	.	8r	.	8r	.	8D/	.	8D|\ 8F#	.	2r	.	8f#\ 8dd	.	8dd/	8dd\	.	8d\ 8a	.	8ff#|\L 8ddd	.	8d/ 8f#	.	8a\L 8dd	.	8f#'/L	.	8dd\Lyy	.	8dd\L	.	8ff#|\L	.
8r	.	.	.	(8AA/L	.	(8c#X\L	.	(8a\L	.	8r	.	(8AA\L 8A	.	.	.	(8a\L 8cc#X	.	8r	8ryy	.	8r	.	8ccc#X\ 8aaa	.	8r	.	8a\ 8aa	.	(8cc#X/	.	(8aa\yy	.	(8aa\	.	(8aa\	.
4r	.	.	.	8BB/	.	8d\	.	8g#X\	.	4r	.	8BB\ 8B	.	.	.	8g#X\ 8dd	.	4r	4ryy	.	4r	.	8ddd\ 8ggg#X	.	4r	.	8b\ 8gg#X	.	8dd/	.	8gg#X\yy	.	8gg#X\	.	8gg#X\	.
.	.	.	.	8C#X/J)	.	8e\J)	.	8gn\J)	.	.	.	8C#X\J 8c#X	.	.	.	8gn\J) 8ee	.	.	.	.	.	.	8eee\J 8gggn	.	.	.	8a\J 8ggn	.	8ee/J)	.	8ggn\J)yy	.	8ggn\J)	.	8gg\J)	.
*	*	*	*	*	*	*	*	*	*	*	*	*	*	*	*	*	*	*v	*v	*	*	*	*	*	*	*	*	*	*	*	*	*	*	*	*	*
=33	=33	=33	=33	=33	=33	=33	=33	=33	=33	=33	=33	=33	=33	=33	=33	=33	=33	=33	=33	=33	=33	=33	=33	=33	=33	=33	=33	=33	=33	=33	=33	=33	=33	=33	=33
*	*	*	*	*	*	*	*	*	*	*	*	*	*	*	*	*	*	*tremolo	*	*tremolo	*	*	*	*	*	*	*	*	*	*	*	*	*	*	*
!	!	!	!LO:DY:a:rj:t=fo	!	!	!	!	!	!	!	!LO:DY:b:t=fo	!	!	!	!	!	!LO:DY:t=fo	!	!	!	!	!	!	!	!LO:DY:a:t=fo	!	!	!	!	!	!LO:DY:b:t=fo	!	!LO:DY:a:t=fo	!	!
4Ra/	.	4RaT/	f	4D\	.	4d\	.	4f#\	.	8DD/L	f	8D\L) 8d	.	2r	.	4f#\ 4dd	f	8r	.	8r	.	4ddd\ 4fff#	.	4f#\ 4a	f	4a\ 4ff#	.	4ff#\	.	4aa\	f	4ff#\	f	4ff#\	.
.	.	.	.	.	.	.	.	.	.	8D/	.	8D\ 8F#	.	.	.	.	.	8dd\L	.	8d/L 8a	.	.	.	.	.	.	.	.	.	.	.	.	.	.	.
8Ra/L	.	8Ra/L	.	8D\L	.	8A\L	.	8f#\L	.	8D/	.	8D\ 8F#	.	.	.	8f#\L 8dd	.	8dd\	.	8d/ 8a	.	8ff#\L 8ddd	.	8d\L 8f#	.	8f#\L 8dd	.	8dd\L	.	8ff#\L	.	8dd\L	.	8ff#\L	.
8Ra/J	.	8Ra/J	.	8D\J	.	8A\J	.	8f#\J	.	8D/J	.	8D\J 8F#	.	.	.	8a\J 8ff#	.	8dd\J	.	8d/J 8a	.	8aa\J 8fff#	.	8f#\J 8a	.	8a\J 8ff#	.	8ff#\J	.	8aa\J	.	8ff#\J	.	8aa\J	.
=34	=34	=34	=34	=34	=34	=34	=34	=34	=34	=34	=34	=34	=34	=34	=34	=34	=34	=34	=34	=34	=34	=34	=34	=34	=34	=34	=34	=34	=34	=34	=34	=34	=34	=34	=34
*rep	*	*rep	*	*rep	*	*	*	*rep	*	*rep	*	*	*	*	*	*	*	*rep	*	*rep	*	*	*	*rep	*	*rep	*	*rep	*	*rep	*	*	*	*	*
4Ra/	.	4RaT/	.	4D\	.	4A\	.	4f#\	.	8DD/L	.	8DD/L	.	2r	.	4a\ 4ff#	.	8r	.	8r	.	4aa\ 4fff#	.	4f#\ 4a	.	4a\ 4ff#	.	4ff#\	.	4aa\	.	4ff#\	.	4aa\	.
.	.	.	.	.	.	.	.	.	.	8D/	.	8D/ 8F#	.	.	.	.	.	8dd\L	.	8d/L 8a	.	.	.	.	.	.	.	.	.	.	.	.	.	.	.
8Ra/L	.	8Ra/L	.	8D\L	.	8A\L	.	8f#\L	.	8D/	.	8D/ 8F#	.	.	.	8f#\L 8dd	.	8dd\	.	8d/ 8a	.	8ff#\L 8ddd	.	8d\L 8f#	.	8f#\L 8dd	.	8dd\L	.	8ff#\L	.	8dd\L	.	8ff#\L	.
8Ra/J	.	8Ra/J	.	8D\J	.	8A\J	.	8f#\J	.	8D/J	.	8D/J 8F#	.	.	.	8a\J 8ff#	.	8dd\J	.	8d/J 8a	.	8aa\J 8fff#	.	8f#\J 8a	.	8a\J 8ff#	.	8ff#\J	.	8aa\J	.	8ff#\J	.	8aa\J	.
*Xrep	*	*Xrep	*	*Xrep	*	*	*	*Xrep	*	*Xrep	*	*	*	*	*	*	*	*Xrep	*	*Xrep	*	*	*	*	*	*	*	*	*	*	*	*	*	*	*
*	*	*	*	*	*	*	*	*	*	*	*	*	*	*	*	*	*	*Xtremolo	*	*Xtremolo	*	*	*	*Xrep	*	*Xrep	*	*Xrep	*	*Xrep	*	*	*	*	*
!!LO:PB:g=original
=35	=35	=35	=35	=35	=35	=35	=35	=35	=35	=35	=35	=35	=35	=35	=35	=35	=35	=35	=35	=35	=35	=35	=35	=35	=35	=35	=35	=35	=35	=35	=35	=35	=35	=35	=35
!	!	!	!	!	!	!	!	!	!	!	!	!LO:TX:t=P:problem:mixedbeam	!	!	!	!	!	!	!	!	!	!	!	!	!	!	!	!	!	!	!	!	!LO:DY:t=fo	!	!
4Ra/	.	8Ra/L	.	8D/L	.	8A/L	.	8f#\L	.	8DD/L	.	8DD/L	.	2r	.	8a\L 8ff#	.	8r	.	8r	.	8aa\L 8aaa	.	8f#\L 8a	.	8ff#\L 8aa	.	8ff#\L	.	8aa\L	.	8aa\L	f	8aa\L	.
.	.	16Ra/L	.	8D/	.	16A/L	.	16f#\L	.	8D/	.	8D\ 8F#	.	.	.	16a\L 16ff#	.	16dd\LL	.	16d\LL 16a	.	16aa\L 16fff#	.	16d\L 16f#	.	16dd\L 16ff#	.	16dd\L	.	16ff#\L	.	16ff#\L	.	16ff#\L	.
.	.	16Ra/JJ	.	.	.	16A/JJ	.	16f#\JJ	.	.	.	.	.	.	.	16a\JJ 16ff#	.	16dd\JJ	.	16d\JJ 16a	.	16aa\JJ 16fff#	.	16d\JJ 16f#	.	16dd\JJ 16ff#	.	16dd\JJ	.	16ff#\JJ	.	16ff#\JJ	.	16ff#\JJ	.
4Ra/	.	8Ra/L	.	8D/	.	8A/L	.	8e\L	.	8D/	.	8D\ 8F#	.	.	.	8f#\L 8dd	.	8dd\L	.	8d\L 8a	.	8ff#\L 8ddd	.	8d\L	.	8dd\L	.	8dd\L	.	8dd\L	.	8dd\L	.	8dd\L	.
.	.	8Ra/J	.	8AA/J	.	8A/J	.	8f#\J	.	8AA/J	.	8AA\J 8E	.	.	.	8g\J 8ee	.	8cc#X\J 8ee	.	8g\J 8a	.	8gg\J 8eee	.	8c#X\J 8e	.	8cc#X\J 8ee	.	8cc#X\J	.	8ee\J	.	8ee\J	.	8ee\J	.
=36	=36	=36	=36	=36	=36	=36	=36	=36	=36	=36	=36	=36	=36	=36	=36	=36	=36	=36	=36	=36	=36	=36	=36	=36	=36	=36	=36	=36	=36	=36	=36	=36	=36	=36	=36
*	*	*	*	*	*	*	*	*	*	*	*	*	*	*	*	*	*	*	*	*	*	*	*	*	*	*^	*	*	*	*	*	*	*	*	*
!	!	!	!	!	!	!	!	!	!	!	!	!	!	!	!	!	!	!	!	!	!	!	!	!	!	!LO:TX:a:t=Col Clarinetti	!	!	!LO:TX:t=P:problem:mixedbeam	!	!	!	!	!	!	!
8Ra/L	.	8Ra/L	.	8D/L	.	8A/L	.	8f#\L	.	8DD/L	.	8DD/L	.	2r	.	8a\L 8ff#	.	8r	.	8r	.	8aa\L 8fff#	.	8d\L 8f#	.	8ff#/Lyy	8dd\Lyy	.	8dd\L	.	8ff#\L	.	8ff#\L	.	8ff#\L	.
*	*	*	*	*	*	*	*	*	*	*	*	*	*	*	*	*	*	*tremolo	*	*tremolo	*	*	*	*	*	*	*	*	*	*	*	*	*	*	*	*
8Ra/J	.	8Ra/J	.	8D/J	.	8A/J	.	8f#\J	.	8D/	.	8D/ 8F#	.	.	.	8f#\J 8dd	.	8dd\L	.	8d\L 8a	.	8ff#\J 8ddd	.	8f#\J 8a	.	8dd/Jyy	8f#\Jyy	.	8f#/J	.	8dd\J	.	8dd\J	.	8dd\J	.
4r	.	8r	.	8r	.	8r	.	8r	.	8D/	.	8D/ 8F#	.	.	.	8r	.	8dd\	.	8d\ 8a	.	8r	.	8r	.	8ryy	8ryy	.	8r	.	8r	.	8r	.	8r	.
.	.	8Ra/	.	8D/	.	8A/	.	8f#\	.	8D/J	.	8D/J 8F#	.	.	.	8a\ 8ff#	.	8dd\J	.	8d\J 8a	.	8aa\ 8fff#	.	8f#\ 8a	.	8aa/yy	8ff#\yy	.	8ff#\	.	8aa\	.	8ff#\	.	8aa\	.
=37	=37	=37	=37	=37	=37	=37	=37	=37	=37	=37	=37	=37	=37	=37	=37	=37	=37	=37	=37	=37	=37	=37	=37	=37	=37	=37	=37	=37	=37	=37	=37	=37	=37	=37	=37	=37
*	*	*	*	*	*	*	*	*	*	*rep	*	*rep	*	*	*	*	*	*rep	*	*rep	*	*	*	*	*	*	*	*	*	*	*	*	*	*	*	*
4Ra/	.	4RaT/	.	4D/	.	4A/	.	4f#\	.	8DD/L	.	8DD/L	.	2r	.	4a\ 4ff#	.	8r	.	8r	.	4aa\ 4fff#	.	4f#\ 4a	.	4aa/yyy	4ff#\yy	.	4ff#\	.	4aa\	.	4ff#\	.	4aa\	.
.	.	.	.	.	.	.	.	.	.	8D/	.	8D/ 8F#	.	.	.	.	.	8dd\L	.	8d\L 8a	.	.	.	.	.	.	.	.	.	.	.	.	.	.	.	.
8Ra/L	.	8Ra/L	.	8D/L	.	8A/L	.	8f#\L	.	8D/	.	8D/ 8F#	.	.	.	8f#\L 8dd	.	8dd\	.	8d\ 8a	.	8ff#\L 8ddd	.	8d\L 8f#	.	8ff#/Lyy	8dd\Lyy	.	8dd\L	.	8ff#\L	.	8dd\L	.	8ff#\L	.
8Ra/J	.	8Ra/J	.	8D/J	.	8A/J	.	8f#\J	.	8D/J	.	8D/J 8F#	.	.	.	8a\J 8ff#	.	8dd\J	.	8d\J 8a	.	8aa\J 8fff#	.	8f#\J 8a	.	8aa/Jyy	8ff#\Jyy	.	8ff#\J	.	8aa\J	.	8ff#\J	.	8aa\J	.
*	*	*	*	*	*	*	*	*	*	*Xrep	*	*Xrep	*	*	*	*	*	*Xrep	*	*Xrep	*	*	*	*	*	*	*	*	*	*	*	*	*	*	*	*
=38	=38	=38	=38	=38	=38	=38	=38	=38	=38	=38	=38	=38	=38	=38	=38	=38	=38	=38	=38	=38	=38	=38	=38	=38	=38	=38	=38	=38	=38	=38	=38	=38	=38	=38	=38	=38
*rep	*	*rep	*	*rep	*	*rep	*	*rep	*	*rep	*	*rep	*	*	*	*rep	*	*rep	*	*rep	*	*rep	*	*rep	*	*rep	*rep	*	*rep	*	*rep	*	*rep	*	*	*
4Ra/	.	4RaT/	.	4D/	.	4A/	.	4f#\	.	8DD/L	.	8DD/L	.	2r	.	4a\ 4ff#	.	8r	.	8r	.	4aa\ 4fff#	.	4f#\ 4a	.	4aa/yy	4ff#\yy	.	4ff#\	.	4aa\	.	4ff#\	.	4aa\	.
.	.	.	.	.	.	.	.	.	.	8D/	.	8D/ 8F#	.	.	.	.	.	8dd\L	.	8d\L 8a	.	.	.	.	.	.	.	.	.	.	.	.	.	.	.	.
8Ra/L	.	8Ra/L	.	8D/L	.	8A/L	.	8f#\L	.	8D/	.	8D/ 8F#	.	.	.	8f#\L 8dd	.	8dd\	.	8d\ 8a	.	8ff#\L 8ddd	.	8d\L 8f#	.	8ff#/Lyy	8dd\Lyy	.	8dd\L	.	8ff#\L	.	8dd\L	.	8ff#\L	.
8Ra/J	.	8Ra/J	.	8D/J	.	8A/J	.	8f#\J	.	8D/J	.	8D/J 8F#	.	.	.	8a\J 8ff#	.	8dd\J	.	8d\J 8a	.	8aa\J 8fff#	.	8f#\J 8a	.	8aa/Jyy	8ff#\Jyy	.	8ff#\J	.	8aa\J	.	8ff#\J	.	8aa\J	.
*Xrep	*	*Xrep	*	*Xrep	*	*Xrep	*	*Xrep	*	*Xrep	*	*Xrep	*	*	*	*Xrep	*	*Xrep	*	*Xrep	*	*Xrep	*	*Xrep	*	*Xrep	*Xrep	*	*Xrep	*	*Xrep	*	*Xrep	*	*	*
=39	=39	=39	=39	=39	=39	=39	=39	=39	=39	=39	=39	=39	=39	=39	=39	=39	=39	=39	=39	=39	=39	=39	=39	=39	=39	=39	=39	=39	=39	=39	=39	=39	=39	=39	=39	=39
*	*	*	*	*	*	*	*	*	*	*	*	*	*	*	*	*	*	*	*	*	*	*	*	*^	*	*	*	*	*	*	*	*	*	*	*	*
4Ra/	.	8Ra/L	.	4AA/	.	8G/L	.	8e\L	.	4AA/	.	8AA/L	.	2r	.	8a\L 8ff#	.	8r	.	8r	.	8gg\L 8eee	.	8a/L	8c#X\L	.	8ee/Lyy	8cc#X\Lyy	.	8cc#X\L	.	8ee\L	.	8ee\L	.	8gg\L	.
.	.	16Ra/L	.	.	.	16A/L	.	16f#\L	.	.	.	8E/ 8G	.	.	.	16a\L 16ff#	.	8cc#X\L 8ee	.	8g\L 8a	.	16aa\L 16fff#	.	16a/L	16c#\L	.	16ff#/Lyy	16cc#\Lyy	.	16cc#\L	.	16ff#\L	.	16ff#\L	.	16aa\L	.
.	.	16Ra/JJ	.	.	.	16A/JJ	.	16f#\JJ	.	.	.	.	.	.	.	16a\JJ 16ff#	.	.	.	.	.	16aa\JJ 16fff#	.	16a/JJ	16c#\JJ	.	16ff#/JJyy	16cc#\JJyy	.	16cc#\JJ	.	16ff#\JJ	.	16ff#\JJ	.	16aa\JJ	.
*	*	*rep	*	*	*	*	*	*	*	*	*	*	*	*	*	*	*	*	*	*	*	*	*	*	*	*	*	*	*	*	*	*	*	*	*	*	*
4Ra/	.	8Ra/L	.	4AA/	.	8G/L	.	8e\L	.	4AA/	.	8AA/	.	.	.	8f#\L 8dd	.	8cc#\ 8ee	.	8g\ 8a	.	8ff#\L 8ddd	.	8g/L	8c#\L	.	8ee/Lyy	8cc#\Lyy	.	8cc#\L	.	8ee\L	.	8ee\L	.	8gg\L	.
.	.	16Ra/L	.	.	.	8A/J	.	8f#\J	.	.	.	8E/J 8G	.	.	.	8g\J 8ee	.	8cc#\J 8ee	.	8g\J 8a	.	8gg\J 8eee	.	8a/J	8c#\J	.	8ff#/Jyy	8cc#\Jyy	.	8cc#\J	.	8ff#\J	.	8ff#\J	.	8aa\J	.
.	.	16Ra/JJ	.	.	.	.	.	.	.	.	.	.	.	.	.	.	.	.	.	.	.	.	.	.	.	.	.	.	.	.	.	.	.	.	.	.	.
*	*	*Xrep	*	*	*	*	*	*	*	*	*	*	*	*	*	*	*	*Xtremolo	*	*Xtremolo	*	*	*	*	*	*	*	*	*	*	*	*	*	*	*	*	*
=40	=40	=40	=40	=40	=40	=40	=40	=40	=40	=40	=40	=40	=40	=40	=40	=40	=40	=40	=40	=40	=40	=40	=40	=40	=40	=40	=40	=40	=40	=40	=40	=40	=40	=40	=40	=40	=40
*	*	*	*	*	*	*	*	*	*	*	*	*	*	*	*	*^	*	*^	*	*	*	*^	*	*	*	*	*	*	*	*	*	*	*	*	*	*	*
8Ra/	.	8Ra/	.	8D/	.	8F#/	.	8d\	.	8D/	.	8D\ 8F#	.	2r	.	8dd/	8f#\	.	8dd/	8dd\	.	8d\ 8a	.	16ddd/	8ff#\	.	8f#/	8d\	.	8dd/	8dd\	.	8dd\	.	16dd/LL	.	16dd\LL	.	16ff#/LL	.
*	*	*	*	*	*	*	*	*	*	*	*	*	*	*	*	*	*	*	*	*	*	*	*	*X8va	*	*	*	*	*	*	*	*	*	*	*	*	*	*	*	*
!	!	!	!	!	!	!	!	!	!	!	!	!	!	!	!	!	!	!	!	!	!	!	!	!LO:TX:a:t=loco	!	!	!	!	!	!	!	!	!	!	!	!	!	!	!	!
.	.	.	.	.	.	.	.	.	.	.	.	.	.	.	.	.	.	.	.	.	.	.	.	16dd/LL	.	.	.	.	.	.	.	.	.	.	16d/	.	16dd\	.	16dd/	.
8r	.	8r	.	8r	.	8r	.	8r	.	8r	.	8r	.	.	.	16c#X/LL	8rA	.	8r	8ryy	.	8r	.	16cc#X/	8r	.	8r	8ryy	.	8r	8ryy	.	8r	.	16c#X/	.	16cc#X\	.	16cc#X/	.
.	.	.	.	.	.	.	.	.	.	.	.	.	.	.	.	16d/JJ	.	.	.	.	.	.	.	16dd/JJ	.	.	.	.	.	.	.	.	.	.	16d/JJ	.	16dd\	.	16dd/JJ	.
4r	.	4r	.	4r	.	4r	.	4r	.	4r	.	4r	.	.	.	16e/LL	4rA	.	4r	4ryy	.	4r	.	16ee/LL	4r	.	4r	4ryy	.	4r	4ryy	.	4r	.	16e/LL	.	16ee\	.	16ee/LL	.
.	.	.	.	.	.	.	.	.	.	.	.	.	.	.	.	16f#/	.	.	.	.	.	.	.	16ff#/	.	.	.	.	.	.	.	.	.	.	16f#/	.	16ff#\	.	16ff#/	.
.	.	.	.	.	.	.	.	.	.	.	.	.	.	.	.	16g/	.	.	.	.	.	.	.	16gg/	.	.	.	.	.	.	.	.	.	.	16g/	.	16gg\	.	16gg/	.
!	!	!	!	!	!	!	!	!	!	!	!	!	!	!	!	!	!	!	!	!	!	!	!	!	!	!	!	!	!	!	!	!	!	!	!	!	!	!	!LO:TX:a:i:t=d'al segno al fine e poi Trio	!
!	!	!	!	!	!	!	!	!	!	!	!	!	!	!	!	!	!	!	!	!	!	!	!	!	!	!	!	!	!	!	!	!	!	!	!	!	!	!	!LO:TX:t=[segno]	!
.	.	.	.	.	.	.	.	.	.	.	.	.	.	.	.	16a/JJ	.	.	.	.	.	.	.	16aa/JJ	.	.	.	.	.	.	.	.	.	.	16a/JJ	.	16aa\JJ	.	16aa/JJ	.
*	*	*	*	*	*	*	*	*	*	*	*	*	*	*	*	*v	*v	*	*	*	*	*	*	*v	*v	*	*v	*v	*	*v	*v	*	*	*	*	*	*	*	*	*
*	*	*	*	*	*	*	*	*	*	*	*	*	*	*	*	*	*	*v	*v	*	*	*	*	*	*	*	*	*	*	*	*	*	*	*	*	*
!!LO:PB:g=original
=41||	=41||	=41||	=41||	=41||	=41||	=41||	=41||	=41||	=41||	=41||	=41||	=41||	=41||	=41||	=41||	=41||	=41||	=41||	=41||	=41||	=41||	=41||	=41||	=41||	=41||	=41||	=41||	=41||	=41||	=41||	=41||	=41||	=41||	=41||	=41||
*>D	*	*>D	*	*>D	*	*>D	*	*>D	*	*>D	*	*>D	*	*>D	*	*>D	*	*>D	*	*>D	*	*>D	*	*>D	*	*>D	*	*>D	*	*>D	*	*>D	*	*>D	*
*	*	*	*	*	*	*	*	*	*	*	*	*	*	*	*	*	*	*	*	*ok[]	*	*	*	*	*	*	*	*	*	*	*	*	*	*	*
*k[]	*	*k[]	*	*k[]	*	*k[]	*	*k[]	*	*k[]	*	*k[]	*	*k[]	*	*k[]	*	*k[]	*	*k[]	*	*k[]	*	*k[]	*	*k[]	*	*k[]	*	*k[]	*	*k[]	*	*k[]	*
*M6/8	*	*M6/8	*	*M6/8	*	*M6/8	*	*M6/8	*	*M6/8	*	*M6/8	*	*M6/8	*	*M6/8	*	*M6/8	*	*M6/8	*	*M6/8	*	*M6/8	*	*M6/8	*	*M6/8	*	*M6/8	*	*M6/8	*	*M6/8	*
!	!	!	!	!	!	!	!	!	!	!	!	!	!	!	!	!	!	!	!	!	!	!	!	!LO:TX:t=P:problem:w t. 42-47 rożek basetowy zapisany na partii oboju	!	!LO:TX:t=P:problem:w t. 42-47 obój  zapisany na partii rożka basetowego	!	!	!	!	!	!	!	!	!
!	!	!	!	!	!	!	!	!	!	!	!	!	!	!	!	!	!	!	!	!	!	!	!	!	!	!	!	!	!	!	!	!	!	!LO:TX:a:i:t=Trio	!
8r	.	8r	.	8r	.	8r	.	8r	.	8r	.	(16GG\LL 16G	.	8r	.	8r	.	8r	.	8r	.	16gg\LL	f	16G/LL	.	(16g/LL	.	(16g/LL	.	(16gg\LL	.	(16gg\LL	f	(16gg\LL	.
.	.	.	.	.	.	.	.	.	.	.	.	32AA\L 32A	.	.	.	.	.	.	.	.	.	32aa\L	.	32A/L	.	32a/L	.	32a/L	.	32aa\L	.	32aa\L	.	32aa\L	.
.	.	.	.	.	.	.	.	.	.	.	.	32BB\JJJ 32B	.	.	.	.	.	.	.	.	.	32bb\JJJ	.	32B/JJJ	.	32b/JJJ	.	32b/JJJ	.	32bb\JJJ	.	32bb\JJJ	.	32bb\JJJ	.
=42	=42	=42	=42	=42	=42	=42	=42	=42	=42	=42	=42	=42	=42	=42	=42	=42	=42	=42	=42	=42	=42	=42	=42	=42	=42	=42	=42	=42	=42	=42	=42	=42	=42	=42	=42
*	*	*	*	*	*	*	*	*	*	*	*	*	*	*	*	*^	*	*	*	*^	*	*	*	*	*	*	*	*	*	*	*	*	*	*	*
!	!	!	!LO:DY:rj	!	!LO:DY:rj	!	!	!	!LO:DY:rj	!	!LO:DY:rj	!	!	!	!	!	!	!LO:DY:rj	!	!	!	!	!LO:DY:rj	!	!	!	!	!	!	!	!	!	!	!	!	!	!
4Ra/	.	8Ra/	f	8C/	f	8c\	.	8e\	f	8C/	f	8C\) 8c	.	8g/	.	2.r	8c\	f	8e/ 8cc	.	4g/	8e\	f	8ccc\	.	8c/	.	8cc/)	.	8cc/)	.	8ccc\)	.	8ccc\)	.	8ccc\)	.
.	.	8r	.	8r	.	8r	.	8r	.	8r	.	8r	.	8r	.	.	8r	.	8r	.	.	8r	.	8r	.	8r	.	8r	.	8r	.	8r	.	8r	.	8r	.
8r	.	8r	.	8r	.	8r	.	8r	.	8r	.	8r	.	8r	.	.	8r	.	8r	.	2ryy	8r	.	8r	.	8r	.	8r	.	8r	.	8r	.	8r	.	8r	.
!	!	!	!	!	!	!	!	!	!	!	!	!	!	!	!	!	!	!	!	!	!	!	!	!	!	!LO:SIC:v:n=3:s=8g	!	!	!	!	!	!	!	!	!	!	!
4r	.	8Ra/	.	8C/	.	8c\	.	8e\	.	8C/	.	8E\ 8G	.	8g/	.	.	8c\	.	8e/ 8cc	.	.	8e\ 8g	.	4r	.	8A/ 8c 8e	.	8e/ 8g	.	4r	.	4r	.	4r	.	4r	.
.	.	8r	.	8r	.	8r	.	8r	.	8r	.	8r	.	8r	.	.	8r	.	8r	.	.	8r	.	.	.	8r	.	8r	.	.	.	.	.	.	.	.	.
8r	.	8r	.	8r	.	8r	.	8r	.	8r	.	8r	.	8r	.	.	8r	.	8r	.	.	8r	.	8r	.	8r	.	8r	.	8r	.	8r	.	8r	.	8r	.
=43	=43	=43	=43	=43	=43	=43	=43	=43	=43	=43	=43	=43	=43	=43	=43	=43	=43	=43	=43	=43	=43	=43	=43	=43	=43	=43	=43	=43	=43	=43	=43	=43	=43	=43	=43	=43	=43
*	*	*rep	*	*	*	*	*	*	*	*	*	*	*	*	*	*	*	*	*rep	*	*rep	*rep	*	*	*	*	*	*	*	*	*	*	*	*	*	*	*
2.r	.	8Ra/	.	8C/	.	8c\	.	8e\	.	8C/	.	8E\ 8G	.	8g/	.	2.r	8c\	.	8e/ 8cc	.	4g/	8e\	.	2.r	.	8c/ 8e	.	8e/ 8g	.	2.r	.	2.r	.	2.r	.	2.r	.
.	.	8r	.	8r	.	8r	.	8r	.	8r	.	8r	.	8r	.	.	8r	.	8r	.	.	8r	.	.	.	8r	.	8r	.	.	.	.	.	.	.	.	.
.	.	8r	.	8r	.	8r	.	8r	.	8r	.	8r	.	8r	.	.	8r	.	8r	.	2ryy	8r	.	.	.	8r	.	8r	.	.	.	.	.	.	.	.	.
.	.	8Ra/	.	8C/	.	8c\	.	8e\	.	8C/	.	8E\ 8G	.	8g/	.	.	8c\	.	8e/ 8cc	.	.	8e\ 8g	.	.	.	8c/ 8e	.	8e/ 8g	.	.	.	.	.	.	.	.	.
.	.	8r	.	8r	.	8r	.	8r	.	8r	.	8r	.	8r	.	.	8r	.	8r	.	.	8r	.	.	.	8r	.	8r	.	.	.	.	.	.	.	.	.
.	.	8r	.	8r	.	8r	.	8r	.	8r	.	8r	.	8r	.	.	8r	.	8r	.	.	8r	.	.	.	8r	.	8r	.	.	.	.	.	.	.	.	.
*	*	*Xrep	*	*	*	*	*	*	*	*	*	*	*	*	*	*	*	*	*Xrep	*	*Xrep	*Xrep	*	*	*	*	*	*	*	*	*	*	*	*	*	*	*
*	*	*	*	*	*	*	*	*	*	*	*	*	*	*	*	*v	*v	*	*	*	*v	*v	*	*	*	*	*	*	*	*	*	*	*	*	*	*	*
=44	=44	=44	=44	=44	=44	=44	=44	=44	=44	=44	=44	=44	=44	=44	=44	=44	=44	=44	=44	=44	=44	=44	=44	=44	=44	=44	=44	=44	=44	=44	=44	=44	=44	=44	=44
*	*	*	*	*	*	*	*	*	*	*	*	*	*	*	*	*	*	*	*	*	*	*^	*	*	*	*	*	*	*	*	*	*	*	*	*
!	!	!	!	!	!	!	!	!	!	!	!	!	!	!	!	!	!LO:DY:a	!	!	!	!	!	!	!LO:DY:a:rj	!	!	!	!	!	!	!	!LO:DY:a:rj	!	!	!	!
.	.	.	.	.	.	.	.	.	.	.	.	.	.	.	.	(16qqcc/LLyy	py	.	.	.	.	(<16qqccc/LLyy	(>16qqcc\LLyy	py	.	.	.	.	.	.	(16qqcc/LL	p	.	.	(16qqccc/LL	.
!	!	!	!	!	!	!	!	!	!	!	!	!	!	!	!	!	!	!	!	!	!	!LO:TX:b:i:t=2°Col Clarinetto 1° loco	!	!	!	!	!	!	!	!	!	!	!	!	!	!
!	!	!	!	!	!	!	!	!	!	!	!	!	!	!	!	!LO:TX:a:t=1°Col Clarinetto 1°	!	!	!	!	!	!LO:TX:a:t=1°Col Clarinetto 1° 8va	!	!	!	!	!	!	!	!	!	!	!	!	!	!
.	.	.	.	.	.	.	.	.	.	.	.	.	.	.	.	16qqdd/JJyy	.	.	.	.	.	16qqddd/JJyy	16qqdd\JJ)yy	.	.	.	.	.	.	.	16qqdd/JJ	.	.	.	16qqddd/JJ	.
!	!	!	!LO:DY:rj	!	!	!	!	!	!	!	!	!	!LO:DY:b:rj	!	!	!	!	!	!LO:DY:rj	!	!LO:DY:rj	!	!	!	!	!LO:DY:b:rj	!	!	!	!LO:DY:b:rj	!	!	!	!LO:DY:a:rj	!	!
2.r	.	8Ra/	p	8C/	p	2.r	.	2.r	.	8C/	.	8E\ 8G	p	2.r	.	8ee/L)yy	.	8e/ 8cc	p	8e\ 8g	p	8eee/L)yy	8ee'\Lyy	.	8c/ 8e	p	8e/ 8g	.	8g/	p	8ee\L)	.	8gg\	p	8eee\L)	.
.	.	8r	.	8r	.	.	.	.	.	8r	.	8r	.	.	.	8dd'/yy	.	8r	.	8r	.	8ddd'/yy	8dd'\yy	.	8r	.	8r	.	8r	.	8dd'\	.	8r	.	8ddd'\	.
*	*	*	*	*	*	*	*	*	*	*	*	*	*	*	*	*^	*	*	*	*	*	*	*	*	*	*	*	*	*	*	*	*	*	*	*	*
.	.	8r	.	8r	.	.	.	.	.	8r	.	8r	.	.	.	8b'/Jyy	2r	.	8r	.	8r	.	8bb'/Jyy	8b'\Jyy	.	8r	.	8r	.	8r	.	8b'\J	.	8r	.	8bb'\J	.
.	.	8Ra/	.	8C/	.	.	.	.	.	8C/	.	8F\ 8A	.	.	.	8dd'/Lyy	.	.	8c/ 8cc	.	8fnX\ 8a	.	8ddd'/Lyy	8dd'\Lyy	.	8c/ 8f	.	8f/ 8a	.	8a/	.	8dd'\L	.	8aa\	.	8ddd'\L	.
.	.	8r	.	8r	.	.	.	.	.	8r	.	8r	.	.	.	8cc'/yy	.	.	8r	.	4r	.	8ccc'/yy	8cc'\yy	.	8r	.	8r	.	8r	.	8cc'\	.	8r	.	8ccc'\	.
.	.	8r	.	8r	.	.	.	.	.	8r	.	8r	.	.	.	8a'/Jyy	.	.	8r	.	.	.	8aa'/Jyy	8a'\Jyy	.	8r	.	8r	.	8r	.	8a'\J	.	8r	.	8aa'\J	.
*	*	*	*	*	*	*	*	*	*	*	*	*	*	*	*	*v	*v	*	*	*	*	*	*	*	*	*	*	*	*	*	*	*	*	*	*	*	*
!!LO:PB:g=original
=45	=45	=45	=45	=45	=45	=45	=45	=45	=45	=45	=45	=45	=45	=45	=45	=45	=45	=45	=45	=45	=45	=45	=45	=45	=45	=45	=45	=45	=45	=45	=45	=45	=45	=45	=45	=45
*	*	*rep	*	*rep	*	*	*	*	*	*rep	*	*	*	*	*	*	*	*	*	*	*	*	*	*	*	*	*	*	*	*	*	*	*	*	*	*
2.r	.	8Ra/	.	8C/	.	2.r	.	2.r	.	8C/	.	8E\ 8G	.	2.r	.	8g/Lyy	.	8e/ 8cc	.	8e\ 8g	.	8gg/Lyy	8g\Lyy	.	8c/ 8e	.	8e/ 8g	.	8f/	.	8g\L	.	8r	.	8gg'\L	.
.	.	8r	.	8r	.	.	.	.	.	8r	.	8r	.	.	.	8gg/yy	.	8r	.	8r	.	8ggg/yy	8gg\yy	.	8r	.	8r	.	8r	.	8gg\	.	8gg\L	.	8ggg'\	.
*	*	*	*	*	*	*	*	*	*	*	*	*	*	*	*	*^	*	*	*	*	*	*	*	*	*	*	*	*	*	*	*	*	*	*	*	*
.	.	8r	.	8r	.	.	.	.	.	8r	.	8r	.	.	.	8gg/Jyy	2r	.	8r	.	8r	.	8ggg/Jyy	8gg\Jyy	.	8r	.	8r	.	8r	.	8gg\J	.	8gg\J	.	8ggg'\J	.
!	!	!	!	!	!	!	!	!	!	!	!	!	!	!	!	!	!	!	!	!	!	!	!	!	!	!	!	!	!	!	!	!LO:TX:t=P:problem:mixedbeam	!	!	!	!	!
.	.	8Ra/	.	8C/	.	.	.	.	.	8C/	.	8E\ 8G	.	.	.	8gg/Lyy	.	.	8e/ 8cc	.	8e\ 8g	.	8ggg/Lyy	8gg\Lyy	.	8c/ 8e	.	8e/ 8g	.	8g/	.	8gg\L	.	4gg\	.	8ggg'\L	.
.	.	8r	.	8r	.	.	.	.	.	8r	.	8r	.	.	.	8g/yy	.	.	8r	.	8r	.	8gg/yy	8g\yy	.	4r	.	8r	.	8r	.	8g/	.	.	.	8gg'\	.
.	.	8r	.	8r	.	.	.	.	.	8r	.	8r	.	.	.	8g/Jyy	.	.	8r	.	8r	.	8gg/Jyy	8g\Jyy	.	.	.	8r	.	8r	.	8g/J	.	8r	.	8gg'\J	.
*	*	*Xrep	*	*Xrep	*	*	*	*	*	*Xrep	*	*	*	*	*	*	*	*	*	*	*	*	*	*	*	*	*	*	*	*	*	*	*	*	*	*	*
*	*	*	*	*	*	*	*	*	*	*	*	*	*	*	*	*v	*v	*	*	*	*	*	*	*	*	*	*	*	*	*	*	*	*	*	*	*	*
=46	=46	=46	=46	=46	=46	=46	=46	=46	=46	=46	=46	=46	=46	=46	=46	=46	=46	=46	=46	=46	=46	=46	=46	=46	=46	=46	=46	=46	=46	=46	=46	=46	=46	=46	=46	=46
*	*	*rep	*	*	*	*	*	*	*	*	*	*	*	*	*	*	*	*	*	*	*	*	*	*	*	*	*	*	*	*	*	*	*	*	*	*
2.r	.	8Ra/	.	8GG/	.	2.r	.	2.r	.	8GG/	.	8F\ 8B	.	2.r	.	8g/Lyy	.	8g/ 8dd	.	8d\ 8g	.	8gg/Lyy	8g\Lyy	.	8B/ 8f	.	8d/ 8f	.	8f/	.	8g\L	.	8r	.	8gg'\L	.
.	.	8r	.	8r	.	.	.	.	.	8r	.	8r	.	.	.	8aa-X/yy	.	8r	.	8r	.	8aaa-X/yy	8aa-X\yy	.	8r	.	8r	.	8r	.	8aa-X\	.	8aa-X\L	.	8aaa-X'\	.
*	*	*	*	*	*	*	*	*	*	*	*	*	*	*	*	*^	*	*	*	*	*	*	*	*	*	*	*	*	*	*	*	*	*	*	*	*
.	.	8r	.	8r	.	.	.	.	.	8r	.	8r	.	.	.	8aa-/Jyy	2r	.	8r	.	8r	.	8aaa-/Jyy	8aa-\Jyy	.	8r	.	8r	.	8r	.	8aa-\J	.	8aa-\J	.	8aaa-'\J	.
.	.	8Ra/	.	8GG/	.	.	.	.	.	8GG/	.	8F\ 8B	.	.	.	8aa-/Lyy	.	.	8g/ 8dd	.	8d\ 8g	.	8aaa-/Lyy	8aa-\Lyy	.	8B/ 8f	.	8d/ 8f	.	8f/	.	8aa-\L	.	4aa-\	.	8aaa-'\L	.
.	.	8r	.	8r	.	.	.	.	.	8r	.	8r	.	.	.	8b/yy	.	.	8r	.	8r	.	8bb/yy	8b\yy	.	8r	.	8r	.	8r	.	8b\	.	.	.	8bb'\	.
.	.	8r	.	8r	.	.	.	.	.	8r	.	8r	.	.	.	8b/Jyy	.	.	8r	.	8r	.	8bb/Jyy	8b\Jyy	.	8r	.	8r	.	8r	.	8b\J	.	8r	.	8bb'\J	.
*	*	*Xrep	*	*	*	*	*	*	*	*	*	*	*	*	*	*	*	*	*	*	*	*	*	*	*	*	*	*	*	*	*	*	*	*	*	*	*
*	*	*	*	*	*	*	*	*	*	*	*	*	*	*	*	*v	*v	*	*	*	*	*	*	*	*	*	*	*	*	*	*	*	*	*	*	*	*
!!LO:PB:g=original
=47	=47	=47	=47	=47	=47	=47	=47	=47	=47	=47	=47	=47	=47	=47	=47	=47	=47	=47	=47	=47	=47	=47	=47	=47	=47	=47	=47	=47	=47	=47	=47	=47	=47	=47	=47	=47
!	!	!	!	!	!	!	!	!	!	!	!	!	!	!	!	!	!	!	!	!	!	!	!	!	!LO:TX:i:t=Barſet.	!	!LO:TX:i:t=Oboe	!	!	!	!	!	!	!	!	!
2.r	.	8Ra/	.	8C/	.	2.r	.	2.r	.	8C/	.	8E\ 8c	.	2.r	.	8cc/Lyy	.	8e/ 8cc	.	8e/ 8g	.	8ccc/Lyy	8cc\Lyy	.	8c/ 8e	.	8e/	.	8e/	.	8cc/L	.	8r	.	8ccc\L	.
.	.	8r	.	8r	.	.	.	.	.	8r	.	8r	.	.	.	8g/yy	.	8r	.	8r	.	8gg/yy	8g\yy	.	8r	.	8r	.	8r	.	8g/	.	8gg\L	.	8gg\	.
*	*	*	*	*	*	*	*	*	*	*	*	*	*	*	*	*^	*	*	*	*	*	*	*	*	*	*	*	*	*	*	*	*	*	*	*	*
.	.	8r	.	8r	.	.	.	.	.	8r	.	8r	.	.	.	8a/Jyy	2r	.	8r	.	8r	.	8aa/Jyy	8a\Jyy	.	8r	.	8r	.	8r	.	8a/J	.	8aa\J	.	8aa\J	.
.	.	8Ra/	.	8C/	.	.	.	.	.	8C/	.	8E\ 8c	.	.	.	8b/Lyy	.	.	8e/ 8cc	.	8e/ 8g	.	8bb/Lyy	8b\Lyy	.	8c/ 8e	.	8e/ 8g	.	8e/	.	8b/L	.	8bb\L	.	8bb\L	.
.	.	8r	.	8r	.	.	.	.	.	8r	.	8r	.	.	.	8cc/yy	.	.	8r	.	8r	.	8ccc/yy	8cc\yy	.	8r	.	8r	.	8r	.	8cc/	.	8ccc\	.	8ccc\	.
.	.	8r	.	8r	.	.	.	.	.	8r	.	8r	.	.	.	8dd/Jyy	.	.	8r	.	8r	.	8ddd/Jyy	8dd\Jyy	.	8r	.	8r	.	8r	.	8dd/J	.	8ddd\J	.	8ddd\J	.
*	*	*	*	*	*	*	*	*	*	*	*	*	*	*	*	*v	*v	*	*	*	*	*	*	*	*	*	*	*	*	*	*	*	*	*	*	*	*
=48	=48	=48	=48	=48	=48	=48	=48	=48	=48	=48	=48	=48	=48	=48	=48	=48	=48	=48	=48	=48	=48	=48	=48	=48	=48	=48	=48	=48	=48	=48	=48	=48	=48	=48	=48	=48
*	*	*rep	*	*rep	*	*	*	*	*	*	*	*	*	*	*	*	*	*	*	*	*	*	*	*	*	*	*	*	*	*	*	*	*	*	*	*
.	.	.	.	.	.	.	.	.	.	.	.	.	.	.	.	16qqcc/LLyy	.	.	.	.	.	16qqccc/LLyy	16qqcc/LLyy	.	.	.	.	.	.	.	16qqcc/LL	.	.	.	16qqccc/LL	.
.	.	.	.	.	.	.	.	.	.	.	.	.	.	.	.	16qqdd/JJyy	.	.	.	.	.	16qqddd/JJyy	16qqdd/JJyy	.	.	.	.	.	.	.	16qqdd/JJ	.	.	.	16qqddd/JJ	.
2.r	.	8Ra/	.	8C/	.	2.r	.	2.r	.	8C/	.	8E\ 8G	.	2.r	.	8ee/Lyy	.	8e/ 8cc	.	8e/ 8g	.	8eee/Lyy	8ee\Lyy	.	8c/ 8e	.	8e/ 8g	.	8g/	.	8ee/L	.	8gg\	.	8eee\L	.
.	.	8r	.	8r	.	.	.	.	.	8r	.	8r	.	.	.	8dd/yy	.	8r	.	8r	.	8ddd/yy	8dd\yy	.	8r	.	8r	.	8r	.	8dd/	.	8r	.	8ddd\	.
*	*	*	*	*	*	*	*	*	*	*	*	*	*	*	*	*^	*	*	*	*	*	*	*	*	*	*	*	*	*	*	*	*	*	*	*	*
.	.	8r	.	8r	.	.	.	.	.	8r	.	8r	.	.	.	8b/Jyy	2r	.	8r	.	8r	.	8bb/Jyy	8b\Jyy	.	8r	.	8r	.	8r	.	8b/J	.	8r	.	8bb\J	.
.	.	8Ra/	.	8C/	.	.	.	.	.	8C/	.	8E\ 8G	.	.	.	8dd/Lyy	.	.	8c/ 8cc	.	8fnX/ 8a	.	8ddd/Lyy	8dd\Lyy	.	8c/ 8f	.	8f/ 8a	.	8a/	.	8dd/L	.	8aa\	.	8ddd\L	.
.	.	8r	.	8r	.	.	.	.	.	8r	.	8r	.	.	.	8cc/yy	.	.	8r	.	8r	.	8ccc/yy	8cc\yy	.	8r	.	8r	.	8r	.	8cc/	.	8r	.	8ccc\	.
.	.	8r	.	8r	.	.	.	.	.	8r	.	8r	.	.	.	8a/Jyy	.	.	8r	.	8r	.	8aa/Jyy	8a\Jyy	.	8r	.	8r	.	8r	.	8a/J	.	8r	.	8aa\J	.
*	*	*Xrep	*	*Xrep	*	*	*	*	*	*	*	*	*	*	*	*	*	*	*	*	*	*	*	*	*	*	*	*	*	*	*	*	*	*	*	*	*
*	*	*	*	*	*	*	*	*	*	*	*	*	*	*	*	*v	*v	*	*	*	*	*	*	*	*	*	*	*	*	*	*	*	*	*	*	*	*
=49	=49	=49	=49	=49	=49	=49	=49	=49	=49	=49	=49	=49	=49	=49	=49	=49	=49	=49	=49	=49	=49	=49	=49	=49	=49	=49	=49	=49	=49	=49	=49	=49	=49	=49	=49	=49
*	*	*rep	*	*rep	*	*	*	*	*	*	*	*	*	*	*	*	*	*	*	*	*	*	*	*	*	*	*	*	*	*	*	*	*	*	*	*
!	!	!	!	!	!	!	!	!	!	!	!	!	!	!	!	!LO:TX:t=P:problem:mixedbeam	!	!	!	!	!	!	!	!	!	!	!	!	!	!	!	!	!	!	!	!
2.r	.	8Ra/	.	8C/	.	2.r	.	2.r	.	8C/	.	8E\ 8G	.	2.r	.	8g/Lyy	.	8e/ 8cc	.	8e/ 8g	.	8gg/Lyy	8g\Lyy	.	8c/ 8e	.	8e/ 8g	.	8g/	.	8g\L	.	8r	.	8gg\L	.
.	.	8r	.	8r	.	.	.	.	.	8r	.	8r	.	.	.	8gg/yy	.	8r	.	8r	.	8ggg/yy	8gg\yy	.	8r	.	8r	.	8r	.	8gg\	.	8gg\L	.	8ggg\	.
*	*	*	*	*	*	*	*	*	*	*	*	*	*	*	*	*^	*	*	*	*	*	*	*	*	*	*	*	*	*	*	*	*	*	*	*	*
.	.	8r	.	8r	.	.	.	.	.	8r	.	8r	.	.	.	8gg/Jyy	2r	.	8r	.	8r	.	8ggg/Jyy	8gg\Jyy	.	8r	.	8r	.	8r	.	8gg\J	.	8gg\J	.	8ggg\J	.
!	!	!	!	!	!	!	!	!	!	!	!	!	!	!	!	!LO:TX:t=P:problem:mixedbeam	!	!	!	!	!	!	!	!	!	!	!	!	!	!	!	!LO:TX:t=P:problem:mixedbeam	!	!	!	!	!
.	.	8Ra/	.	8C/	.	.	.	.	.	8C/	.	8E\ 8G	.	.	.	8gg/Lyy	.	.	8e/ 8cc	.	8e/ 8g	.	8ggg/Lyy	8gg\Lyy	.	8c/ 8e	.	8e/ 8g	.	8g/	.	8gg\L	.	4gg\	.	8ggg\L	.
.	.	8r	.	8r	.	.	.	.	.	8r	.	8r	.	.	.	8g/yy	.	.	8r	.	8r	.	8gg/yy	8g\yy	.	8r	.	8r	.	8r	.	8g/	.	.	.	8gg\	.
.	.	8r	.	8r	.	.	.	.	.	8r	.	8r	.	.	.	8g/Jyy	.	.	8r	.	8r	.	8gg/Jyy	8g\Jyy	.	8r	.	8r	.	8r	.	8g/J	.	8r	.	8gg\J	.
*	*	*Xrep	*	*Xrep	*	*	*	*	*	*	*	*	*	*	*	*	*	*	*	*	*	*	*	*	*	*	*	*	*	*	*	*	*	*	*	*	*
*	*	*	*	*	*	*	*	*	*	*	*	*	*	*	*	*v	*v	*	*	*	*	*	*	*	*	*	*	*	*	*	*	*	*	*	*	*	*
=50	=50	=50	=50	=50	=50	=50	=50	=50	=50	=50	=50	=50	=50	=50	=50	=50	=50	=50	=50	=50	=50	=50	=50	=50	=50	=50	=50	=50	=50	=50	=50	=50	=50	=50	=50	=50
*	*	*rep	*	*	*	*	*	*	*	*	*	*	*	*	*	*	*	*	*	*	*	*	*	*	*	*	*	*	*	*	*	*	*	*	*	*
!	!	!	!	!	!	!	!	!	!	!	!	!	!	!	!	!	!	!	!	!	!	!	!	!	!	!	!	!	!	!	!LO:TX:t=P:problem:mixedbeam	!	!	!	!	!
2.r	.	8Ra/	.	8GG/	.	2.r	.	2.r	.	8C/	.	8F\ 8B	.	2.r	.	8g/Lyy	.	8g/ 8dd	.	8d/ 8g	.	8gg/Lyy	8g\Lyy	.	8B/ 8f	.	8d/ 8b	.	8f/	.	8g/L	.	8r	.	8gg\L	.
.	.	8r	.	8r	.	.	.	.	.	8r	.	8r	.	.	.	8aa-X/yy	.	8r	.	8r	.	8aaa-X/yy	8aa-X\yy	.	8r	.	8r	.	8r	.	8aa-X\	.	8aa-X\L	.	8aaa-X\	.
*	*	*	*	*	*	*	*	*	*	*	*	*	*	*	*	*^	*	*	*	*	*	*	*	*	*	*	*	*	*	*	*	*	*	*	*	*
.	.	8r	.	8r	.	.	.	.	.	8r	.	8r	.	.	.	8aa-/Jyy	2r	.	8r	.	8r	.	8aaa-/Jyy	8aa-\Jyy	.	8r	.	8r	.	8r	.	8aa-\J	.	8aa-\J	.	8aaa-\J	.
.	.	8Ra/	.	8GG/	.	.	.	.	.	8C/	.	8F\ 8B	.	.	.	8aa-/Lyy	.	.	8g/ 8dd	.	8d/ 8g	.	8aaa-/Lyy	8aa-\Lyy	.	8B/ 8f	.	8d/ 8b	.	8f/	.	8aa-\L	.	4aa-\	.	8aaa-\L	.
.	.	8r	.	8r	.	.	.	.	.	8r	.	8r	.	.	.	8b/yy	.	.	8r	.	8r	.	8bb/yy	8b\yy	.	8r	.	8r	.	8r	.	8b\	.	.	.	8bb\	.
.	.	8r	.	8r	.	.	.	.	.	8r	.	8r	.	.	.	8b/Jyy	.	.	8r	.	8r	.	8bb/Jyy	8b\Jyy	.	8r	.	8r	.	8r	.	8b\J	.	8r	.	8bb\J	.
*	*	*Xrep	*	*	*	*	*	*	*	*	*	*	*	*	*	*	*	*	*	*	*	*	*	*	*	*	*	*	*	*	*	*	*	*	*	*	*
*	*	*	*	*	*	*	*	*	*	*	*	*	*	*	*	*v	*v	*	*	*	*	*	*	*	*	*	*	*	*	*	*	*	*	*	*	*	*
=51	=51	=51	=51	=51	=51	=51	=51	=51	=51	=51	=51	=51	=51	=51	=51	=51	=51	=51	=51	=51	=51	=51	=51	=51	=51	=51	=51	=51	=51	=51	=51	=51	=51	=51	=51	=51
2.r	.	8Ra/L	.	8C\L	.	2.r	.	2.r	.	8C\L	.	8E\L 8c	.	2.r	.	8cc/Lyy	.	8e/L 8cc	.	8e/L 8g	.	8ccc/Lyy	8cc\Lyy	.	8c/L 8e	.	8e/L 8cc	.	8e/L	.	8cc\L	.	8cc\L	.	8ccc\L	.
.	.	8r	.	8E\	.	.	.	.	.	8E\	.	8r	.	.	.	8gg/yy	.	8r	.	8r	.	8ggg/yy	8gg\yy	.	8r	.	8r	.	8r	.	8gg\	.	8gg\	.	8ggg\	.
*	*	*	*	*	*	*	*	*	*	*	*	*	*	*	*	*^	*	*	*	*	*	*	*	*	*	*	*	*	*	*	*	*	*	*	*	*
.	.	8RaT/J	.	8G\J	.	.	.	.	.	8G\J	.	8E\J 8c	.	.	.	8ee/Jyy	2r	.	8e/J 8cc	.	8e/J 8g	.	8eee/Jyy	8ee\Jyy	.	8c/J 8e	.	8e/J 8cc	.	8e/J	.	8ee\J	.	8ee\J	.	8eee\J	.
.	.	4Ra/	.	4C/	.	.	.	.	.	4C/	.	4E\ 4c	.	.	.	8cc/yy	.	.	4e/ 4cc	.	4e/ 4g	.	8ccc/yy	8cc\yy	.	4c/ 4e	.	4e/ 4cc	.	4e/	.	8cc\	.	8cc\	.	8ccc\	.
.	.	.	.	.	.	.	.	.	.	.	.	.	.	.	.	8ryy	.	.	.	.	.	.	8ryy	8ryy	.	.	.	.	.	.	.	8r	.	8r	.	8r	.
.	.	8r	.	8r	.	.	.	.	.	8r	.	8r	.	.	.	16cc/LL	.	.	8r	.	8r	f	(16ccc/LLyy	(16cc\LLyy	.	8r	.	8r	.	8r	.	(16cc\LL	.	16ccc\LL	.	(16ccc\LL	.
.	.	.	.	.	.	.	.	.	.	.	.	.	.	.	.	16dd/JJ	.	.	.	.	.	.	16ddd/JJ)yy	16dd\JJ)yy	fy	.	.	.	.	.	.	16dd\JJ)	f	16ddd\JJ	.	16ddd\JJ	f
=52	=52	=52	=52	=52	=52	=52	=52	=52	=52	=52	=52	=52	=52	=52	=52	=52	=52	=52	=52	=52	=52	=52	=52	=52	=52	=52	=52	=52	=52	=52	=52	=52	=52	=52	=52	=52	=52
!	!LO:DY:rj	!	!	!	!LO:DY:rj	!	!	!	!LO:DY:rj	!	!	!	!LO:DY:rj	!	!LO:DY:rj	!	!	!	!	!	!	!	!	!	!	!	!LO:DY:rj	!	!LO:DY:rj	!	!	!	!	!	!	!	!
4Ra/	f	8Ra/L	.	4C/	f	8r	.	8r	f	8CC/L	.	8C\L	f	8r	f	8ee/L	8r	.	8r	.	8r	.	8eee/Lyy	8ee\Lyy	.	8r	f	8r	f	8r	.	8ee\L	.	8eee\L	.	8eee\L)	.
.	.	16Ra/L	.	.	.	8e\L	.	8g\L	.	8C/	.	8E\ 8G	.	8g/L 8gg	.	8dd/	8g\L	.	8e/L 8cc	.	8e/L 8g	.	8ddd/yy	8dd\yy	.	8e\L 8g	.	8e/L 8g	.	8g/L	.	8dd\	.	8ddd\	.	8ddd\	.
.	.	16Ra/J	.	.	.	.	.	.	.	.	.	.	.	.	.	.	.	.	.	.	.	.	.	.	.	.	.	.	.	.	.	.	.	.	.	.	.
8r	.	8Ra/J	.	8r	.	8e\J	.	8g\J	.	8C/J	.	8E\J 8G	.	8g/J 8gg	.	8b/J	8g\J	.	8e/J 8cc	.	8e/J 8g	.	8bb/Jyy	8b\Jyy	.	8e\J 8g	.	8e/J 8g	.	8g/J	.	8b\J	.	8bb\J	.	8bb\J	.
*	*	*rep	*	*	*	*	*	*	*	*rep	*	*	*	*	*	*	*	*	*	*	*	*	*	*	*	*	*	*	*	*	*	*	*	*	*	*	*
4Ra/	.	8Ra/L	.	4C/	.	8r	.	8r	.	8CC/L	.	8C\L	.	8r	.	8dd/L	8r	.	8r	.	8r	.	8ddd/Lyy	8dd\Lyy	.	8r	.	8r	.	8r	.	8dd\L	.	8ddd\L	.	8ddd\L	.
.	.	16Ra/L	.	.	.	8f\L	.	8a\L	.	8C/	.	8F\ 8A	.	8cc/L 8aa	.	8cc/	8a\L	.	8c/L 8cc	.	8fnX/L 8a	.	8ccc/yy	8cc\yy	.	8f\L 8a	.	8f/L 8a	.	8a/L	.	8cc\	.	8ccc\	.	8ccc\	.
.	.	16Ra/J	.	.	.	.	.	.	.	.	.	.	.	.	.	.	.	.	.	.	.	.	.	.	.	.	.	.	.	.	.	.	.	.	.	.	.
8r	.	8Ra/J	.	8r	.	8f\J	.	8a\J	.	8C/J	.	8F\J 8A	.	8cc/J 8aa	.	8a/J	8a\J	.	8c/J 8cc	.	8f/J 8a	.	8aa/Jyy	8a\Jyy	.	8f\J 8a	.	8f/J 8a	.	8a/J	.	8a\J	.	8aa\J	.	8aa\J	.
*	*	*Xrep	*	*	*	*	*	*	*	*Xrep	*	*	*	*	*	*	*	*	*	*	*	*	*	*	*	*	*	*	*	*	*	*	*	*	*	*	*
!!LO:PB:g=original
=53	=53	=53	=53	=53	=53	=53	=53	=53	=53	=53	=53	=53	=53	=53	=53	=53	=53	=53	=53	=53	=53	=53	=53	=53	=53	=53	=53	=53	=53	=53	=53	=53	=53	=53	=53	=53	=53
*	*	*	*	*tremolo	*	*	*	*	*	*	*	*	*	*	*	*	*	*	*	*	*	*	*	*	*	*	*	*	*	*	*	*	*	*	*	*	*
!	!	!	!	!	!	!	!	!	!	!	!	!	!	!	!	!LO:TX:a:t=1°Col Clarinetto 1°	!	!	!	!	!	!	!	!	!	!	!	!	!	!	!	!	!	!	!	!	!
!	!	!	!	!	!	!	!	!	!	!	!	!	!	!	!	!	!	!	!	!	!	!	!	!	!	!	!	!	!	!	!	!LO:TX:t=P:problem:mixedbeam	!	!	!	!	!
4Ra/	.	8Ra/L	.	8C/L	.	8r	.	8r	.	8CC/L	.	8C\L	.	8r	.	8g/Lyy	8r	.	8r	.	8r	.	8gg/Lyy	8g\Lyy	.	8r	.	8r	.	8r	.	8g/L	.	8gg\L	.	8gg\L	.
.	.	16Ra/L	.	8C/	.	8e\L	.	8g\L	.	8C/	.	8E\ 8G	.	8g/L 8gg	.	8gg/yy	8e\L	.	8a\L 8cc	.	8B/L 8g	.	8ggg/yy	8gg\yy	.	8e\L 8g	.	8e/L 8g	.	8e/L	.	8gg\	.	8ggg\	.	8ggg\	.
.	.	16Ra/J	.	.	.	.	.	.	.	.	.	.	.	.	.	.	.	.	.	.	.	.	.	.	.	.	.	.	.	.	.	.	.	.	.	.	.
8r	.	8Ra/J	.	8C/J	.	8e\J	.	8g\J	.	8C/J	.	8E\J 8G	.	8g/J 8gg	.	8gg/Jyy	8e\J	.	8a\J 8cc	.	8B/J 8g	.	8ggg/Jyy	8gg\Jyy	.	8e\J 8g	.	8e/J 8g	.	8e/J	.	8gg\J	.	8ggg\J	.	8ggg\J	.
*	*	*	*	*Xtremolo	*	*	*	*	*	*	*	*	*	*	*	*	*	*	*	*	*	*	*	*	*	*	*	*	*	*	*	*	*	*	*	*	*
!	!	!	!	!	!	!	!	!	!	!	!	!	!	!	!	!	!	!	!	!	!	!	!	!	!	!	!	!	!	!	!	!LO:TX:t=P:problem:mixedbeam	!	!	!	!	!
4Ra/	.	4Ra/	.	4.C/	.	4.e\	.	4.g\	.	4.C/	.	4.E\ 4.G	.	4.g/ 4.gg	.	8gg/Lyy	4.e\	.	4.a\ 4.cc	.	4.B/ 4.g	.	8ggg/Lyy	8gg\Lyy	.	4.e\ 4.g	.	4.e/ 4.g	.	4.e/	.	8gg\L	.	8ggg\L	.	8ggg\L	.
.	.	.	.	.	.	.	.	.	.	.	.	.	.	.	.	8g/yy	.	.	.	.	.	.	8gg/yy	8g\yy	.	.	.	.	.	.	.	8g/	.	8gg\	.	8gg\	.
.	.	.	.	.	.	.	.	.	.	.	.	.	.	.	.	.	.	.	.	.	.	.	.	.	.	.	.	.	.	.	.	.	.	.	.	.	.
8r	.	8r	.	.	.	.	.	.	.	.	.	.	.	.	.	8g/Jyy	.	.	.	.	.	.	8gg/Jyy	8g\Jyy	.	.	.	.	.	.	.	8g/J	.	8gg\J	.	8gg\J	.
=54	=54	=54	=54	=54	=54	=54	=54	=54	=54	=54	=54	=54	=54	=54	=54	=54	=54	=54	=54	=54	=54	=54	=54	=54	=54	=54	=54	=54	=54	=54	=54	=54	=54	=54	=54	=54	=54
*rep	*	*rep	*	*	*	*	*	*	*	*	*	*	*	*rep	*	*	*	*	*	*	*	*	*	*	*	*	*	*	*	*	*	*	*	*	*	*	*
!	!	!	!	!LO:TX:t=P:problem:mixedbeam	!	!	!	!	!	!	!	!	!	!	!	!	!	!	!	!	!	!	!	!	!	!	!	!	!	!	!	!LO:TX:t=P:problem:mixedbeam	!	!	!	!	!
4Ra/	.	8Ra/L	.	8GG/L	.	8r	.	8r	.	8GG\L	.	8GG\L	.	8r	.	8g/Lyy	8r	.	8r	.	8r	.	8gg/Lyy	8g\Lyy	.	8r	.	8r	.	8r	.	8g/L	.	8gg\L	.	8gg\L	.
.	.	16Ra/L	.	8G\	.	8B\L	.	8f\L	.	8G\	.	8D\ 8F	.	8g/L 8gg	.	8aa-X/yy	8f\L	.	8b-X\L 8cc	.	8d/L 8a	.	8aaa-X/yy	8aa-X\yy	.	8f\L 8g	.	8d/L 8g	.	8f/L	.	8aa-X\	.	8aaa-X\	.	8aaa-X\	.
.	.	16Ra/J	.	.	.	.	.	.	.	.	.	.	.	.	.	.	.	.	.	.	.	.	.	.	.	.	.	.	.	.	.	.	.	.	.	.	.
8r	.	8Ra/J	.	8G\J	.	8B\J	.	8f\J	.	8G\J	.	8D\J 8F	.	8g/J 8gg	.	8aa-/Jyy	8f\J	.	8b-\J 8cc	.	8d/J 8a	.	8aaa-/Jyy	8aa-\Jyy	.	8f\J 8g	.	8d/J 8g	.	8f/J	.	8aa-\J	.	8aaa-\J	.	8aaa-\J	.
4Ra/	.	4Ra/	.	4.G\	.	4.B\	.	4.f\	.	4.G\	.	4.D\ 4.F	.	4.g/ 4.gg	.	8aa-/Lyy	4.f\	.	4.b-\ 4.cc	.	4.d/ 4.a	.	8aaa-/Lyy	8aa-\Lyy	.	4.f\ 4.g	.	4.d/ 4.g	.	4.f/	.	8aa-\L	.	8aaa-\L	.	8aaa-\L	.
.	.	.	.	.	.	.	.	.	.	.	.	.	.	.	.	8b/yy	.	.	.	.	.	.	8bb/yy	8b\yy	.	.	.	.	.	.	.	8b\	.	8bb\	.	8bb\	.
.	.	.	.	.	.	.	.	.	.	.	.	.	.	.	.	.	.	.	.	.	.	.	.	.	.	.	.	.	.	.	.	.	.	.	.	.	.
8r	.	8r	.	.	.	.	.	.	.	.	.	.	.	.	.	8b/Jyy	.	.	.	.	.	.	8bb/Jyy	8b\Jyy	.	.	.	.	.	.	.	8b\J	.	8bb\J	.	8bb\J	.
*Xrep	*	*Xrep	*	*	*	*	*	*	*	*	*	*	*	*Xrep	*	*	*	*	*	*	*	*	*	*	*	*	*	*	*	*	*	*	*	*	*	*	*
=55	=55	=55	=55	=55	=55	=55	=55	=55	=55	=55	=55	=55	=55	=55	=55	=55	=55	=55	=55	=55	=55	=55	=55	=55	=55	=55	=55	=55	=55	=55	=55	=55	=55	=55	=55	=55	=55
*rep	*	*rep	*	*tremolo	*	*	*	*	*	*	*	*	*	*rep	*	*	*	*	*	*	*	*	*	*	*	*	*	*	*	*	*	*	*	*	*	*	*
4Ra/	.	8Ra/L	.	8C/L	.	8r	.	8r	.	8CC/L	.	8C\L	.	8r	.	8cc/Lyy	8r	.	8r	.	8r	.	8ccc/Lyy	8cc\Lyy	.	8r	.	8r	.	8r	.	8cc\L	.	8ccc\L	.	8ccc\L	.
.	.	16Ra/L	.	8C/	.	8c\L	.	8e\L	.	8C/	.	8E\ 8G	.	8g/L 8gg	.	8g/yy	8e\L	.	8a\L 8cc	.	8B/L 8g	.	8gg/yy	8g\yy	.	8e\L 8g	.	8e/L 8g	.	8e/L	.	8g\	.	8gg\	.	8gg\	.
.	.	16Ra/J	.	.	.	.	.	.	.	.	.	.	.	.	.	.	.	.	.	.	.	.	.	.	.	.	.	.	.	.	.	.	.	.	.	.	.
8r	.	8Ra/J	.	8C/J	.	8c\J	.	8e\J	.	8C/J	.	8E\J 8G	.	8g/J 8gg	.	8a/Jyy	8e\J	.	8a\J 8cc	.	8B/J 8g	.	8aa/Jyy	8a\Jyy	.	8e\J 8g	.	8e/J 8g	.	8e/J	.	8a\J	.	8aa\J	.	8aa\J	.
*	*	*	*	*Xtremolo	*	*	*	*	*	*	*	*	*	*	*	*	*	*	*	*	*	*	*	*	*	*	*	*	*	*	*	*	*	*	*	*	*
4Ra/	.	4Ra/	.	4.C/	.	4.c\	.	4.e\	.	4.C/	.	4.E\ 4.G	.	4.g/ 4.gg	.	8b/Lyy	4.e\	.	4.a\ 4.cc	.	4.B/ 4.g	.	8bb/Lyy	8b\Lyy	.	4.e\ 4.g	.	4.e/ 4.g	.	4.e/	.	8b\L	.	8bb\L	.	8bb\L	.
.	.	.	.	.	.	.	.	.	.	.	.	.	.	.	.	8cc/yy	.	.	.	.	.	.	8ccc/yy	8cc\yy	.	.	.	.	.	.	.	8cc\	.	8ccc\	.	8ccc\	.
.	.	.	.	.	.	.	.	.	.	.	.	.	.	.	.	.	.	.	.	.	.	.	.	.	.	.	.	.	.	.	.	.	.	.	.	.	.
8r	.	8r	.	.	.	.	.	.	.	.	.	.	.	.	.	8dd/Jyy	.	.	.	.	.	.	8ddd/Jyy	8dd\Jyy	.	.	.	.	.	.	.	8dd\J	.	8ddd\J	.	8ddd\J	.
*Xrep	*	*Xrep	*	*	*	*	*	*	*	*	*	*	*	*Xrep	*	*	*	*	*	*	*	*	*	*	*	*	*	*	*	*	*	*	*	*	*	*	*
=56	=56	=56	=56	=56	=56	=56	=56	=56	=56	=56	=56	=56	=56	=56	=56	=56	=56	=56	=56	=56	=56	=56	=56	=56	=56	=56	=56	=56	=56	=56	=56	=56	=56	=56	=56	=56	=56
*rep	*	*	*	*	*	*	*	*	*	*	*	*	*	*	*	*	*	*	*	*	*	*	*	*	*	*	*	*	*	*	*	*	*	*	*	*	*!!LO:TX:a:t=1.
.	.	.	.	.	.	.	.	.	.	.	.	.	.	.	.	16qqcc/LLyy	.	.	.	.	.	.	16qqccc/LLyy	16qqcc\LLyy	.	.	.	.	.	.	.	16qqcc/LL	.	16qqccc/LL	.	16qqccc/LL	.
!	!	!	!	!	!	!	!	!	!	!	!	!	!	!	!	!	!	!	!	!	!	!	!	!	!	!	!	!	!	!	!	!	!	!	!	!LO:TX:a:t=1.	!
.	.	.	.	.	.	.	.	.	.	.	.	.	.	.	.	16qqdd/JJyy	.	.	.	.	.	.	16qqddd/JJyy	16qqdd\JJyy	.	.	.	.	.	.	.	16qqdd/JJ	.	16qqddd/JJ	.	16qqddd/JJ	.
4Ra/	.	8Ra/L	.	4C/	.	8r	.	8r	.	4C/	.	8C\L	.	8r	.	8ee/Lyy	8r	.	8r	.	8r	.	8eee/Lyy	8ee\Lyy	.	8r	.	8r	.	8r	.	8ee\L	.	8eee\L	.	8eee\L	.
.	.	16Ra/L	.	.	.	8e\L	.	8g\L	.	.	.	8E\ 8G	.	8g/L 8gg	.	8dd/yy	8g\L	.	8a\L 8cc	.	8B/L 8g	.	8ddd/yy	8dd\yy	.	8e\L 8g	.	8e/L 8g	.	8g/L	.	8dd\	.	8ddd\	.	8ddd\	.
.	.	16Ra/J	.	.	.	.	.	.	.	.	.	.	.	.	.	.	.	.	.	.	.	.	.	.	.	.	.	.	.	.	.	.	.	.	.	.	.
8r	.	8Ra/J	.	8r	.	8e\J	.	8g\J	.	8r	.	8E\J 8G	.	8g/J 8gg	.	8b/Jyy	8g\J	.	8a\J 8cc	.	8B/J 8g	.	8bb/Jyy	8b\Jyy	.	8e\J 8g	.	8e/J 8g	.	8g/J	.	8b\J	.	8bb\J	.	8bb\J	.
*	*	*rep	*	*	*	*	*	*	*	*	*	*	*	*	*	*	*	*	*	*	*	*	*	*	*	*	*	*	*	*	*	*	*	*	*	*	*
4Ra/	.	8Ra/L	.	4C/	.	8r	.	8r	.	4C/	.	8C\L	.	8r	.	8dd/Lyy	8r	.	8r	.	8r	.	8ddd/Lyy	8dd\Lyy	.	8r	.	8r	.	8r	.	8dd\L	.	8ddd\L	.	8ddd\L	.
.	.	16Ra/L	.	.	.	8f\L	.	8a\L	.	.	.	8F\ 8A	.	8cc/L 8aa	.	8cc/yy	8a\L	.	8b-X\L 8dd	.	8G/L 8g	.	8ccc/yy	8cc\yy	.	8f\L 8a	.	8f/L 8a	.	8f/L	.	8cc\	.	8ccc\	.	8ccc\	.
.	.	16Ra/J	.	.	.	.	.	.	.	.	.	.	.	.	.	.	.	.	.	.	.	.	.	.	.	.	.	.	.	.	.	.	.	.	.	.	.
8r	.	8Ra/J	.	8r	.	8f\J	.	8a\J	.	8r	.	8F\J 8A	.	8cc/J 8aa	.	8a/Jyy	8a\J	.	8b-\J 8dd	.	8G/J 8g	.	8aa/Jyy	8a\Jyy	.	8f\J 8a	.	8f/J 8a	.	8f/J	.	8a\J	.	8aa\J	.	8aa\J	.
*Xrep	*	*Xrep	*	*	*	*	*	*	*	*	*	*	*	*	*	*	*	*	*	*	*	*	*	*	*	*	*	*	*	*	*	*	*	*	*	*	*
=57	=57	=57	=57	=57	=57	=57	=57	=57	=57	=57	=57	=57	=57	=57	=57	=57	=57	=57	=57	=57	=57	=57	=57	=57	=57	=57	=57	=57	=57	=57	=57	=57	=57	=57	=57	=57	=57
*rep	*	*	*	*tremolo	*	*	*	*	*	*	*	*	*	*	*	*	*	*	*	*	*	*	*	*	*	*	*	*	*	*	*	*	*	*	*	*	*
!	!	!	!	!	!	!	!	!	!	!	!	!	!	!	!	!	!	!	!	!	!	!	!	!	!	!	!	!	!	!	!	!	!	!	!	!LO:TX:a:t=2.	!
4Ra/	.	8Ra/L	.	8C/L	.	8r	.	8r	.	8CC/L	.	8C\L	.	8r	.	8g/Lyy	8r	.	8r	.	8r	.	8gg/Lyy	8g\Lyy	.	8r	.	8r	.	8r	.	8g\L	.	8gg\L	.	8gg\L	.
.	.	16Ra/L	.	8C/	.	8e\L	.	8g\L	.	8C/	.	8E\ 8G	.	8g/L 8gg	.	8gg/yy	8e\L	.	8a\L 8cc	.	8B/L 8g	.	8ggg/yy	8gg\yy	.	8e\L 8g	.	8e/L 8g	.	8e/L	.	8gg\	.	8ggg\	.	8ggg\	.
.	.	16Ra/J	.	.	.	.	.	.	.	.	.	.	.	.	.	.	.	.	.	.	.	.	.	.	.	.	.	.	.	.	.	.	.	.	.	.	.
8r	.	8Ra/J	.	8C/J	.	8e\J	.	8g\J	.	8C/J	.	8E\J 8G	.	8g/J 8gg	.	8gg/Jyy	8e\J	.	8a\J 8cc	.	8B/J 8g	.	8ggg/Jyy	8gg\Jyy	.	8e\J 8g	.	8e/J 8g	.	8e/J	.	8gg\J	.	8ggg\J	.	8ggg\J	.
*	*	*	*	*Xtremolo	*	*	*	*	*	*	*	*	*	*	*	*	*	*	*	*	*	*	*	*	*	*	*	*	*	*	*	*	*	*	*	*	*
!	!	!	!	!LO:N:vis=4	!	!	!	!	!	!	!	!	!	!	!	!	!	!	!	!	!	!	!	!	!	!	!	!	!	!	!	!LO:TX:t=P:problem:mixedbeam	!	!	!	!	!
4Ra/	.	4Ra/	.	4.C/	.	4.e\	.	4.g\	.	4.C/	.	4.E\ 4.G	.	4.g/ 4.gg	.	8gg/Lyy	4.e\	.	4.a\ 4.cc	.	4.B/ 4.g	.	8ggg/Lyy	8gg\Lyy	.	4.e\ 4.g	.	4.e/ 4.g	.	4.e/	.	8gg\L	.	8ggg\L	.	8ggg\L	.
.	.	.	.	.	.	.	.	.	.	.	.	.	.	.	.	8g/yy	.	.	.	.	.	.	8gg/yy	8g\yy	.	.	.	.	.	.	.	8g/	.	8gg\	.	8gg\	.
8r	.	8r	.	.	.	.	.	.	.	.	.	.	.	.	.	8g/Jyy	.	.	.	.	.	.	8gg/Jyy	8g\Jyy	.	.	.	.	.	.	.	8g/J	.	8gg\J	.	8gg\J	.
*Xrep	*	*	*	*	*	*	*	*	*	*	*	*	*	*	*	*	*	*	*	*	*	*	*	*	*	*	*	*	*	*	*	*	*	*	*	*	*
=58	=58	=58	=58	=58	=58	=58	=58	=58	=58	=58	=58	=58	=58	=58	=58	=58	=58	=58	=58	=58	=58	=58	=58	=58	=58	=58	=58	=58	=58	=58	=58	=58	=58	=58	=58	=58	=58
*rep	*	*rep	*	*tremolo	*	*	*	*	*	*	*	*	*	*rep	*	*	*	*	*	*	*	*	*	*	*	*	*	*	*	*	*	*	*	*	*	*	*
!	!	!	!	!	!	!	!	!	!	!	!	!	!	!	!	!	!	!	!	!	!	!	!	!	!	!	!	!	!	!	!	!LO:TX:t=P:problem:mixedbeam	!	!	!	!LO:TX:a:t=3.	!
4Ra/	.	8Ra/L	.	8GG/L	.	8r	.	8r	.	8GG\L	.	8GG\L	.	8r	.	8g/Lyy	8r	.	8r	.	8r	.	8gg/Lyy	8g\Lyy	.	8r	.	8r	.	8r	.	8g/L	.	8gg\L	.	8gg\L	.
.	.	16Ra/L	.	8GG/	.	8B\L	.	8f\L	.	8G\	.	8D\ 8F	.	8g/L 8gg	.	8aa-X/yy	8f\L	.	8b-X\L 8cc	.	8d/L 8a	.	8aaa-X/yy	8aa-X\yy	.	8f\L 8g	.	8d/L 8b	.	8f/L	.	8aa-X\	.	8aaa-X\	.	8aaa-X\	.
.	.	16Ra/J	.	.	.	.	.	.	.	.	.	.	.	.	.	.	.	.	.	.	.	.	.	.	.	.	.	.	.	.	.	.	.	.	.	.	.
8r	.	8Ra/J	.	8GG/J	.	8B\J	.	8f\J	.	8G\J	.	8D\J 8F	.	8g/J 8gg	.	8aa-/Jyy	8f\J	.	8b-\J 8cc	.	8d/J 8a	.	8aaa-/Jyy	8aa-\Jyy	.	8f\J 8g	.	8d/J 8b	.	8f/J	.	8aa-\J	.	8aaa-\J	.	8aaa-\J	.
*	*	*	*	*Xtremolo	*	*	*	*	*	*	*	*	*	*	*	*	*	*	*	*	*	*	*	*	*	*	*	*	*	*	*	*	*	*	*	*	*
4Ra/	.	4Ra/	.	4.GG/	.	4.B\	.	4.f\	.	4.G\	.	4.D\ 4.F	.	4.g/ 4.gg	.	8aa-/Lyy	4.f\	.	4.b-\ 4.cc	.	4.d/ 4.a	.	8aaa-/Lyy	8aa-\Lyy	.	4.f\ 4.g	.	4.d/ 4.b	.	4.f/	.	8aa-\L	.	8aaa-\L	.	8aaa-\L	.
.	.	.	.	.	.	.	.	.	.	.	.	.	.	.	.	8b/yy	.	.	.	.	.	.	8bb/yy	8b\yy	.	.	.	.	.	.	.	8b\	.	8bb\	.	8bb\	.
8r	.	8r	.	.	.	.	.	.	.	.	.	.	.	.	.	8b/Jyy	.	.	.	.	.	.	8bb/Jyy	8b\Jyy	.	.	.	.	.	.	.	8b\J	.	8bb\J	.	8bb\J	.
*Xrep	*	*Xrep	*	*	*	*	*	*	*	*	*	*	*	*Xrep	*	*	*	*	*	*	*	*	*	*	*	*	*	*	*	*	*	*	*	*	*	*	*
*	*	*	*	*	*	*	*	*	*	*	*	*	*	*	*	*v	*v	*	*	*	*	*	*v	*v	*	*	*	*	*	*	*	*	*	*	*	*	*
!!LO:PB:g=original
=59	=59	=59	=59	=59	=59	=59	=59	=59	=59	=59	=59	=59	=59	=59	=59	=59	=59	=59	=59	=59	=59	=59	=59	=59	=59	=59	=59	=59	=59	=59	=59	=59	=59	=59	=59
*	*	*	*	*	*	*	*	*	*	*	*	*^	*	*	*	*	*	*^	*	*	*	*	*	*	*	*	*	*	*	*	*	*	*	*	*
4Ra/	.	4Ra/	.	4C/	.	4c\	.	4e\	.	4C/	.	4E/	4C\	.	4g/ 4gg	.	4e/ 4cc	.	4cc/	4a\	.	4B/ 4g	.	4cc\ 4ccc	.	4e\ 4g	.	4e/ 4cc	.	4e/	.	4cc\	.	4ccc\	.	4ccc\	.
8r	.	8r	.	8r	.	8r	.	8r	.	8r	.	8r	2ryy	.	8r	.	8r	.	8r	2ryy	.	8r	.	8r	.	8r	.	8r	.	8r	.	8r	.	8r	.	8r	.
=!|:	=!|:	=!|:	=!|:	=!|:	=!|:	=!|:	=!|:	=!|:	=!|:	=!|:	=!|:	=!|:	=!|:	=!|:	=!|:	=!|:	=!|:	=!|:	=!|:	=!|:	=!|:	=!|:	=!|:	=!|:	=!|:	=!|:	=!|:	=!|:	=!|:	=!|:	=!|:	=!|:	=!|:	=!|:	=!|:	=!|:	=!|:
*>E	*	*>E	*	*>E	*	*>E	*	*>E	*	*>E	*	*>E	*	*>E	*	*>E	*	*>E	*	*>E	*	*>E	*	*>E	*	*>E	*	*>E	*	*>E	*	*>E	*	*>E	*	*>E	*
!	!	!	!	!	!	!	!	!	!	!	!	!	!	!	!	!	!	!	!	!	!	!	!	!	!	!	!	!	!	!	!	!	!	!	!	!	!LO:DY:rj
4r	.	4r	.	8GG#X/L	.	4r	.	4r	.	8GG#X/L	.	8G#X\L 8B	.	.	4r	.	8d/L 8b	.	4.r	.	.	8a\L 8b	.	8ee\L	.	8e\L 8b	.	8b\L 8dd	.	8dd\L	.	8ee\L	p	8ee\L	.	8ee\L	p
.	.	.	.	8r	.	.	.	.	.	8r	.	8r	.	.	.	.	8r	.	.	.	.	8r	.	8r	.	8r	.	8r	.	8r	.	8r	.	8r	.	8r	.
8r	.	8r	.	8GG#/J	.	8r	.	8r	.	8GG#/J	.	8G#\J 8B	.	.	8r	.	8d/J 8b	.	.	.	.	8a\J 8b	.	8ee\J	.	8e\J 8b	.	8b\J 8dd	.	8dd\J	.	8ee\J	.	8ee\J	.	8ee\J	.
*	*	*	*	*	*	*	*	*	*	*	*	*v	*v	*	*	*	*	*	*v	*v	*	*	*	*	*	*	*	*	*	*	*	*	*	*	*	*	*
=60	=60	=60	=60	=60	=60	=60	=60	=60	=60	=60	=60	=60	=60	=60	=60	=60	=60	=60	=60	=60	=60	=60	=60	=60	=60	=60	=60	=60	=60	=60	=60	=60	=60	=60	=60
2.r	.	2.r	.	4AA/	.	2.r	.	2.r	.	8AA/L	.	8A\L 8c	.	2.r	.	8c/ 8a	.	2.r	.	8g\L 8b	.	4ee\	.	8e\L 8a	.	8a/L 8cc	.	8cc\L	.	4ee\	.	4ee\	.	4ee\	.
.	.	.	.	.	.	.	.	.	.	8r	.	8r	.	.	.	8r	.	.	.	8r	.	.	.	8r	.	8r	.	8r	.	.	.	.	.	.	.
.	.	.	.	8r	.	.	.	.	.	8AA/J	.	8A\J 8c	.	.	.	8r	.	.	.	8g\J 8b	.	8ccc\	.	8e\J 8a	.	8a/J 8cc	.	8cc\J	.	8ccc\	.	8ccc\	.	8ccc\	.
.	.	.	.	4D\	.	.	.	.	.	8D\L	.	8A\L 8d	.	.	.	8r	.	.	.	8a\L 8cc	.	8ff\L	.	8f\L 8a	.	8f/L 8a	.	8dd\L	.	8ff\L	.	8ff\L	.	8ff\L	.
.	.	.	.	.	.	.	.	.	.	8r	.	8r	.	.	.	4r	.	.	.	8r	.	8gg\	.	8r	.	8r	.	8r	.	8gg\	.	8gg\	.	8gg\	.
.	.	.	.	8r	.	.	.	.	.	8D\J	.	8A\J 8d	.	.	.	.	.	.	.	8a\J 8cc	.	8ff\J	.	8f\J 8a	.	8f/J 8a	.	8dd\J	.	8ff\J	.	8ff\J	.	8ff\J	.
=61	=61	=61	=61	=61	=61	=61	=61	=61	=61	=61	=61	=61	=61	=61	=61	=61	=61	=61	=61	=61	=61	=61	=61	=61	=61	=61	=61	=61	=61	=61	=61	=61	=61	=61	=61
2.r	.	2.r	.	4AA/	.	4r	.	4r	.	8AA/L	.	8A\L 8c	.	2.r	.	2.r	.	2.r	.	8g\L 8b	.	8ee\L	.	8e\L 8a	.	8e/L 8a	.	8cc\L	.	8ee\L	.	8ee\L	.	8ee\L	.
.	.	.	.	.	.	.	.	.	.	8r	.	8r	.	.	.	.	.	.	.	8r	.	8r	.	8r	.	8r	.	8r	.	8r	.	8r	.	8r	.
.	.	.	.	8r	.	8r	.	8r	.	8AA/J	.	8A\J 8c	.	.	.	.	.	.	.	8g\J	.	8ee\J	.	8e\J 8a	.	8e/J 8a	.	8cc\J	.	8ee\J	.	8ee\J	.	8ee\J	.
*	*	*	*	*	*	*	*	*	*	*	*	*rep	*	*	*	*	*	*	*	*rep	*	*	*	*rep	*	*rep	*	*rep	*	*	*	*	*	*	*
.	.	.	.	4.C^</	.	4.A^<\	.	4.e^<\	.	8C/L	.	8A\L 8c	.	.	.	.	.	.	.	8g\L 8b	.	8aa\L	.	8e\L 8a	.	8e/L 8a	.	8cc\L	.	8aa\L	.	8aa\L	.	8aa\L	.
.	.	.	.	.	.	.	.	.	.	8r	.	8r	.	.	.	.	.	.	.	8r	.	8r	.	8r	.	8r	.	8r	.	8r	.	8r	.	8r	.
.	.	.	.	.	.	.	.	.	.	8C/J	.	8A\J 8c	.	.	.	.	.	.	.	8g\J 8b	.	8aa\J	.	8e\J 8a	.	8e/J 8a	.	8cc\J	.	8aa\J	.	8aa\J	.	8aa\J	.
*	*	*	*	*	*	*	*	*	*	*	*	*Xrep	*	*	*	*	*	*	*	*Xrep	*	*	*	*Xrep	*	*Xrep	*	*Xrep	*	*	*	*	*	*	*
=62	=62	=62	=62	=62	=62	=62	=62	=62	=62	=62	=62	=62	=62	=62	=62	=62	=62	=62	=62	=62	=62	=62	=62	=62	=62	=62	=62	=62	=62	=62	=62	=62	=62	=62	=62
!	!	!	!	!	!	!	!	!	!	!	!	!	!	!	!	!	!	!	!	!	!	!LO:TX:a:t=col clarinetto loco	!	!	!	!	!	!	!	!	!	!	!	!	!
2.r	.	2.r	.	4D\	.	2.r	.	2.r	.	8D\L	.	8F\L 8B	.	2.r	.	8b/L	.	2.r	.	8a\L 8cc	.	8bb\Lyy	.	8d\L 8f	.	8f/L 8b	.	8dd\L	.	8bb\L	.	8bb\L	.	8bb\L	.
.	.	.	.	.	.	.	.	.	.	8r	.	8r	.	.	.	8cc/	.	.	.	8r	.	8ccc\yy	.	8r	.	8r	.	8r	.	8ccc\	.	8ccc\	.	8ccc\	.
*	*	*	*	*	*	*	*	*	*	*	*	*	*	*	*	*^	*	*	*	*	*	*	*	*	*	*	*	*	*	*	*	*	*	*	*
.	.	.	.	8r	.	.	.	.	.	8D\J	.	8F\J 8B	.	.	.	8dd/J	2r	.	.	.	8a\J 8cc	.	8ddd\Jyy	.	8d\J 8f	.	8f/J 8b	.	8dd\J	.	8ddd\J	.	8ddd\J	.	8ddd\J	.
*	*	*	*	*	*	*	*	*	*	*	*	*	*	*	*	*	*	*	*	*	*	*	*	*	*	*	*	*	*rep	*	*	*	*	*	*	*
.	.	.	.	4E\	.	.	.	.	.	8E\L	.	8E\L 8G#X	.	.	.	4ee/	.	.	.	.	8a\L 8b	.	4eee\yy	.	8d\L 8g#X	.	8g#X/L 8b	.	8dd\L	.	4eee\	.	4eee\	.	4eee\	.
.	.	.	.	.	.	.	.	.	.	8r	.	8r	.	.	.	.	.	.	.	.	8r	.	.	.	8r	.	8r	.	8r	.	.	.	.	.	.	.
.	.	.	.	8r	.	.	.	.	.	8E\J	.	8E\J 8G#	.	.	.	8ee/	.	.	.	.	8a\J 8b	.	8eee\yy	.	8d\J 8g#	.	8g#/J 8b	.	8dd\J	.	8eee\	.	8eee\	.	8eee\	.
*	*	*	*	*	*	*	*	*	*	*	*	*	*	*	*	*	*	*	*	*	*	*	*	*	*	*	*	*	*Xrep	*	*	*	*	*	*	*
=63	=63	=63	=63	=63	=63	=63	=63	=63	=63	=63	=63	=63	=63	=63	=63	=63	=63	=63	=63	=63	=63	=63	=63	=63	=63	=63	=63	=63	=63	=63	=63	=63	=63	=63	=63	=63
2.r	.	2.r	.	4AA/	.	2.r	.	2.r	.	8AA/L	.	8E\L 8A	.	2.r	.	4cc/	4r	.	2.r	.	8g\L 8b	.	4ccc\yy	.	8c\L 8a	.	8e/L 8a	.	8cc\L	.	4ccc\	.	4ccc\	.	4ccc\	.
.	.	.	.	.	.	.	.	.	.	8r	.	8r	.	.	.	.	.	.	.	.	8r	.	.	.	8r	.	8r	.	8r	.	.	.	.	.	.	.
.	.	.	.	8r	.	.	.	.	.	8AA/J	.	8E\J 8A	.	.	.	8a/	8r	.	.	.	8g\J 8b	.	8aa\yy	.	8c\J 8a	.	8e/J 8a	.	8cc\J	.	8aa\	.	8aa\	.	8aa\	.
.	.	.	.	4GG#X/	.	.	.	.	.	8GG#X/L	.	8G#X\L 8B	.	.	.	8d/L 8b	8ryy	.	.	.	8a\L 8b	.	8ee\Lyy	.	8d\L 8g#X	.	8e/L 8b	.	8dd\L	.	8ee\L	.	8ee\L	.	8ee\L	.
.	.	.	.	.	.	.	.	.	.	8r	.	8r	.	.	.	8r	4ryy	.	.	.	8r	.	8ryy	.	8r	.	8r	.	8r	.	8r	.	8r	.	8r	.
.	.	.	.	8r	.	.	.	.	.	8GG#/J	.	8G#\J 8B	.	.	.	8d/J 8b	.	.	.	.	8a\J 8b	.	8ee\Jyy	.	8d\J 8g#	.	8e/J 8b	.	8dd\J	.	8ee\J	.	8ee\J	.	8ee\J	.
*	*	*	*	*	*	*	*	*	*	*	*	*	*	*	*	*v	*v	*	*	*	*	*	*	*	*	*	*	*	*	*	*	*	*	*	*	*
!!LO:PB:g=original
=64	=64	=64	=64	=64	=64	=64	=64	=64	=64	=64	=64	=64	=64	=64	=64	=64	=64	=64	=64	=64	=64	=64	=64	=64	=64	=64	=64	=64	=64	=64	=64	=64	=64	=64	=64
2.r	.	2.r	.	4AA/	.	2.r	.	2.r	.	8AA/L	.	8A\L 8c	.	2.r	.	8c/ 8a	.	2.r	.	8g\L 8b	.	4ee\yy	.	8c\L 8a	.	8e/L 8a	.	8cc\L	.	4ee\	.	4ee\	.	4ee\	.
.	.	.	.	.	.	.	.	.	.	8r	.	8r	.	.	.	8r	.	.	.	8r	.	.	.	8r	.	8r	.	8r	.	.	.	.	.	.	.
.	.	.	.	8r	.	.	.	.	.	8AA/J	.	8A\J 8c	.	.	.	8r	.	.	.	8g\J 8b	.	8ccc\yy	.	8c\J 8a	.	8e/J 8a	.	8cc\J	.	8ccc\	.	8ccc\	.	8ccc\	.
.	.	.	.	4D/	.	.	.	.	.	8D/L	.	8F\L 8B	.	.	.	4r	.	.	.	8a\L 8cc	.	8ff\Lyy	.	8d\L 8f	.	8f/L 8a	.	8dd\L	.	8ff\L	.	8ff\L	.	8ff\L	.
.	.	.	.	.	.	.	.	.	.	8r	.	8r	.	.	.	.	.	.	.	8r	.	8gg\yy	.	8r	.	8r	.	8r	.	8gg\	.	8gg\	.	8gg\	.
.	.	.	.	8r	.	.	.	.	.	8D/J	.	8F\J 8B	.	.	.	8r	.	.	.	8a\J 8cc	.	8ff\Jyy	.	8d\J 8f	.	8f/J 8a	.	8dd\J	.	8ff\J	.	8ff\J	.	8ff\J	.
=65	=65	=65	=65	=65	=65	=65	=65	=65	=65	=65	=65	=65	=65	=65	=65	=65	=65	=65	=65	=65	=65	=65	=65	=65	=65	=65	=65	=65	=65	=65	=65	=65	=65	=65	=65
2.r	.	2.r	.	4AA/	.	4r	.	4r	.	8AA/L	.	8A\L 8c	.	2.r	.	2.r	.	2.r	.	8g\L 8b	.	8ee\Lyy	.	8c\L 8e	.	8e/L 8a	.	8cc\L	.	8ee\L	.	8ee\L	.	8ee\L	.
.	.	.	.	.	.	.	.	.	.	8r	.	8r	.	.	.	.	.	.	.	8r	.	8ryy	.	8r	.	8r	.	8r	.	8r	.	8r	.	8r	.
.	.	.	.	8r	.	8r	.	8r	.	8AA/J	.	8A\J 8c	.	.	.	.	.	.	.	8g\J 8b	.	8ee\Jyy	.	8c\J 8e	.	8e/J 8a	.	8cc\J	.	8ee\J	.	8ee\J	.	8ee\J	.
*	*	*	*	*	*	*	*	*	*	*rep	*	*rep	*	*	*	*	*	*	*	*rep	*	*	*	*	*	*rep	*	*rep	*	*	*	*	*	*	*
.	.	.	.	4AA/	.	4.c\	.	4.e^<\	.	8AA/L	.	8A\L 8c	.	.	.	.	.	.	.	8g\L 8b	.	8aa\Lyy	.	8c\L 8a	.	8e/L 8a	.	8cc\L	.	8aa\L	.	8aa\L	.	8aa\L	.
.	.	.	.	.	.	.	.	.	.	8r	.	8r	.	.	.	.	.	.	.	8r	.	8ryy	.	8r	.	8r	.	8r	.	8r	.	8r	.	8r	.
.	.	.	.	8r	.	.	.	.	.	8AA/J	.	8A\J 8c	.	.	.	.	.	.	.	8g\J 8b	.	8aa\Jyy	.	8c\J 8a	.	8e/J 8a	.	8cc\J	.	8aa\J	.	8aa\J	.	8aa\J	.
*	*	*	*	*	*	*	*	*	*	*Xrep	*	*Xrep	*	*	*	*	*	*	*	*Xrep	*	*	*	*	*	*Xrep	*	*Xrep	*	*	*	*	*	*	*
=66	=66	=66	=66	=66	=66	=66	=66	=66	=66	=66	=66	=66	=66	=66	=66	=66	=66	=66	=66	=66	=66	=66	=66	=66	=66	=66	=66	=66	=66	=66	=66	=66	=66	=66	=66
2.r	.	2.r	.	4D\	.	2.r	.	2.r	.	8D\L	.	8B\L 8d	.	2.r	.	8b/L	.	2.r	.	8a\L 8cc	.	8bb\Lyy	.	8d\L 8f	.	8f/L 8b	.	8b\L	.	8bb\L	.	8bb\L	.	8bb\L	.
.	.	.	.	.	.	.	.	.	.	8r	.	8r	.	.	.	8cc/	.	.	.	8r	.	8ccc\yy	.	8r	.	8r	.	8r	.	8ccc\	.	8ccc\	.	8ccc\	.
*	*	*	*	*	*	*	*	*	*	*	*	*	*	*	*	*^	*	*	*	*	*	*	*	*	*	*	*	*	*	*	*	*	*	*	*
.	.	.	.	8r	.	.	.	.	.	8D\J	.	8B\J 8d	.	.	.	8dd/J	2r	.	.	.	8a\J 8cc	.	8ddd\Jyy	.	8d\J 8f	.	8f/J 8b	.	8b\J	.	8ddd\J	.	8ddd\J	.	8ddd\J	.
.	.	.	.	4E\	.	.	.	.	.	8E\L	.	8G#X\L 8d	.	.	.	8ee/L	.	.	.	.	8a\L 8b	.	8eee\Lyy	.	8d\L 8g#X	.	8g#X/L 8b	.	8dd\L	.	8eee\L	.	8eee\L	.	8eee\L	.
.	.	.	.	.	.	.	.	.	.	8r	.	8r	.	.	.	8b/	.	.	.	.	8r	.	8bb\yy	.	8r	.	8r	.	8r	.	8bb\	.	8bb\	.	8bb\	.
.	.	.	.	8r	.	.	.	.	.	8E\J	.	8G#\J 8d	.	.	.	8cc/J	.	.	.	.	8a\J 8b	.	8ccc\Jyy	.	8d\J 8g#	.	8g#/J 8b	.	8dd\J	.	8ccc\J	.	8ccc\J	.	8ccc\J	.
=67	=67	=67	=67	=67	=67	=67	=67	=67	=67	=67	=67	=67	=67	=67	=67	=67	=67	=67	=67	=67	=67	=67	=67	=67	=67	=67	=67	=67	=67	=67	=67	=67	=67	=67	=67	=67
*	*	*	*	*	*	*	*	*	*	*	*	*	*	*	*	*	*	*	*^	*	*	*	*	*	*^	*	*^	*	*	*	*	*	*	*	*	*
4r	.	4r	.	4AA/	.	4r	.	4r	.	4AA/	.	4A\ 4c	.	4r	.	4a/	4r	.	4r	4.cc\yy	.	4g\ 4b	.	4a\ 4aa	.	4c\ 4a	4.ryy	.	4cc/	4a\	.	4cc\	.	4aa\	.	4aa\	.	4aa\	.
8r	.	8r	.	8r	.	8r	.	8r	.	8r	.	8r	.	8r	.	8r	8r	.	8r	.	.	8r	.	8r	.	8r	.	.	8r	8ryy	.	8r	.	8r	.	8r	.	8r	.
4Ra/	.	4.RaTT^>/	.	4.GG^</	.	4.B^<\	.	4.f^<\	.	4.G^<\	.	4.BB^/ 4.Fn	.	4.g/ 4.ee	.	4.b^</	4.f\	.	4.cc^</	4.b-\	.	4.d^</ 4.a	.	4.ff^\ 4.bb	.	4.f/	4.d\	.	4.b^</	4.gn\	.	4.fn^/	.	4.b^<\	.	4.gg^<\	.	4.bb^<\	.
8r	.	.	.	.	.	.	.	.	.	.	.	.	.	.	.	.	.	.	.	.	.	.	.	.	.	.	.	.	.	.	.	.	.	.	.	.	.	.	.
*	*	*	*	*	*	*	*	*	*	*	*	*	*	*	*	*v	*v	*	*	*	*	*	*	*	*	*	*	*	*v	*v	*	*	*	*	*	*	*	*	*
*	*	*	*	*	*	*	*	*	*	*	*	*	*	*	*	*	*	*v	*v	*	*	*	*	*	*	*	*	*	*	*	*	*	*	*	*	*	*
=68	=68	=68	=68	=68	=68	=68	=68	=68	=68	=68	=68	=68	=68	=68	=68	=68	=68	=68	=68	=68	=68	=68	=68	=68	=68	=68	=68	=68	=68	=68	=68	=68	=68	=68	=68	=68
.	.	.	.	.	.	.	.	.	.	.	.	.	.	.	.	.	.	.	.	.	.	16qqccc/LLyy	py	.	.	.	.	.	.	.	16qqcc/LL	p	.	.	(16qqccc/LL	.
!	!	!	!	!	!	!	!	!	!	!	!	!	!	!	!	!	!	!	!	!	!	!LO:TX:a:t=col Clarinetto 8va	!	!	!	!	!	!	!	!	!	!	!	!	!	!
.	.	.	.	.	.	.	.	.	.	.	.	.	.	.	.	.	.	.	.	.	.	16qqddd/JJyy	.	.	.	.	.	.	.	.	16qqdd/JJ	.	.	.	16qqddd/JJ)	.
!	!	!	!	!	!LO:DY:rj	!	!	!	!	!	!	!	!	!	!	!	!	!	!LO:DY:rj	!	!	!	!	!	!	!	!	!	!	!LO:DY:rj	!	!	!	!	!	!
2.r	.	8Ra/	.	8C/	p	2.r	.	2.r	.	8C/	.	8E\ 8G	.	2.r	.	8ee/L	p	8a\ 8cc	p	8B/ 8g	.	8eee\Lyy	.	8e/	8c\	.	8g/ 8cc	.	8e/	p	8ee\L	.	8gg\	.	8eee\L	.
.	.	8r	.	8r	.	.	.	.	.	8r	.	8r	.	.	.	8dd/	.	8r	.	8r	.	8ddd\yy	.	8r	8ryy	.	8r	.	8r	.	8dd\	.	8r	.	8ddd\	.
*	*	*	*	*	*	*	*	*	*	*	*	*	*	*	*	*^	*	*	*	*	*	*	*	*	*	*	*	*	*	*	*	*	*	*	*	*
.	.	8r	.	8r	.	.	.	.	.	8r	.	8r	.	.	.	8b/J	2r	.	8r	.	8r	.	8bb\Jyy	.	8r	2ryy	.	8r	.	8r	.	8b\J	.	8r	.	8bb\J	.
.	.	8Ra/	.	8C/	.	.	.	.	.	8C/	.	8F\ 8A	.	.	.	8dd/L	.	.	8b-X\ 8dd	.	8G/ 8e	.	8ddd\Lyy	.	8c\ 8f	.	.	8f/ 8a	.	8a/	.	8dd\L	.	8aa\	.	8ddd\L	.
.	.	8r	.	8r	.	.	.	.	.	8r	.	8r	.	.	.	8cc/	.	.	8r	.	8r	.	8ccc\yy	.	8r	.	.	8r	.	8r	.	8cc\	.	8r	.	8ccc\	.
.	.	8r	.	8r	.	.	.	.	.	8r	.	8r	.	.	.	8a/J	.	.	8r	.	8r	.	8aa\Jyy	.	8r	.	.	8r	.	8r	.	8a\J	.	8r	.	8aa\J	.
*	*	*	*	*	*	*	*	*	*	*	*	*	*	*	*	*v	*v	*	*	*	*	*	*	*	*v	*v	*	*	*	*	*	*	*	*	*	*	*
=69	=69	=69	=69	=69	=69	=69	=69	=69	=69	=69	=69	=69	=69	=69	=69	=69	=69	=69	=69	=69	=69	=69	=69	=69	=69	=69	=69	=69	=69	=69	=69	=69	=69	=69	=69
*	*	*rep	*	*rep	*	*	*	*	*	*rep	*	*	*	*	*	*	*	*	*	*	*	*	*	*	*	*	*	*	*	*	*	*	*	*	*
!	!	!	!	!	!	!	!	!	!	!	!	!	!	!	!	!LO:TX:t=P:problem:mixedbeam	!	!	!	!	!	!	!	!	!	!	!	!	!	!	!	!	!	!	!
2.r	.	8Ra/	.	8C/	.	2.r	.	2.r	.	8C/	.	8E\ 8G	.	2.r	.	8g/L	.	8a\ 8cc	.	8B/ 8g	.	8gg\Lyy	.	8c\ 8e	.	8e/ 8g	.	8g/	.	8g\L	.	8r	.	8gg\L	.
.	.	8r	.	8r	.	.	.	.	.	8r	.	8r	.	.	.	8gg\	.	8r	.	8r	.	8ggg\yy	.	8r	.	8r	.	8r	.	8gg\	.	8gg\L	.	8ggg\	.
*	*	*	*	*	*	*	*	*	*	*	*	*	*	*	*	*^	*	*	*	*	*	*	*	*	*	*	*	*	*	*	*	*	*	*	*
.	.	8r	.	8r	.	.	.	.	.	8r	.	8r	.	.	.	8gg\J	2r	.	8r	.	8r	.	8ggg\Jyy	.	8r	.	8r	.	8r	.	8gg\J	.	8gg\J	.	8ggg\J	.
!	!	!	!	!	!	!	!	!	!	!	!	!	!	!	!	!LO:TX:t=P:problem:mixedbeam	!	!	!	!	!	!	!	!	!	!	!	!	!	!	!LO:TX:t=P:problem:mixedbeam	!	!	!	!	!
.	.	8Ra/	.	8C/	.	.	.	.	.	8C/	.	8E\ 8G	.	.	.	8gg\L	.	.	8a\ 8cc	.	8B/ 8g	.	8ggg\Lyy	.	8c\ 8e	.	8e/ 8g	.	8e/	.	8gg\L	.	4gg\	.	8ggg\L	.
.	.	8r	.	8r	.	.	.	.	.	8r	.	8r	.	.	.	8g/	.	.	8r	.	8r	.	8gg\yy	.	8r	.	8r	.	8r	.	8g/	.	.	.	8gg\	.
.	.	8r	.	8r	.	.	.	.	.	8r	.	8r	.	.	.	8g/J	.	.	8r	.	8r	.	8gg\Jyy	.	8r	.	8r	.	8r	.	8g/J	.	8r	.	8gg\J	.
*	*	*Xrep	*	*Xrep	*	*	*	*	*	*Xrep	*	*	*	*	*	*	*	*	*	*	*	*	*	*	*	*	*	*	*	*	*	*	*	*	*	*
*	*	*	*	*	*	*	*	*	*	*	*	*	*	*	*	*v	*v	*	*	*	*	*	*	*	*	*	*	*	*	*	*	*	*	*	*	*
=70	=70	=70	=70	=70	=70	=70	=70	=70	=70	=70	=70	=70	=70	=70	=70	=70	=70	=70	=70	=70	=70	=70	=70	=70	=70	=70	=70	=70	=70	=70	=70	=70	=70	=70	=70
!	!	!	!LO:DY:rj	!	!	!	!	!	!	!	!	!	!	!	!	!	!	!	!	!	!	!	!	!	!	!	!	!	!	!	!	!	!	!	!
2.r	.	8Ra/	p	8G\	.	2.r	.	2.r	.	8G\	.	8F\ 8B	.	2.r	.	8g/L	.	8b-X\ 8cc	.	8d/ 8a	.	8gg\Lyy	.	8B/ 8f	.	8d/ 8g	.	8f/	.	8g\L	.	8r	.	8gg\L	.
.	.	8r	.	8r	.	.	.	.	.	8r	.	8r	.	.	.	8aa-X/	.	8r	.	8r	.	8aaa-X\yy	.	8r	.	8r	.	8r	.	8aa-X\	.	8aa-X\L	.	8aaa-X\	.
*	*	*	*	*	*	*	*	*	*	*	*	*	*	*	*	*^	*	*	*	*	*	*	*	*	*	*	*	*	*	*	*	*	*	*	*
.	.	8r	.	8r	.	.	.	.	.	8r	.	8r	.	.	.	8aa-/J	2r	.	8r	.	8r	.	8aaa-\Jyy	.	8r	.	8r	.	8r	.	8aa-\J	.	8aa-\J	.	8aaa-\J	.
.	.	8Ra/	.	8G\	.	.	.	.	.	8G\	.	8F\ 8B	.	.	.	8aa-/L	.	.	8b-\ 8cc	.	8d/ 8a	.	8aaa-\Lyy	.	8B/ 8f	.	8d/ 8g	.	8f/	.	8aa-\L	.	4aa-\	.	8aaa-\L	.
.	.	8r	.	8r	.	.	.	.	.	8r	.	8r	.	.	.	8b/	.	.	8r	.	8r	.	8bb\yy	.	8r	.	8r	.	8r	.	8b\	.	.	.	8bb\	.
.	.	8r	.	8r	.	.	.	.	.	8r	.	8r	.	.	.	8b/J	.	.	8r	.	8r	.	8bb\Jyy	.	8r	.	8r	.	8r	.	8b\J	.	8r	.	8bb\J	.
*	*	*	*	*	*	*	*	*	*	*	*	*	*	*	*	*v	*v	*	*	*	*	*	*	*	*	*	*	*	*	*	*	*	*	*	*	*
=71	=71	=71	=71	=71	=71	=71	=71	=71	=71	=71	=71	=71	=71	=71	=71	=71	=71	=71	=71	=71	=71	=71	=71	=71	=71	=71	=71	=71	=71	=71	=71	=71	=71	=71	=71
2.r	.	4Ra/	.	4C/	.	2.r	.	2.r	.	4C/	.	4E\ 4c	.	2.r	.	8cc/L	.	4a\ 4cc	.	4B/ 4g	.	8ccc\Lyy	.	4c/ 4e	.	4e/ 4g	.	4e/	.	8cc/L	.	8r	.	8ccc\L	.
.	.	.	.	.	.	.	.	.	.	.	.	.	.	.	.	8g/	.	.	.	.	.	8gg\yy	.	.	.	.	.	.	.	8g/	.	8gg\L	.	8gg\	.
*	*	*	*	*	*	*	*	*	*	*	*	*	*	*	*	*^	*	*	*	*	*	*	*	*	*	*	*	*	*	*	*	*	*	*	*
.	.	8r	.	8r	.	.	.	.	.	8r	.	8r	.	.	.	8a/J	2r	.	8r	.	8r	.	8aa\Jyy	.	8r	.	8r	.	8r	.	8a/J	.	8aa\J	.	8aa\J	.
.	.	4r	.	4r	.	.	.	.	.	4r	.	4r	.	.	.	8b/L	.	.	4r	.	4r	.	8bb\Lyy	.	4r	.	4r	.	4r	.	8b\L	.	8bb\L	.	8bb\L	.
.	.	.	.	.	.	.	.	.	.	.	.	.	.	.	.	8cc/	.	.	.	.	.	.	8ccc\yy	.	.	.	.	.	.	.	8cc\	.	8ccc\	.	8ccc\	.
.	.	8r	.	8r	.	.	.	.	.	8r	.	8r	.	.	.	8dd/J	.	.	8r	.	8r	.	8ddd\Jyy	.	8r	.	8r	.	8r	.	8dd\J	.	8ddd\J	.	8ddd\J	.
*	*	*	*	*	*	*	*	*	*	*	*	*	*	*	*	*v	*v	*	*	*	*	*	*	*	*	*	*	*	*	*	*	*	*	*	*	*
=72	=72	=72	=72	=72	=72	=72	=72	=72	=72	=72	=72	=72	=72	=72	=72	=72	=72	=72	=72	=72	=72	=72	=72	=72	=72	=72	=72	=72	=72	=72	=72	=72	=72	=72	=72
*	*	*	*	*	*	*	*	*	*	*	*	*	*	*	*	*	*	*	*	*	*	*^	*	*	*	*	*	*	*	*	*	*	*	*	*
.	.	.	.	.	.	.	.	.	.	.	.	.	.	.	.	16qqcc/LLyy	.	.	.	.	.	(16qqccc/LLyy	(16qqcc\LLyy	py	.	.	.	.	.	.	16qqcc/LLyy	.	16qqccc/LLyy	.	(16qqccc/LL	f
.	.	.	.	.	.	.	.	.	.	.	.	.	.	.	.	16qqdd/JJyy	.	.	.	.	.	16qqddd/JJ)yy	16qqdd\JJ)yy	.	.	.	.	.	.	.	16qqdd/JJyy	.	16qqddd/JJyy	.	16qqddd/JJ	.
4Ra/yy	.	8Ra/Lyy	.	4C/yy	.	8ryy	.	8ryy	.	4C/	.	8C\Lyy	.	2.r	.	8ee/Lyy	.	8ryy	.	8ryy	.	8eee/Lyy	8ee\Lyy	.	8e/yy 8cyy	.	8ryy	.	8ryy	.	8ee\Lyy	.	8eee\Lyy	.	8eee\L)	.
.	.	16Ra/Lyy	.	.	.	8e\Lyy	.	8g\Lyy	.	.	.	8E\yy 8Gyy	.	.	.	8dd/yy	.	8a\Lyy 8ccyy	.	8B/Lyy 8gyy	.	8ddd/yy	8dd\yy	.	8ryy	.	8e/Lyy 8gyy	.	8g/Lyy	.	8dd\yy	.	8ddd\yy	.	8ddd\	.
.	.	16Ra/Jyy	.	.	.	.	.	.	.	.	.	.	.	.	.	.	.	.	.	.	.	.	.	.	.	.	.	.	.	.	.	.	.	.	.	.
*	*	*	*	*	*	*	*	*	*	*	*	*	*	*	*	*^	*	*	*	*	*	*	*	*	*	*	*	*	*	*	*	*	*	*	*	*
8ryy	.	8Ra/Jyy	.	8ryy	.	8e\Jyy	.	8g\Jyy	.	8r	.	8E\Jyy 8Gyy	.	.	.	8b/Jyy	2ryy	.	8a\Jyy 8ccyy	.	8B/Jyy 8gyy	.	8bb/Jyy	8b\Jyy	.	8ryy	.	8e/Jyy 8gyy	.	8g/Jyy	.	8b\Jyy	.	8bb\Jyy	.	8bb\J	.
*	*	*rep	*	*	*	*	*	*	*	*	*	*	*	*	*	*	*	*	*	*	*	*	*	*	*	*	*	*	*	*	*	*	*	*	*	*	*
!	!	!	!	!	!	!	!	!	!	!	!	!	!	!	!	!	!	!	!	!	!	!	!	!	!	!	!	!	!	!	!	!	!	!	!	!LO:TX:a:t=1.	!
4Ra/yy	.	8Ra/Lyy	.	4C/yy	.	8ryy	.	8ryy	.	4C/	.	8C\Lyy	.	.	.	8dd/Lyy	.	.	8ryy	.	8ryy	.	8ddd/Lyy	8dd\Lyy	.	8c\yy 8fyy	.	8ryy	.	8ryy	.	8dd\Lyy	.	8ddd\Lyy	.	8ddd\L	.
.	.	16Ra/Lyy	.	.	.	8f\Lyy	.	8a\Lyy	.	.	.	8F\yy 8Ayy	.	.	.	8cc/yy	.	.	8b-X\Lyy 8ddyy	.	8G/Lyy 8gyy	.	8ccc/yy	8cc\yy	.	8ryy	.	8f/Lyy 8ayy	.	8f/Lyy	.	8cc\yy	.	8ccc\yy	.	8ccc\	.
.	.	16Ra/Jyy	.	.	.	.	.	.	.	.	.	.	.	.	.	.	.	.	.	.	.	.	.	.	.	.	.	.	.	.	.	.	.	.	.	.	.
8ryy	.	8Ra/Jyy	.	8ryy	.	8f\Jyy	.	8a\Jyy	.	8r	.	8F\Jyy 8Ayy	.	.	.	8a/Jyy	.	.	8b-\Jyy 8ddyy	.	8G/Jyy 8gyy	.	8aa/Jyy	8a\Jyy	.	8ryy	.	8f/Jyy 8ayy	.	8f/Jyy	.	8a\Jyy	.	8aa\Jyy	.	8aa\J	.
*	*	*Xrep	*	*	*	*	*	*	*	*	*	*	*	*	*	*	*	*	*	*	*	*	*	*	*	*	*	*	*	*	*	*	*	*	*	*	*
*	*	*	*	*	*	*	*	*	*	*	*	*	*	*	*	*v	*v	*	*	*	*	*	*	*	*	*	*	*	*	*	*	*	*	*	*	*	*
=73	=73	=73	=73	=73	=73	=73	=73	=73	=73	=73	=73	=73	=73	=73	=73	=73	=73	=73	=73	=73	=73	=73	=73	=73	=73	=73	=73	=73	=73	=73	=73	=73	=73	=73	=73	=73
*rep	*	*	*	*tremolo	*	*	*	*	*	*	*	*	*	*	*	*	*	*	*	*	*	*	*	*	*	*	*	*	*	*	*	*	*	*	*	*
4Ra/yy	.	8Ra/Lyy	.	8C/Lyy	.	8ryy	.	8ryy	.	8CC/L	.	8C\Lyy	.	2.r	.	8g/Lyy	.	8ryy	.	8ryy	.	8gg/Lyy	8g\Lyy	.	8c\yy 8eyy	.	8ryy	.	8ryy	.	8g\Lyy	.	8gg\Lyy	.	8gg\L	.
.	.	16Ra/Lyy	.	8C/yy	.	8e\Lyy	.	8g\Lyy	.	8C/	.	8E\yy 8Gyy	.	.	.	8gg/yy	.	8a\Lyy 8ccyy	.	8B/Lyy 8gyy	.	8ggg/yy	8gg\yy	.	8ryy	.	8e/Lyy 8gyy	.	8e/Lyy	.	8gg\yy	.	8ggg\yy	.	8ggg\	.
.	.	16Ra/Jyy	.	.	.	.	.	.	.	.	.	.	.	.	.	.	.	.	.	.	.	.	.	.	.	.	.	.	.	.	.	.	.	.	.	.
*	*	*	*	*	*	*	*	*	*	*	*	*	*	*	*	*^	*	*	*	*	*	*	*	*	*	*	*	*	*	*	*	*	*	*	*	*
8ryy	.	8Ra/Jyy	.	8C/Jyy	.	8e\Jyy	.	8g\Jyy	.	8C/J	.	8E\Jyy 8Gyy	.	.	.	8gg/Jyy	2ryy	.	8a\Jyy 8ccyy	.	8B/Jyy 8gyy	.	8ggg/Jyy	8gg\Jyy	.	8ryy	.	8e/Jyy 8gyy	.	8e/Jyy	.	8gg\Jyy	.	8ggg\Jyy	.	8ggg\J	.
*	*	*	*	*Xtremolo	*	*	*	*	*	*	*	*	*	*	*	*	*	*	*	*	*	*	*	*	*	*	*	*	*	*	*	*	*	*	*	*	*
!	!	!	!	!LO:N:vis=4	!	!	!	!	!	!	!	!	!	!	!	!	!	!	!	!	!	!	!	!	!	!	!	!	!	!	!	!LO:TX:t=P:problem:mixedbeam	!	!	!	!LO:TX:a:t=2.	!
4Ra/yy	.	4Ra/yy	.	4.C/yy	.	4.e\yy	.	4.g\yy	.	4.C/	.	4.E\yy 4.Gyy	.	.	.	8gg/Lyy	.	.	4.a\yy 4.ccyy	.	4.B/yy 8gyy	.	8ggg/Lyy	8gg\Lyy	.	8c\yy 8eyy	.	4.e/yy 8gyy	.	4.e/yy	.	8gg\Lyy	.	8ggg\Lyy	.	8ggg\L	.
.	.	.	.	.	.	.	.	.	.	.	.	.	.	.	.	8g/yy	.	.	.	.	.	.	8gg/yy	8g\yy	.	8ryy	.	.	.	.	.	8g/yy	.	8gg\yy	.	8gg\	.
8ryy	.	8ryy	.	.	.	.	.	.	.	.	.	.	.	.	.	8g/Jyy	.	.	.	.	.	.	8gg/Jyy	8g\Jyy	.	8ryy	.	.	.	.	.	8g/Jyy	.	8gg\Jyy	.	8gg\J	.
*Xrep	*	*	*	*	*	*	*	*	*	*	*	*	*	*	*	*	*	*	*	*	*	*	*	*	*	*	*	*	*	*	*	*	*	*	*	*	*
*	*	*	*	*	*	*	*	*	*	*	*	*	*	*	*	*v	*v	*	*	*	*	*	*	*	*	*	*	*	*	*	*	*	*	*	*	*	*
=74	=74	=74	=74	=74	=74	=74	=74	=74	=74	=74	=74	=74	=74	=74	=74	=74	=74	=74	=74	=74	=74	=74	=74	=74	=74	=74	=74	=74	=74	=74	=74	=74	=74	=74	=74	=74
*rep	*	*rep	*	*tremolo	*	*	*	*	*	*	*	*	*	*	*	*	*	*	*	*	*	*	*	*	*	*	*	*	*	*	*	*	*	*	*	*
!	!	!	!	!	!	!	!	!	!	!	!	!	!	!	!	!	!	!	!	!	!	!	!	!	!	!	!	!	!	!	!LO:TX:t=P:problem:mixedbeam	!	!	!	!	!
4Ra/yy	.	8Ra/Lyy	.	8GG/Lyy	.	8ryy	.	8ryy	.	8GG\L	.	8GG\Lyy	.	2.r	.	8g/Lyy	.	8ryy	.	8ryy	.	8gg/Lyy	8g\Lyy	.	8B/yy 8fyy	.	8ryy	.	8ryy	.	8g/Lyy	.	8gg\Lyyy	.	8gg\L	.
.	.	16Ra/Lyy	.	8GG/yy	.	8B\Lyy	.	8f\Lyy	.	8G\	.	8D\yy 8Fyy	.	.	.	8aa-X/yy	.	8b-X\Lyy 8ccyy	.	8d/Lyy 8ayy	.	8aaa-X/yy	8aa-X\yy	.	8ryy	.	8d/Lyy 8byy	.	8f/Lyy	.	8aa-X\yy	.	8aaa-X\yy	.	8aaa-X\	.
.	.	16Ra/Jyy	.	.	.	.	.	.	.	.	.	.	.	.	.	.	.	.	.	.	.	.	.	.	.	.	.	.	.	.	.	.	.	.	.	.
*	*	*	*	*	*	*	*	*	*	*	*	*	*	*	*	*^	*	*	*	*	*	*	*	*	*	*	*	*	*	*	*	*	*	*	*	*
!	!	!	!	!	!	!	!	!	!	!	!	!	!	!	!	!	!	!	!	!	!	!	!	!	!	!	!	!	!	!	!	!	!	!	!	!LO:TX:a:t=3	!
8ryy	.	8Ra/Jyy	.	8GG/Jyy	.	8B\Jyy	.	8f\Jyy	.	8G\J	.	8D\Jyy 8Fyy	.	.	.	8aa-/Jyy	2ryy	.	8b-X\Jyy 8ccyy	.	8d/Jyy 8ayy	.	8aaa-/Jyy	8aa-\Jyy	.	8ryy	.	8d/Jyy 8byy	.	8f/Jyy	.	8aa-\Jyy	.	8aaa-\Jyy	.	8aaa-\J	.
*	*	*	*	*Xtremolo	*	*	*	*	*	*	*	*	*	*	*	*	*	*	*	*	*	*	*	*	*	*	*	*	*	*	*	*	*	*	*	*	*
4Ra/yy	.	4Ra/yy	.	4.GG/yy	.	4.B\yy	.	4.f\yy	.	4.G\	.	4.D\yy 4.Fyy	.	.	.	8aa-/Lyy	.	.	4.b-\yy 4.ccyy	.	4.d/yy 8ayy	.	8aaa-/Lyy	8aa-\Lyy	.	8B/yy 8fyy	.	4.d/yy 8byy	.	4.f/yy	.	8aa-\Lyy	.	8aaa-\Lyy	.	8aaa-\L	.
.	.	.	.	.	.	.	.	.	.	.	.	.	.	.	.	8b/yy	.	.	.	.	.	.	8bb/yy	8b\yy	.	8ryy	.	.	.	.	.	8b\yy	.	8bb\yy	.	8bb\	.
8ryy	.	8ryy	.	.	.	.	.	.	.	.	.	.	.	.	.	8b/Jyy	.	.	.	.	.	.	8bb/Jyy	8b\Jyy	.	8ryy	.	.	.	.	.	8b\Jyy	.	8bb\Jyy	.	8bb\J	.
*Xrep	*	*Xrep	*	*	*	*	*	*	*	*	*	*	*	*	*	*	*	*	*	*	*	*	*	*	*	*	*	*	*	*	*	*	*	*	*	*	*
*	*	*	*	*	*	*	*	*	*	*	*	*	*	*	*	*v	*v	*	*	*	*	*	*v	*v	*	*	*	*	*	*	*	*	*	*	*	*	*
=75	=75	=75	=75	=75	=75	=75	=75	=75	=75	=75	=75	=75	=75	=75	=75	=75	=75	=75	=75	=75	=75	=75	=75	=75	=75	=75	=75	=75	=75	=75	=75	=75	=75	=75	=75
*	*	*	*	*	*	*	*	*	*	*	*	*^	*	*	*	*	*	*^	*	*	*	*	*	*	*	*	*	*	*	*	*	*	*	*	*
!LO:TX:a:t=1a.	!	!	!	!	!	!	!	!	!	!	!	!	!	!	!	!	!	!	!	!	!	!	!	!	!	!	!	!	!	!	!	!	!	!	!	!	!
*>E1	*	*>E1	*	*>E1	*	*>E1	*	*>E1	*	*>E1	*	*>E1	*>E1	*	*>E1	*	*>E1	*	*>E1	*>E1	*	*>E1	*	*>E1	*>E1	*	*>E1	*	*>E1	*	*>E1	*	*>E1	*	*>E1	*	*
4Ra/	.	4Ra/	.	4C/	.	4c\	.	4e\	.	4C/	.	4E/	4C\	.	4g/ 4gg	.	4e/ 4cc	.	4cc/	4a\	.	4B/ 4g	.	4cc\Lyy 4cccyy	.	4e\ 4g	.	4e/ 4cc	.	4e/	.	4cc\	.	4ccc\yy	.	4ccc\	.
.	.	.	.	.	.	.	.	.	.	.	.	.	.	.	.	.	.	.	.	.	.	.	.	.	.	.	.	.	.	.	.	.	.	.	.	.	.
8r	.	8r	.	8r	.	8r	.	8r	.	8r	.	8r	8ryy	.	8r	.	8r	.	8r	8ryy	.	8r	.	8ryy	.	8r	.	8r	.	8r	.	8r	.	8ryy	.	8r	.
*	*	*	*	*	*	*	*	*	*	*	*	*v	*v	*	*	*	*	*	*v	*v	*	*	*	*	*	*	*	*	*	*	*	*	*	*	*	*	*
!!LO:PB:g=original
=76:|!	=76:|!	=76:|!	=76:|!	=76:|!	=76:|!	=76:|!	=76:|!	=76:|!	=76:|!	=76:|!	=76:|!	=76:|!	=76:|!	=76:|!	=76:|!	=76:|!	=76:|!	=76:|!	=76:|!	=76:|!	=76:|!	=76:|!	=76:|!	=76:|!	=76:|!	=76:|!	=76:|!	=76:|!	=76:|!	=76:|!	=76:|!	=76:|!	=76:|!	=76:|!	=76:|!
!LO:TX:a:t=2a.	!	!	!	!	!	!	!	!	!	!	!	!	!	!	!	!	!	!	!	!	!	!	!	!	!	!	!	!LO:TX:t=P:problem:mixedbeam	!	!	!	!	!	!	!
*>E2	*	*>E2	*	*>E2	*	*>E2	*	*>E2	*	*>E2	*	*>E2	*	*>E2	*	*>E2	*	*>E2	*	*>E2	*	*>E2	*	*>E2	*	*>E2	*	*>E2	*	*>E2	*	*>E2	*	*>E2	*
*	*	*tremolo	*	*	*	*tremolo	*	*tremolo	*	*	*	*tremolo	*	*tremolo	*	*	*	*tremolo	*	*tremolo	*	*	*	*tremolo	*	*tremolo	*	*	*	*	*	*	*	*	*
4Ra/	.	8Ra/L	.	8C\L	.	8c\L	.	8e\L	.	8C\L	.	8C\L 8E	.	8g/L 8gg	.	8e/L 8cc	.	8c/L 8cc	.	8B/L 8g	.	8ee\L 8ccc	.	8e\L 8g	.	8e/L 8cc	.	8e/L	.	8cc\L	.	8ccc\L	.	8ccc\L	.
.	.	8Ra/	.	8G\	.	8c\	.	8e\	.	8G\	.	8C\ 8E	.	8g/ 8gg	.	8g/	.	8c/ 8cc	.	8B/ 8g	.	8ee\ 8eee	.	8e\ 8g	.	8e/ 8cc	.	8gg\	.	8ee\	.	8ee\	.	8ee\	.
8Ra/	.	8Ra/J	.	8E\J	.	8c\J	.	8e\J	.	8E\J	.	8C\J 8E	.	8g/J 8gg	.	8e/J	.	8c/J 8cc	.	8B/J 8g	.	8ee\J 8ggg	.	8e\J 8g	.	8e/J 8cc	.	8gg\J	.	8gg\J	.	8gg\J	.	8gg\J	.
*	*	*Xtremolo	*	*	*	*Xtremolo	*	*Xtremolo	*	*	*	*Xtremolo	*	*Xtremolo	*	*	*	*Xtremolo	*	*Xtremolo	*	*	*	*Xtremolo	*	*Xtremolo	*	*	*	*	*	*	*	*	*
!	!	!	!	!	!	!	!	!	!	!	!	!	!	!	!	!	!	!	!	!	!	!	!	!	!	!	!	!	!	!	!	!	!	!LO:TX:a:t=Marche da capo al fine	!
4Ra/	.	4Ra/	.	4C/	.	4c\	.	4e\	.	4C\	.	4C\ 4E	.	4g/ 4gg	.	4c/	.	4c/ 4cc	.	4B/ 4g	.	4ee\ 4ccc	.	4e\ 4g	.	4e/ 4cc	.	4gg\	.	4ccc\	.	4ccc\	.	4ccc\	.
!!LO:PB:g=original
==	==	==	==	==	==	==	==	==	==	==	==	==	==	==	==	==	==	==	==	==	==	==	==	==	==	==	==	==	==	==	==	==	==	==	==
*-	*-	*-	*-	*-	*-	*-	*-	*-	*-	*-	*-	*-	*-	*-	*-	*-	*-	*-	*-	*-	*-	*-	*-	*-	*-	*-	*-	*-	*-	*-	*-	*-	*-	*-	*-
!!!system-decoration: s1,s2{(g1)}s5,s6,s7,{(s8,s9)}{(s10,s11)}(s12,s13){(g2)}s17,s18
!!!RDF**kern: < = below
!!!RDF**kern: > = above
!!!RDF**kern: | = vertical stroke
!!!ENC:Anastazja Marusiak
!!!END:2021-06-10
!!!ENC: Marta Chmielewska
!!!END: 2021-07-05
